;FLAVOR:Marlin
;TIME:5667
;Filament used: 4.37939m
;Layer height: 0.2
;MINX:76.5
;MINY:63.5
;MINZ:0.2
;MAXX:143.5
;MAXY:156.5
;MAXZ:12
;TARGET_MACHINE.NAME:Creality Ender-3 S1
;Generated with Cura_SteamEngine 5.6.0
M82 ;absolute extrusion mode
; Ender 3 S1 Start G-code
; M413 S0 ; Disable power loss recovery
G92 E0 ; Reset Extruder

; Prep surfaces before auto home for better accuracy
M140 S60
M104 S200

G28 ; Home all axes
G1 Z10.0 F3000 ; Move Z Axis up little to prevent scratching of Heat Bed
G1 X0 Y0

M190 S60
M109 S200

G1 X0.1 Y20 Z0.3 F5000.0 ; Move to start position
G1 X0.1 Y200.0 Z0.3 F1500.0 E15 ; Draw the first line
G1 X0.4 Y200.0 Z0.3 F5000.0 ; Move to side a little
G1 X0.4 Y20 Z0.3 F1500.0 E30 ; Draw the second line
G92 E0 ; Reset Extruder
G1 Z2.0 F3000 ; Move Z Axis up little to prevent scratching of Heat Bed
G1 X5 Y20 Z0.3 F5000.0 ; Move over to prevent blob squish

G92 E0
G92 E0
G1 F2400 E-0.8
;LAYER_COUNT:60
;LAYER:0
M107
M204 S2000
G0 F7500 X79.231 Y67.265 Z0.2
M204 S500
;TYPE:SKIRT
G1 F2400 E0
G1 F1500 X79.956 Y66.513 E0.03474
G1 X80.692 Y65.876 E0.06712
G1 X81.424 Y65.346 E0.09718
G1 X82.321 Y64.811 E0.13191
G1 X83.199 Y64.39 E0.1643
G1 X84.112 Y64.048 E0.19673
G1 X85.049 Y63.789 E0.22906
G1 X86.016 Y63.611 E0.26176
G1 X87.155 Y63.515 E0.29978
G1 X87.812 Y63.5 E0.32164
G1 X131.804 Y63.5 E1.78482
G1 X132.684 Y63.513 E1.81409
G1 X133.656 Y63.572 E1.84648
G1 X134.619 Y63.718 E1.87887
G1 X135.566 Y63.949 E1.91129
G1 X136.454 Y64.249 E1.94247
G1 X137.346 Y64.639 E1.97485
G1 X138.229 Y65.126 E2.00839
G1 X138.98 Y65.628 E2.03843
G1 X139.795 Y66.286 E2.07327
G1 X140.493 Y66.964 E2.10564
G1 X141.129 Y67.701 E2.13802
G1 X141.699 Y68.491 E2.17042
G1 X142.161 Y69.267 E2.20045
G1 X142.615 Y70.209 E2.23523
G1 X142.944 Y71.087 E2.26642
G1 X143.213 Y72.059 E2.29996
G1 X143.39 Y73.025 E2.33263
G1 X143.485 Y74.155 E2.37034
G1 X143.5 Y74.83 E2.3928
G1 X143.499 Y144.9 E4.72334
G1 X143.488 Y145.663 E4.74872
G1 X143.431 Y146.636 E4.78114
G1 X143.286 Y147.599 E4.81353
G1 X143.057 Y148.545 E4.8459
G1 X142.746 Y149.469 E4.87833
G1 X142.354 Y150.36 E4.9107
G1 X141.886 Y151.212 E4.94303
G1 X141.364 Y151.993 E4.97428
G1 X140.731 Y152.778 E5.00782
G1 X140.106 Y153.429 E5.03783
G1 X139.317 Y154.117 E5.07265
G1 X138.557 Y154.667 E5.10385
G1 X137.69 Y155.184 E5.13743
G1 X136.812 Y155.606 E5.16983
G1 X135.901 Y155.948 E5.20219
G1 X134.962 Y156.209 E5.23461
G1 X133.996 Y156.387 E5.26728
G1 X132.845 Y156.485 E5.3057
G1 X132.17 Y156.5 E5.32816
G1 X88.064 Y156.499 E6.79513
G1 X87.331 Y156.488 E6.81951
G1 X86.359 Y156.431 E6.85189
G1 X85.396 Y156.285 E6.88429
G1 X84.45 Y156.056 E6.91666
G1 X83.526 Y155.744 E6.9491
G1 X82.636 Y155.352 E6.98144
G1 X81.813 Y154.901 E7.01266
G1 X80.974 Y154.34 E7.04623
G1 X80.27 Y153.774 E7.07627
G1 X79.517 Y153.049 E7.11104
G1 X78.88 Y152.313 E7.14341
G1 X78.35 Y151.582 E7.17344
G1 X77.814 Y150.685 E7.2082
G1 X77.392 Y149.807 E7.2406
G1 X77.05 Y148.895 E7.27299
G1 X76.79 Y147.957 E7.30537
G1 X76.612 Y146.988 E7.33814
G1 X76.514 Y145.809 E7.37749
G1 X76.5 Y145.158 E7.39914
G1 X76.501 Y75.025 E9.73178
G1 X76.512 Y74.325 E9.75506
G1 X76.57 Y73.352 E9.78748
G1 X76.716 Y72.389 E9.81988
G1 X76.946 Y71.443 E9.85226
G1 X77.259 Y70.52 E9.88467
G1 X77.651 Y69.63 E9.91702
G1 X78.121 Y68.777 E9.94941
G1 X78.664 Y67.969 E9.98179
G1 X79.231 Y67.265 E10.01186
M204 S2000
G0 F7500 X79.543 Y67.516
M204 S500
G1 F1500 X80.218 Y66.815 E10.04422
G1 X80.927 Y66.2 E10.07544
G1 X81.659 Y65.67 E10.1055
G1 X82.495 Y65.171 E10.13788
G1 X83.34 Y64.764 E10.16908
G1 X84.219 Y64.433 E10.20032
G1 X85.122 Y64.182 E10.23149
G1 X86.05 Y64.01 E10.26288
G1 X87.189 Y63.914 E10.3009
G1 X87.821 Y63.9 E10.32192
G1 X131.798 Y63.9 E11.7846
G1 X132.66 Y63.912 E11.81328
G1 X133.597 Y63.968 E11.8445
G1 X134.525 Y64.107 E11.87571
G1 X135.438 Y64.328 E11.90695
G1 X136.294 Y64.616 E11.93699
G1 X137.186 Y65.006 E11.96937
G1 X138.007 Y65.459 E12.00056
G1 X138.758 Y65.961 E12.0306
G1 X139.517 Y66.573 E12.06303
G1 X140.191 Y67.226 E12.09424
G1 X140.805 Y67.935 E12.12544
G1 X141.355 Y68.696 E12.15667
G1 X141.817 Y69.472 E12.1867
G1 X142.24 Y70.349 E12.21909
G1 X142.569 Y71.227 E12.25027
G1 X142.82 Y72.132 E12.28151
G1 X142.991 Y73.059 E12.31286
G1 X143.086 Y74.189 E12.35058
G1 X143.1 Y74.83 E12.3719
G1 X143.099 Y144.895 E14.70228
G1 X143.089 Y145.64 E14.72706
G1 X143.035 Y146.577 E14.75827
G1 X142.897 Y147.506 E14.78951
G1 X142.678 Y148.418 E14.82071
G1 X142.38 Y149.308 E14.85192
G1 X142.003 Y150.168 E14.88316
G1 X141.553 Y150.99 E14.91432
G1 X141.031 Y151.771 E14.94557
G1 X140.442 Y152.501 E14.97677
G1 X139.817 Y153.152 E15.00678
G1 X139.082 Y153.793 E15.03922
G1 X138.322 Y154.343 E15.07042
G1 X137.516 Y154.824 E15.10164
G1 X136.671 Y155.232 E15.13285
G1 X135.793 Y155.563 E15.16406
G1 X134.889 Y155.816 E15.19528
G1 X133.962 Y155.988 E15.22664
G1 X132.811 Y156.086 E15.26506
G1 X132.17 Y156.1 E15.28638
G1 X88.07 Y156.099 E16.75316
G1 X87.354 Y156.089 E16.77697
G1 X86.418 Y156.035 E16.80816
G1 X85.489 Y155.896 E16.8394
G1 X84.577 Y155.677 E16.87059
G1 X83.687 Y155.378 E16.90182
G1 X82.828 Y155.001 E16.93302
G1 X82.005 Y154.55 E16.96424
G1 X81.225 Y154.028 E16.99545
G1 X80.521 Y153.462 E17.0255
G1 X79.819 Y152.787 E17.05789
G1 X79.204 Y152.078 E17.0891
G1 X78.674 Y151.347 E17.11914
G1 X78.174 Y150.511 E17.15153
G1 X77.766 Y149.666 E17.18274
G1 X77.435 Y148.788 E17.21395
G1 X77.183 Y147.884 E17.24517
G1 X77.011 Y146.955 E17.27659
G1 X76.913 Y145.776 E17.31594
G1 X76.9 Y145.158 E17.3365
G1 X76.901 Y75.031 E19.66893
G1 X76.911 Y74.348 E19.69165
G1 X76.966 Y73.411 E19.72287
G1 X77.105 Y72.483 E19.75408
G1 X77.325 Y71.571 E19.78528
G1 X77.625 Y70.681 E19.81652
G1 X78.002 Y69.822 E19.84772
G1 X78.453 Y69 E19.87891
G1 X78.976 Y68.22 E19.91014
G1 X79.543 Y67.516 E19.94021
M204 S2000
G0 F7500 X79.855 Y67.767
M204 S500
G1 F1500 X80.481 Y67.117 E19.97022
G1 X81.162 Y66.524 E20.00025
G1 X81.894 Y65.994 E20.03031
G1 X82.669 Y65.531 E20.06034
G1 X83.482 Y65.138 E20.09037
G1 X84.327 Y64.818 E20.12043
G1 X85.196 Y64.575 E20.15044
G1 X86.084 Y64.409 E20.18048
G1 X87.223 Y64.313 E20.2185
G1 X87.83 Y64.3 E20.2387
G1 X131.793 Y64.3 E21.70091
G1 X132.637 Y64.311 E21.72898
G1 X133.539 Y64.364 E21.75904
G1 X134.432 Y64.496 E21.78906
G1 X135.31 Y64.707 E21.81909
G1 X136.166 Y64.995 E21.84913
G1 X136.993 Y65.357 E21.87916
G1 X137.785 Y65.792 E21.90921
G1 X138.536 Y66.294 E21.93926
G1 X139.239 Y66.861 E21.9693
G1 X139.889 Y67.488 E21.99934
G1 X140.481 Y68.17 E22.02937
G1 X141.011 Y68.901 E22.0594
G1 X141.473 Y69.677 E22.08944
G1 X141.866 Y70.49 E22.11948
G1 X142.184 Y71.335 E22.1495
G1 X142.427 Y72.205 E22.17955
G1 X142.592 Y73.093 E22.20959
G1 X142.687 Y74.223 E22.24731
G1 X142.7 Y74.83 E22.2675
G1 X142.699 Y144.89 E24.5977
G1 X142.69 Y145.617 E24.62189
G1 X142.639 Y146.519 E24.65193
G1 X142.508 Y147.413 E24.68199
G1 X142.299 Y148.291 E24.71201
G1 X142.013 Y149.148 E24.74205
G1 X141.652 Y149.976 E24.7721
G1 X141.22 Y150.768 E24.8021
G1 X140.719 Y151.52 E24.83216
G1 X140.153 Y152.224 E24.8622
G1 X139.528 Y152.875 E24.89222
G1 X138.847 Y153.469 E24.92227
G1 X138.116 Y154 E24.95232
G1 X137.342 Y154.464 E24.98234
G1 X136.529 Y154.858 E25.01239
G1 X135.685 Y155.178 E25.04241
G1 X134.815 Y155.423 E25.07247
G1 X133.928 Y155.589 E25.10248
G1 X132.777 Y155.687 E25.14091
G1 X132.17 Y155.7 E25.1611
G1 X88.075 Y155.699 E26.6277
G1 X87.377 Y155.69 E26.65092
G1 X86.476 Y155.639 E26.68094
G1 X85.582 Y155.507 E26.71099
G1 X84.704 Y155.298 E26.74101
G1 X83.847 Y155.011 E26.77107
G1 X83.02 Y154.65 E26.80109
G1 X82.227 Y154.217 E26.83114
G1 X81.476 Y153.716 E26.86116
G1 X80.772 Y153.15 E26.89121
G1 X80.121 Y152.524 E26.92125
G1 X79.528 Y151.843 E26.95128
G1 X78.998 Y151.112 E26.98131
G1 X78.534 Y150.337 E27.01135
G1 X78.14 Y149.524 E27.0414
G1 X77.82 Y148.68 E27.07142
G1 X77.576 Y147.81 E27.10148
G1 X77.41 Y146.922 E27.13152
G1 X77.313 Y145.767 E27.17007
G1 X77.3 Y145.158 E27.19033
G1 X77.301 Y75.036 E29.5226
G1 X77.31 Y74.371 E29.54472
G1 X77.362 Y73.469 E29.57477
G1 X77.494 Y72.576 E29.6048
G1 X77.704 Y71.698 E29.63482
G1 X77.991 Y70.841 E29.66488
G1 X78.353 Y70.014 E29.69491
G1 X78.786 Y69.222 E29.72493
G1 X79.288 Y68.471 E29.75497
G1 X79.855 Y67.767 E29.78504
M204 S2000
G1 F2400 E28.98504
;MESH:New_Thigh_second v2.stl
G0 F7500 X101.75 Y77.28
G0 X117.76 Y83.042
M204 S500
;TYPE:WALL-INNER
G1 F2400 E29.78504
G1 F1500 X117.578 Y83.1 E29.79139
G1 X102.467 Y83.1 E30.29399
G1 X102.201 Y83.021 E30.30322
G1 X101.977 Y82.796 E30.31378
G1 X101.9 Y82.582 E30.32134
G1 X101.9 Y77.376 E30.49449
G1 X102.02 Y77.14 E30.5033
G1 X102.217 Y76.97 E30.51195
G1 X102.419 Y76.9 E30.51906
G1 X117.5 Y76.9 E31.02066
G1 X117.783 Y76.97 E31.03036
G1 X117.98 Y77.14 E31.03901
G1 X118.1 Y77.376 E31.04782
G1 X118.096 Y82.569 E31.22054
G1 X118.001 Y82.832 E31.22984
G1 X117.76 Y83.042 E31.24047
M204 S2000
G1 F2400 E30.44047
G0 F7500 X118.277 Y81.195
G0 X126.778 Y80.684
G0 X128.504 Y81.105
M204 S500
G1 F2400 E31.24047
G1 F1500 X127.923 Y81.036 E31.25993
G1 X127.38 Y80.847 E31.27905
G1 X126.889 Y80.541 E31.29829
G1 X126.467 Y80.122 E31.31807
G1 X126.153 Y79.629 E31.33751
G1 X125.961 Y79.078 E31.35692
G1 X125.895 Y78.505 E31.37611
G1 X125.96 Y77.927 E31.39545
G1 X126.152 Y77.374 E31.41492
G1 X126.462 Y76.878 E31.43437
G1 X126.881 Y76.46 E31.45406
G1 X127.38 Y76.147 E31.47365
G1 X127.957 Y75.956 E31.49387
G1 X128.497 Y75.9 E31.51192
G1 X129.073 Y75.959 E31.53118
G1 X129.634 Y76.156 E31.55096
G1 X130.119 Y76.461 E31.57001
G1 X130.539 Y76.876 E31.58965
G1 X130.847 Y77.369 E31.60899
G1 X131.043 Y77.934 E31.62888
G1 X131.1 Y78.499 E31.64776
G1 X131.044 Y79.042 E31.66592
G1 X130.847 Y79.63 E31.68654
G1 X130.535 Y80.124 E31.70598
G1 X130.13 Y80.533 E31.72512
G1 X129.63 Y80.847 E31.74476
G1 X129.074 Y81.041 E31.76435
G1 X128.504 Y81.105 E31.78342
M204 S2000
G1 F2400 E30.98342
G0 F7500 X128.496 Y81.206
G0 X131.7 Y81.286
G0 X131.9 Y144.9
M204 S500
G1 F2400 E31.78342
G1 F1500 X131.9 Y75.1 E34.10498
G1 X88.1 Y75.1 E35.56177
G1 X88.1 Y144.9 E37.88333
G1 X131.9 Y144.9 E39.34013
M204 S2000
G1 F2400 E38.54013
G0 F7500 X92.045 Y144.7
G0 X91.994 Y144.25
G0 X92.045 Y144.043
M204 S500
G1 F2400 E39.34013
G1 F1500 X91.507 Y144.104 E39.35813
G1 X90.928 Y144.041 E39.37751
G1 X90.375 Y143.85 E39.39696
G1 X89.88 Y143.539 E39.41641
G1 X89.459 Y143.118 E39.43621
G1 X89.148 Y142.622 E39.45568
G1 X88.957 Y142.045 E39.4759
G1 X88.895 Y141.505 E39.49398
G1 X88.96 Y140.928 E39.51329
G1 X89.151 Y140.373 E39.53281
G1 X89.463 Y139.878 E39.55227
G1 X89.884 Y139.458 E39.57205
G1 X90.376 Y139.15 E39.59136
G1 X90.928 Y138.958 E39.6108
G1 X91.498 Y138.896 E39.62987
G1 X92.075 Y138.96 E39.64917
G1 X92.631 Y139.154 E39.66876
G1 X93.123 Y139.465 E39.68812
G1 X93.536 Y139.875 E39.70748
G1 X93.84 Y140.363 E39.7266
G1 X94.037 Y140.926 E39.74644
G1 X94.105 Y141.498 E39.7656
G1 X94.041 Y142.069 E39.78471
G1 X93.845 Y142.635 E39.80463
G1 X93.537 Y143.123 E39.82382
G1 X93.13 Y143.533 E39.84304
G1 X92.623 Y143.851 E39.86294
G1 X92.045 Y144.043 E39.8832
M204 S2000
G0 F7500 X91.976 Y143.649
M204 S500
;TYPE:WALL-OUTER
G1 F1500 X91.505 Y143.7 E39.89896
G1 X90.994 Y143.64 E39.91607
G1 X90.571 Y143.494 E39.93095
G1 X90.151 Y143.237 E39.94733
G1 X89.791 Y142.885 E39.96408
G1 X89.506 Y142.43 E39.98193
G1 X89.351 Y141.976 E39.99789
G1 X89.3 Y141.504 E40.01368
G1 X89.361 Y140.992 E40.03083
G1 X89.507 Y140.569 E40.04571
G1 X89.792 Y140.114 E40.06357
G1 X90.152 Y139.762 E40.08031
G1 X90.531 Y139.525 E40.09518
G1 X91.039 Y139.349 E40.11306
G1 X91.52 Y139.301 E40.12914
G1 X91.988 Y139.355 E40.14481
G1 X92.458 Y139.519 E40.16137
G1 X92.862 Y139.772 E40.17722
G1 X93.222 Y140.127 E40.19404
G1 X93.481 Y140.539 E40.21022
G1 X93.647 Y141.017 E40.22705
G1 X93.699 Y141.522 E40.24394
G1 X93.64 Y142.004 E40.26009
G1 X93.471 Y142.477 E40.2768
G1 X93.207 Y142.887 E40.29301
G1 X92.858 Y143.232 E40.30934
G1 X92.434 Y143.492 E40.32588
G1 X91.976 Y143.649 E40.34198
M204 S2000
G1 F2400 E39.54198
G0 F7500 X92.009 Y143.946
G0 X92.454 Y143.748
G0 X94.009 Y142.711
G0 X94.009 Y144.7
G0 X132.3 Y145.3
M204 S500
G1 F2400 E40.34198
G1 F1500 X132.3 Y74.7 E42.69015
G1 X87.7 Y74.7 E44.17355
G1 X87.7 Y145.3 E46.52172
G1 X132.3 Y145.3 E48.00512
M204 S2000
G1 F2400 E47.20512
G0 F7500 X132.03 Y145.03
G0 X131.7 Y81.198
G0 X130.247 Y80.673
G0 X128.014 Y80.646
M204 S500
G1 F2400 E48.00512
G1 F1500 X127.551 Y80.485 E48.02142
G1 X127.116 Y80.209 E48.03856
G1 X126.777 Y79.87 E48.0545
G1 X126.526 Y79.471 E48.07018
G1 X126.351 Y78.976 E48.08764
G1 X126.301 Y78.481 E48.10419
G1 X126.361 Y77.992 E48.12058
G1 X126.527 Y77.528 E48.13697
G1 X126.792 Y77.114 E48.15332
G1 X127.152 Y76.762 E48.17006
G1 X127.572 Y76.505 E48.18644
G1 X128.026 Y76.35 E48.20239
G1 X128.497 Y76.3 E48.21815
G1 X129.008 Y76.361 E48.23526
G1 X129.476 Y76.529 E48.2518
G1 X129.885 Y76.792 E48.26798
G1 X130.237 Y77.148 E48.28463
G1 X130.471 Y77.521 E48.29927
G1 X130.651 Y78.041 E48.31757
G1 X130.7 Y78.499 E48.33289
G1 X130.649 Y78.973 E48.34875
G1 X130.471 Y79.477 E48.36653
G1 X130.207 Y79.887 E48.38275
G1 X129.858 Y80.232 E48.39907
G1 X129.475 Y80.472 E48.4141
G1 X128.964 Y80.65 E48.4321
G1 X128.483 Y80.699 E48.44818
G1 X128.014 Y80.646 E48.46388
M204 S2000
G1 F2400 E47.66388
G0 F7500 X128.433 Y81.198
G0 X126.778 Y80.684
G0 X118.277 Y80.674
G0 X102.386 Y82.665
M204 S500
G1 F2400 E48.46388
G1 F1500 X102.302 Y82.535 E48.46903
G1 X102.3 Y77.456 E48.63796
G1 X102.34 Y77.38 E48.64081
G1 X102.465 Y77.302 E48.64571
G1 X117.577 Y77.3 E49.14834
G1 X117.7 Y77.456 E49.15495
G1 X117.699 Y82.523 E49.32348
G1 X117.628 Y82.655 E49.32846
G1 X117.535 Y82.698 E49.33187
G1 X102.465 Y82.698 E49.8331
G1 X102.386 Y82.665 E49.83595
M204 S2000
G1 F2400 E49.03595
G0 F7500 X102.386 Y83
G0 X102.268 Y83.246
G0 X89.772 Y139.314
G0 X88.532 Y140.862
M204 S500
;TYPE:SKIN
G1 F2400 E49.83595
G1 F1178.8 X88.497 Y141.504 E49.86316
G1 F1174.2 X88.533 Y142.146 E49.89048
M204 S2000
G0 F7500 X88.865 Y142.107
G0 X89.587 Y143.019
G0 X90.902 Y144.138
G0 X90.866 Y144.468
M204 S500
G1 F1273.9 X90.182 Y144.539 E49.91741
G1 F1500 X88.461 Y144.539 E49.97465
G1 X88.461 Y142.819 E50.03186
G1 F1268.5 X88.533 Y142.146 E50.05848
G1 X88.835 Y142.801 E50.08685
G1 F1500 X89.165 Y143.328 E50.10753
G1 X89.636 Y143.806 E50.12985
G1 X90.2 Y144.165 E50.15209
G1 F1273.9 X90.866 Y144.468 E50.18074
G1 F1178.8 X91.506 Y144.503 E50.20787
G1 F1174.2 X92.148 Y144.467 E50.23519
G1 F1268.5 X92.805 Y144.163 E50.26366
G1 F1500 X93.334 Y143.833 E50.2844
G1 X93.81 Y143.36 E50.30672
G1 X94.179 Y142.772 E50.32981
G1 X94.388 Y142.171 E50.35097
G1 X94.464 Y141.474 E50.37429
G1 X94.391 Y140.86 E50.39486
G1 X94.161 Y140.198 E50.41817
G1 X93.816 Y139.642 E50.43993
G1 X93.344 Y139.18 E50.4619
G1 X92.794 Y138.836 E50.48347
G1 X92.188 Y138.622 E50.50485
G1 X91.525 Y138.536 E50.52709
G1 X90.831 Y138.611 E50.5503
G1 X90.238 Y138.816 E50.57117
G1 X89.678 Y139.161 E50.59305
G1 X89.194 Y139.635 E50.61558
G1 X88.836 Y140.198 E50.63777
G1 F1273.9 X88.532 Y140.862 E50.66637
G1 X88.461 Y140.179 E50.69326
G1 F1500 X88.46 Y75.46 E52.84583
G1 X127.186 Y75.46 E54.13386
G1 F1271.2 X127.857 Y75.533 E54.16035
G1 X127.205 Y75.833 E54.18852
G1 F1500 X126.672 Y76.165 E54.2094
G1 X126.166 Y76.671 E54.2332
G1 X125.818 Y77.235 E54.25524
G1 X125.614 Y77.825 E54.27601
G1 X125.536 Y78.481 E54.29798
G1 X125.607 Y79.15 E54.32036
G1 X125.84 Y79.81 E54.34364
G1 X126.191 Y80.353 E54.36514
G1 X126.674 Y80.831 E54.38774
G1 X127.206 Y81.167 E54.40867
G1 X127.815 Y81.38 E54.43013
G1 X128.475 Y81.464 E54.45226
G1 X129.129 Y81.397 E54.47412
G1 X129.811 Y81.16 E54.49814
G1 X130.341 Y80.828 E54.51894
G1 X130.83 Y80.331 E54.54213
G1 X131.159 Y79.813 E54.56254
G1 F1268.5 X131.467 Y79.15 E54.59129
G1 X131.54 Y79.83 E54.61819
G1 F1500 X131.54 Y144.54 E56.77045
G1 X92.825 Y144.54 E58.05812
G1 F1268.5 X92.148 Y144.467 E58.0849
M204 S2000
G1 F2400 E57.2849
G0 F7500 X92.188 Y144.108
G0 X93.409 Y143.023
G0 X93.7 Y142.56
G0 X93.883 Y142.035
G0 X93.936 Y141.553
G0 X93.676 Y139.757
G0 X128.497 Y81.286
G0 X131.467 Y79.15
M204 S500
G1 F2400 E58.0849
G1 F1171.9 X131.501 Y78.498 E58.11269
G1 F1176.5 X131.469 Y77.874 E58.13919
G1 F1273.9 X131.159 Y77.187 E58.16871
