;FLAVOR:Marlin
;TIME:79
;Filament used: 0.0272353m
;Layer height: 0.2
;MINX:97.615
;MINY:97.604
;MINZ:0.2
;MAXX:122.39
;MAXY:122.39
;MAXZ:10
;TARGET_MACHINE.NAME:Creality Ender-3 S1
;Generated with Cura_SteamEngine 5.6.0
M82 ;absolute extrusion mode
; Ender 3 S1 Start G-code
; M413 S0 ; Disable power loss recovery
G92 E0 ; Reset Extruder

; Prep surfaces before auto home for better accuracy
M140 S60
M104 S200

G28 ; Home all axes
G1 Z10.0 F3000 ; Move Z Axis up little to prevent scratching of Heat Bed
G1 X0 Y0

M190 S60
M109 S200

G1 X0.1 Y20 Z0.3 F5000.0 ; Move to start position
G1 X0.1 Y200.0 Z0.3 F1500.0 E15 ; Draw the first line
G1 X0.4 Y200.0 Z0.3 F5000.0 ; Move to side a little
G1 X0.4 Y20 Z0.3 F1500.0 E30 ; Draw the second line
G92 E0 ; Reset Extruder
G1 Z2.0 F3000 ; Move Z Axis up little to prevent scratching of Heat Bed
G1 X5 Y20 Z0.3 F5000.0 ; Move over to prevent blob squish

G92 E0
G92 E0
G1 F2400 E-0.8
;LAYER_COUNT:50
;LAYER:0
M107
M204 S2000
G0 F7500 X101.493 Y100.978 Z0.2
M204 S500
;TYPE:SKIRT
G1 F2400 E0
G1 F1500 X102.174 Y100.385 E0.03003
G1 X102.943 Y99.818 E0.06181
G1 X103.262 Y99.605 E0.07457
G1 X104.125 Y99.083 E0.10812
G1 X105.031 Y98.639 E0.14167
G1 X105.95 Y98.285 E0.17443
G1 X107.261 Y97.927 E0.21963
G1 X107.736 Y97.83 E0.23575
G1 X108.732 Y97.673 E0.26929
G1 X109.739 Y97.604 E0.30286
G1 X110.748 Y97.624 E0.33643
G1 X111.646 Y97.719 E0.36646
G1 X112.633 Y97.901 E0.39984
G1 X113.612 Y98.145 E0.4334
G1 X114.566 Y98.475 E0.46698
G1 X115.481 Y98.885 E0.50032
G1 X116.235 Y99.3 E0.52895
G1 X116.532 Y99.48 E0.5405
G1 X117.344 Y100.02 E0.57293
G1 X118.175 Y100.692 E0.60848
G1 X119.165 Y101.682 E0.65505
G1 X119.446 Y102.002 E0.66921
G1 X120.012 Y102.706 E0.69926
G1 X120.633 Y103.643 E0.73664
G1 X121.182 Y104.667 E0.77529
G1 X121.631 Y105.729 E0.81364
G1 X121.909 Y106.588 E0.84367
G1 X122.164 Y107.717 E0.88216
G1 X122.231 Y108.104 E0.89523
G1 X122.355 Y109.103 E0.92871
G1 X122.39 Y110.005 E0.95873
G1 X122.306 Y111.426 E1.00608
G1 X122.125 Y112.544 E1.04375
G1 X121.88 Y113.512 E1.07696
G1 X121.607 Y114.321 E1.10535
G1 X121.206 Y115.3 E1.14054
G1 X120.741 Y116.198 E1.17418
G1 X120.185 Y117.068 E1.20852
G1 X119.293 Y118.184 E1.25604
G1 X119.01 Y118.493 E1.26997
G1 X118.297 Y119.203 E1.30344
G1 X117.606 Y119.785 E1.33349
G1 X116.464 Y120.574 E1.37965
G1 X115.562 Y121.076 E1.41399
G1 X114.545 Y121.528 E1.451
G1 X113.554 Y121.869 E1.48586
G1 X112.572 Y122.12 E1.51957
G1 X111.068 Y122.337 E1.57011
G1 X110.743 Y122.361 E1.58095
G1 X109.841 Y122.39 E1.61097
G1 X108.717 Y122.325 E1.64842
G1 X107.62 Y122.157 E1.68533
G1 X107.267 Y122.083 E1.69732
G1 X106.292 Y121.832 E1.73081
G1 X105.439 Y121.534 E1.76086
G1 X104.424 Y121.075 E1.79791
G1 X103.637 Y120.632 E1.82795
G1 X102.808 Y120.078 E1.86111
G1 X101.989 Y119.451 E1.89542
G1 X101.246 Y118.77 E1.92894
G1 X100.593 Y118.06 E1.96102
G1 X100.058 Y117.382 E1.98975
G1 X99.471 Y116.532 E2.02411
G1 X98.968 Y115.645 E2.05802
G1 X98.472 Y114.539 E2.09834
G1 X98.073 Y113.348 E2.14011
G1 X97.845 Y112.376 E2.17332
G1 X97.726 Y111.602 E2.19937
G1 X97.685 Y111.252 E2.21109
G1 X97.615 Y110.244 E2.24469
G1 X97.633 Y109.265 E2.27726
G1 X97.758 Y108.142 E2.31484
G1 X97.814 Y107.812 E2.32598
G1 X98.026 Y106.826 E2.35952
G1 X98.32 Y105.87 E2.39279
G1 X98.647 Y105.049 E2.42218
G1 X99.033 Y104.233 E2.4522
G1 X99.596 Y103.274 E2.48919
G1 X100.154 Y102.486 E2.5213
G1 X100.72 Y101.782 E2.55135
G1 X101.493 Y100.978 E2.58844
M204 S2000
G0 F7500 X101.756 Y101.28
M204 S500
G1 F1500 X102.437 Y100.687 E2.61848
G1 X103.166 Y100.15 E2.64859
G1 X103.469 Y99.947 E2.66072
G1 X104.302 Y99.442 E2.69312
G1 X105.176 Y99.012 E2.72552
G1 X106.056 Y98.671 E2.75691
G1 X107.342 Y98.319 E2.80126
G1 X107.799 Y98.225 E2.81677
G1 X108.76 Y98.072 E2.84914
G1 X109.732 Y98.004 E2.88155
G1 X110.706 Y98.022 E2.91395
G1 X111.604 Y98.117 E2.94398
G1 X112.537 Y98.289 E2.97554
G1 X113.482 Y98.523 E3.00792
G1 X114.403 Y98.84 E3.04031
G1 X115.288 Y99.235 E3.07255
G1 X116.028 Y99.642 E3.10064
G1 X116.31 Y99.813 E3.11161
G1 X117.122 Y100.353 E3.14404
G1 X117.892 Y100.975 E3.17696
G1 X118.882 Y101.965 E3.22353
G1 X119.134 Y102.253 E3.23626
G1 X119.7 Y102.957 E3.2663
G1 X120.28 Y103.832 E3.30122
G1 X120.829 Y104.856 E3.33986
G1 X121.25 Y105.852 E3.37583
G1 X121.528 Y106.711 E3.40586
G1 X121.77 Y107.785 E3.44247
G1 X121.834 Y108.154 E3.45493
G1 X121.955 Y109.119 E3.48728
G1 X121.99 Y110.021 E3.5173
G1 X121.911 Y111.363 E3.56201
G1 X121.737 Y112.446 E3.59849
G1 X121.501 Y113.384 E3.63067
G1 X121.228 Y114.193 E3.65906
G1 X120.851 Y115.117 E3.69226
G1 X120.404 Y115.983 E3.72467
G1 X119.872 Y116.818 E3.7576
G1 X118.997 Y117.914 E3.80424
G1 X118.727 Y118.21 E3.81757
G1 X118.039 Y118.897 E3.84991
G1 X117.348 Y119.479 E3.87996
G1 X116.269 Y120.224 E3.92357
G1 X115.367 Y120.726 E3.9579
G1 X114.414 Y121.15 E3.99259
G1 X113.455 Y121.481 E4.02634
G1 X112.473 Y121.732 E4.06005
G1 X111.038 Y121.938 E4.10827
G1 X110.73 Y121.961 E4.11854
G1 X109.828 Y121.99 E4.14855
G1 X108.778 Y121.93 E4.18353
G1 X107.702 Y121.765 E4.21974
G1 X107.366 Y121.695 E4.23116
G1 X106.424 Y121.454 E4.2635
G1 X105.571 Y121.156 E4.29355
G1 X104.62 Y120.726 E4.32826
G1 X103.833 Y120.283 E4.3583
G1 X103.051 Y119.76 E4.38959
G1 X102.259 Y119.156 E4.42272
G1 X101.54 Y118.499 E4.45511
G1 X100.907 Y117.812 E4.48618
G1 X100.372 Y117.134 E4.51491
G1 X99.819 Y116.334 E4.54725
G1 X99.333 Y115.481 E4.57991
G1 X98.837 Y114.375 E4.62022
G1 X98.462 Y113.256 E4.65948
G1 X98.24 Y112.315 E4.69163
G1 X98.123 Y111.555 E4.71721
G1 X98.084 Y111.224 E4.72829
G1 X98.015 Y110.251 E4.76074
G1 X98.031 Y109.309 E4.79207
G1 X98.156 Y108.186 E4.82965
G1 X98.205 Y107.895 E4.83947
G1 X98.408 Y106.943 E4.87184
G1 X98.692 Y106.018 E4.90403
G1 X99.009 Y105.22 E4.93259
G1 X99.395 Y104.404 E4.96261
G1 X99.922 Y103.505 E4.99727
G1 X100.466 Y102.737 E5.02857
G1 X101.032 Y102.033 E5.05862
G1 X101.756 Y101.28 E5.09336
M204 S2000
G0 F7500 X102.019 Y101.582
M204 S500
G1 F1500 X102.7 Y100.989 E5.12339
G1 X103.389 Y100.482 E5.15185
G1 X103.677 Y100.289 E5.16338
G1 X104.479 Y99.801 E5.1946
G1 X105.321 Y99.385 E5.22584
G1 X106.162 Y99.057 E5.25586
G1 X107.423 Y98.711 E5.29935
G1 X107.863 Y98.62 E5.3143
G1 X108.789 Y98.471 E5.34549
G1 X109.725 Y98.404 E5.3767
G1 X110.664 Y98.42 E5.40794
G1 X111.562 Y98.515 E5.43797
G1 X112.441 Y98.677 E5.4677
G1 X113.352 Y98.901 E5.4989
G1 X114.24 Y99.205 E5.53012
G1 X115.096 Y99.586 E5.56129
G1 X115.821 Y99.984 E5.58879
G1 X116.089 Y100.146 E5.59921
G1 X116.871 Y100.665 E5.63043
G1 X117.609 Y101.258 E5.66191
G1 X118.581 Y102.229 E5.70761
G1 X118.822 Y102.504 E5.71977
G1 X119.388 Y103.208 E5.74982
G1 X119.928 Y104.021 E5.78228
G1 X120.461 Y105.012 E5.8197
G1 X120.869 Y105.975 E5.85449
G1 X121.147 Y106.834 E5.88452
G1 X121.376 Y107.853 E5.91926
G1 X121.437 Y108.204 E5.93111
G1 X121.555 Y109.135 E5.96232
G1 X121.59 Y110.037 E5.99234
G1 X121.516 Y111.3 E6.03442
G1 X121.349 Y112.349 E6.06975
G1 X121.122 Y113.256 E6.10085
G1 X120.849 Y114.065 E6.12925
G1 X120.495 Y114.934 E6.16046
G1 X120.066 Y115.769 E6.19168
G1 X119.559 Y116.569 E6.22318
G1 X118.701 Y117.645 E6.26895
G1 X118.444 Y117.927 E6.28164
G1 X117.781 Y118.591 E6.31285
G1 X117.09 Y119.173 E6.3429
G1 X116.074 Y119.874 E6.38396
G1 X115.172 Y120.376 E6.41829
G1 X114.283 Y120.772 E6.45066
G1 X113.356 Y121.093 E6.48329
G1 X112.374 Y121.344 E6.517
G1 X111.008 Y121.539 E6.56289
G1 X110.717 Y121.561 E6.5726
G1 X109.815 Y121.59 E6.60262
G1 X108.839 Y121.535 E6.63513
G1 X107.783 Y121.373 E6.67066
G1 X107.465 Y121.307 E6.68146
G1 X106.556 Y121.076 E6.71266
G1 X105.703 Y120.778 E6.74271
G1 X104.816 Y120.377 E6.77509
G1 X104.029 Y119.934 E6.80513
G1 X103.274 Y119.428 E6.83535
G1 X102.528 Y118.86 E6.86654
G1 X101.834 Y118.228 E6.89776
G1 X101.201 Y117.541 E6.92883
G1 X100.701 Y116.906 E6.95571
G1 X100.166 Y116.135 E6.98692
G1 X99.698 Y115.317 E7.01827
G1 X99.202 Y114.211 E7.05858
G1 X98.851 Y113.164 E7.09531
G1 X98.635 Y112.254 E7.12642
G1 X98.52 Y111.508 E7.15153
G1 X98.483 Y111.195 E7.16201
G1 X98.415 Y110.258 E7.19326
G1 X98.431 Y109.316 E7.22459
G1 X98.551 Y108.251 E7.26024
G1 X98.596 Y107.978 E7.26944
G1 X98.79 Y107.06 E7.30065
G1 X99.064 Y106.165 E7.33178
G1 X99.371 Y105.391 E7.35947
G1 X99.757 Y104.575 E7.3895
G1 X100.249 Y103.736 E7.42185
G1 X100.778 Y102.988 E7.45232
G1 X101.344 Y102.284 E7.48236
G1 X102.019 Y101.582 E7.51475
M204 S2000
G0 F7500 X102.282 Y101.884
M204 S500
G1 F1500 X102.963 Y101.291 E7.54479
G1 X103.613 Y100.814 E7.5716
G1 X103.886 Y100.63 E7.58255
G1 X104.657 Y100.159 E7.6126
G1 X105.466 Y99.758 E7.64263
G1 X106.307 Y99.43 E7.67266
G1 X107.505 Y99.103 E7.71396
G1 X107.927 Y99.015 E7.7283
G1 X108.818 Y98.87 E7.75832
G1 X109.719 Y98.804 E7.78837
G1 X110.622 Y98.818 E7.81841
G1 X111.52 Y98.913 E7.84844
G1 X112.346 Y99.065 E7.87638
G1 X113.223 Y99.28 E7.90641
G1 X114.078 Y99.571 E7.93645
G1 X114.904 Y99.937 E7.9665
G1 X115.615 Y100.327 E7.99347
G1 X115.868 Y100.479 E8.00329
G1 X116.621 Y100.978 E8.03333
G1 X117.326 Y101.541 E8.06334
G1 X118.28 Y102.493 E8.10817
G1 X118.51 Y102.755 E8.11976
G1 X119.076 Y103.459 E8.14981
G1 X119.576 Y104.211 E8.17984
G1 X120.093 Y105.169 E8.21605
G1 X120.488 Y106.098 E8.24962
G1 X120.766 Y106.957 E8.27965
G1 X120.982 Y107.921 E8.31251
G1 X121.04 Y108.255 E8.32379
G1 X121.155 Y109.151 E8.35383
G1 X121.19 Y110.053 E8.38386
G1 X121.121 Y111.238 E8.42334
G1 X120.961 Y112.252 E8.45748
G1 X120.743 Y113.128 E8.4875
G1 X120.478 Y113.915 E8.51512
G1 X120.139 Y114.752 E8.54516
G1 X119.727 Y115.556 E8.57521
G1 X119.246 Y116.32 E8.60523
G1 X118.405 Y117.376 E8.65013
G1 X118.16 Y117.645 E8.66223
G1 X117.523 Y118.285 E8.69227
G1 X116.832 Y118.867 E8.72232
G1 X115.879 Y119.524 E8.76082
G1 X114.977 Y120.026 E8.79515
G1 X114.152 Y120.394 E8.8252
G1 X113.257 Y120.705 E8.85671
G1 X112.275 Y120.956 E8.89042
G1 X110.977 Y121.14 E8.93402
G1 X110.704 Y121.161 E8.94313
G1 X109.802 Y121.19 E8.97315
G1 X108.9 Y121.14 E9.00319
G1 X107.864 Y120.981 E9.03805
G1 X107.563 Y120.919 E9.04828
G1 X106.688 Y120.698 E9.07829
G1 X105.835 Y120.4 E9.10835
G1 X105.012 Y120.028 E9.13838
G1 X104.225 Y119.585 E9.16842
G1 X103.516 Y119.109 E9.19683
G1 X102.797 Y118.564 E9.22683
G1 X102.128 Y117.957 E9.25688
G1 X101.515 Y117.293 E9.28694
G1 X101.029 Y116.677 E9.31303
G1 X100.513 Y115.936 E9.34306
G1 X100.063 Y115.153 E9.3731
G1 X99.567 Y114.047 E9.41342
G1 X99.24 Y113.071 E9.44765
G1 X99.03 Y112.193 E9.47768
G1 X98.917 Y111.461 E9.50231
G1 X98.882 Y111.165 E9.51223
G1 X98.815 Y110.264 E9.54228
G1 X98.829 Y109.361 E9.57231
G1 X98.946 Y108.316 E9.60729
G1 X98.988 Y108.06 E9.61592
G1 X99.173 Y107.176 E9.64596
G1 X99.436 Y106.312 E9.67599
G1 X99.733 Y105.562 E9.70282
G1 X100.119 Y104.746 E9.73285
G1 X100.576 Y103.967 E9.76289
G1 X101.09 Y103.239 E9.79253
G1 X101.656 Y102.535 E9.82257
G1 X102.282 Y101.884 E9.85261
M204 S2000
G1 F2400 E9.05261
;MESH:cylinder v1.stl
G0 F7500 X108.908 Y108.759
G0 X109.567 Y109.618
G0 X109.999 Y110.092
G0 X109.911 Y110.287
M204 S500
;TYPE:WALL-INNER
G1 F2400 E9.85261
G1 F1045.3 X110.161 Y110.259 E9.86462
G1 X110.302 Y110.043 E9.87693
G1 X110.263 Y109.871 E9.88535
G1 X110.157 Y109.74 E9.89339
G1 X109.973 Y109.702 E9.90236
G1 X109.791 Y109.787 E9.91194
G1 X109.699 Y109.95 E9.92088
G1 X109.752 Y110.178 E9.93205
G1 X109.911 Y110.287 E9.94125
M204 S2000
G0 F7500 X109.969 Y110.795
M204 S500
;TYPE:WALL-OUTER
G1 F1500 X110.34 Y110.72 E9.95384
G1 X110.486 Y110.632 E9.95951
G1 X110.669 Y110.433 E9.9685
G1 X110.778 Y110.176 E9.97779
G1 X110.796 Y110.015 E9.98317
G1 X110.712 Y109.652 E9.99557
G1 X110.48 Y109.363 E10.00789
G1 X110.339 Y109.279 E10.01335
G1 X109.973 Y109.205 E10.02577
G1 X109.669 Y109.266 E10.03608
G1 X109.416 Y109.46 E10.04669
G1 X109.233 Y109.783 E10.05904
G1 X109.215 Y110.129 E10.07056
G1 X109.308 Y110.394 E10.0799
G1 X109.406 Y110.531 E10.0855
G1 X109.718 Y110.745 E10.09809
G1 X109.969 Y110.795 E10.1066
M104 S200
M204 S2000
G1 F2400 E9.3066
;MESH:NONMESH
G0 F300 X109.969 Y110.795 Z0.4
G0 F7500 X109.972 Y110.086
G0 X109.567 Y109.618
G0 X108.908 Y108.759
G0 X102.282 Y101.884
;TIME_ELAPSED:17.599974
;LAYER:1
M106 S255
M204 S500
;TYPE:SKIRT
G1 F2400 E10.1066
G1 F600 X102.963 Y101.291 E10.13663
G1 X103.613 Y100.814 E10.16345
G1 X103.886 Y100.63 E10.1744
G1 X104.657 Y100.159 E10.20445
G1 X105.466 Y99.758 E10.23448
G1 X106.307 Y99.43 E10.2645
G1 X107.505 Y99.103 E10.30581
G1 X107.927 Y99.015 E10.32014
G1 X108.818 Y98.87 E10.35017
G1 X109.719 Y98.804 E10.38022
G1 X110.622 Y98.818 E10.41025
G1 X111.52 Y98.913 E10.44029
G1 X112.346 Y99.065 E10.46822
G1 X113.223 Y99.28 E10.49826
G1 X114.078 Y99.571 E10.52829
G1 X114.904 Y99.937 E10.55834
G1 X115.615 Y100.327 E10.58532
G1 X115.868 Y100.479 E10.59513
G1 X116.621 Y100.978 E10.62518
G1 X117.326 Y101.541 E10.65519
G1 X118.28 Y102.493 E10.70001
G1 X118.51 Y102.755 E10.71161
G1 X119.076 Y103.459 E10.74165
G1 X119.576 Y104.211 E10.77169
G1 X120.093 Y105.169 E10.80789
G1 X120.488 Y106.098 E10.84147
G1 X120.766 Y106.957 E10.8715
G1 X120.982 Y107.921 E10.90436
G1 X121.04 Y108.255 E10.91563
G1 X121.155 Y109.151 E10.94568
G1 X121.19 Y110.053 E10.9757
G1 X121.121 Y111.238 E11.01518
G1 X120.961 Y112.252 E11.04932
G1 X120.743 Y113.128 E11.07935
G1 X120.478 Y113.915 E11.10697
G1 X120.139 Y114.752 E11.137
G1 X119.727 Y115.556 E11.16705
G1 X119.246 Y116.32 E11.19708
G1 X118.405 Y117.376 E11.24198
G1 X118.16 Y117.645 E11.25408
G1 X117.523 Y118.285 E11.28411
G1 X116.832 Y118.867 E11.31416
G1 X115.879 Y119.524 E11.35266
G1 X114.977 Y120.026 E11.387
G1 X114.152 Y120.394 E11.41704
G1 X113.257 Y120.705 E11.44856
G1 X112.275 Y120.956 E11.48227
G1 X110.977 Y121.14 E11.52587
G1 X110.704 Y121.161 E11.53498
G1 X109.802 Y121.19 E11.56499
G1 X108.9 Y121.14 E11.59504
G1 X107.864 Y120.981 E11.6299
G1 X107.563 Y120.919 E11.64012
G1 X106.688 Y120.698 E11.67014
G1 X105.835 Y120.4 E11.70019
G1 X105.012 Y120.028 E11.73023
G1 X104.225 Y119.585 E11.76027
G1 X103.516 Y119.109 E11.78867
G1 X102.797 Y118.564 E11.81868
G1 X102.128 Y117.957 E11.84872
G1 X101.515 Y117.293 E11.87878
G1 X101.029 Y116.677 E11.90488
G1 X100.513 Y115.936 E11.93491
G1 X100.063 Y115.153 E11.96495
G1 X99.567 Y114.047 E12.00526
G1 X99.24 Y113.071 E12.0395
G1 X99.03 Y112.193 E12.06952
G1 X98.917 Y111.461 E12.09416
G1 X98.882 Y111.165 E12.10407
G1 X98.815 Y110.264 E12.13412
G1 X98.829 Y109.361 E12.16416
G1 X98.946 Y108.316 E12.19913
G1 X98.988 Y108.06 E12.20776
G1 X99.173 Y107.176 E12.2378
G1 X99.436 Y106.312 E12.26784
G1 X99.733 Y105.562 E12.29467
G1 X100.119 Y104.746 E12.32469
G1 X100.576 Y103.967 E12.35473
G1 X101.09 Y103.239 E12.38437
G1 X101.656 Y102.535 E12.41442
G1 X102.282 Y101.884 E12.44446
M204 S2000
G1 F2400 E11.64446
;MESH:cylinder v1.stl
G0 F8250 X108.787 Y108.876
G0 X109.625 Y109.562
G0 X110.015 Y110.078
G0 X110.053 Y110.291
M204 S500
;TYPE:WALL-INNER
G1 F2400 E12.44446
G1 F421.1 X110.219 Y110.217 E12.45307
G1 X110.302 Y109.983 E12.46484
G1 X110.273 Y109.858 E12.47092
G1 X110.18 Y109.755 E12.4775
G1 X110.021 Y109.699 E12.48549
G1 X109.806 Y109.762 E12.49611
G1 X109.698 Y109.946 E12.50622
G1 X109.733 Y110.152 E12.51612
G1 X109.891 Y110.286 E12.52594
G1 X110.053 Y110.291 E12.53362
M204 S2000
G0 F8250 X110.15 Y110.779
M204 S500
;TYPE:WALL-OUTER
G1 F600 X110.494 Y110.625 E12.54616
G1 X110.711 Y110.356 E12.55765
G1 X110.796 Y110 E12.56983
G1 X110.751 Y109.729 E12.57896
G1 X110.678 Y109.581 E12.58445
G1 X110.481 Y109.365 E12.59418
G1 X110.238 Y109.239 E12.60328
G1 X109.994 Y109.204 E12.61148
G1 X109.623 Y109.3 E12.62422
G1 X109.475 Y109.4 E12.63016
G1 X109.306 Y109.607 E12.63905
G1 X109.205 Y109.949 E12.65091
G1 X109.269 Y110.315 E12.66327
G1 X109.47 Y110.598 E12.67482
G1 X109.794 Y110.769 E12.687
G1 X110.15 Y110.779 E12.69885
M204 S2000
G1 F2400 E11.89885
;MESH:NONMESH
G0 F300 X110.15 Y110.779 Z0.6
G0 F8250 X110.015 Y110.078
G0 X109.625 Y109.562
G0 X108.787 Y108.876
G0 X102.282 Y101.884
;TIME_ELAPSED:26.335255
;LAYER:2
M204 S500
;TYPE:SKIRT
G1 F2400 E12.69885
G1 F600 X102.963 Y101.291 E12.72888
G1 X103.613 Y100.814 E12.7557
G1 X103.886 Y100.63 E12.76665
G1 X104.657 Y100.159 E12.7967
G1 X105.466 Y99.758 E12.82673
G1 X106.307 Y99.43 E12.85675
G1 X107.505 Y99.103 E12.89805
G1 X107.927 Y99.015 E12.91239
