;FLAVOR:Marlin
;TIME:3156
;Filament used: 2.71284m
;Layer height: 0.2
;MINX:63.5
;MINY:76.5
;MINZ:0.2
;MAXX:156.5
;MAXY:143.5
;MAXZ:8
;TARGET_MACHINE.NAME:Creality Ender-3 S1
;Generated with Cura_SteamEngine 5.6.0
M82 ;absolute extrusion mode
; Ender 3 S1 Start G-code
; M413 S0 ; Disable power loss recovery
G92 E0 ; Reset Extruder

; Prep surfaces before auto home for better accuracy
M140 S60
M104 S200

G28 ; Home all axes
G1 Z10.0 F3000 ; Move Z Axis up little to prevent scratching of Heat Bed
G1 X0 Y0

M190 S60
M109 S200

G1 X0.1 Y20 Z0.3 F5000.0 ; Move to start position
G1 X0.1 Y200.0 Z0.3 F1500.0 E15 ; Draw the first line
G1 X0.4 Y200.0 Z0.3 F5000.0 ; Move to side a little
G1 X0.4 Y20 Z0.3 F1500.0 E30 ; Draw the second line
G92 E0 ; Reset Extruder
G1 Z2.0 F3000 ; Move Z Axis up little to prevent scratching of Heat Bed
G1 X5 Y20 Z0.3 F5000.0 ; Move over to prevent blob squish

G92 E0
G92 E0
G1 F2400 E-0.8
;LAYER_COUNT:40
;LAYER:0
M107
M204 S2000
G0 F7500 X67.692 Y78.876 Z0.2
M204 S500
;TYPE:SKIRT
G1 F2400 E0
G1 F1500 X68.424 Y78.346 E0.03006
G1 X69.321 Y77.811 E0.0648
G1 X70.199 Y77.39 E0.09718
G1 X71.112 Y77.048 E0.12961
G1 X72.049 Y76.789 E0.16194
G1 X73.016 Y76.611 E0.19465
G1 X74.155 Y76.515 E0.23266
G1 X74.812 Y76.5 E0.25452
G1 X144.804 Y76.5 E2.58246
G1 X145.684 Y76.513 E2.61174
G1 X146.656 Y76.572 E2.64412
G1 X147.619 Y76.718 E2.67652
G1 X148.566 Y76.949 E2.70894
G1 X149.454 Y77.249 E2.74012
G1 X150.346 Y77.639 E2.7725
G1 X151.229 Y78.126 E2.80603
G1 X151.98 Y78.628 E2.83608
G1 X152.795 Y79.286 E2.87092
G1 X153.493 Y79.964 E2.90328
G1 X154.129 Y80.701 E2.93566
G1 X154.699 Y81.491 E2.96806
G1 X155.161 Y82.267 E2.9981
G1 X155.615 Y83.209 E3.03288
G1 X155.944 Y84.087 E3.06407
G1 X156.213 Y85.059 E3.09761
G1 X156.39 Y86.025 E3.13027
G1 X156.485 Y87.155 E3.16799
G1 X156.5 Y87.83 E3.19045
G1 X156.499 Y131.9 E4.65622
G1 X156.488 Y132.663 E4.6816
G1 X156.431 Y133.636 E4.71402
G1 X156.286 Y134.599 E4.74641
G1 X156.057 Y135.545 E4.77878
G1 X155.746 Y136.469 E4.81121
G1 X155.354 Y137.36 E4.84358
G1 X154.886 Y138.212 E4.87592
G1 X154.364 Y138.993 E4.90716
G1 X153.731 Y139.778 E4.9407
G1 X153.106 Y140.429 E4.97072
G1 X152.317 Y141.117 E5.00553
G1 X151.557 Y141.667 E5.03674
G1 X150.69 Y142.184 E5.07031
G1 X149.812 Y142.606 E5.10271
G1 X148.901 Y142.948 E5.13508
G1 X147.962 Y143.209 E5.16749
G1 X146.996 Y143.387 E5.20016
G1 X145.845 Y143.485 E5.23858
G1 X145.17 Y143.5 E5.26104
G1 X75.064 Y143.499 E7.59277
G1 X74.331 Y143.488 E7.61716
G1 X73.359 Y143.431 E7.64954
G1 X72.396 Y143.285 E7.68194
G1 X71.45 Y143.056 E7.71431
G1 X70.526 Y142.744 E7.74675
G1 X69.636 Y142.352 E7.77909
G1 X68.813 Y141.901 E7.8103
G1 X67.974 Y141.34 E7.84387
G1 X67.27 Y140.774 E7.87392
G1 X66.517 Y140.049 E7.90868
G1 X65.88 Y139.313 E7.94106
G1 X65.35 Y138.582 E7.97109
G1 X64.814 Y137.685 E8.00584
G1 X64.392 Y136.807 E8.03825
G1 X64.05 Y135.895 E8.07064
G1 X63.79 Y134.957 E8.10302
G1 X63.612 Y133.988 E8.13578
G1 X63.514 Y132.809 E8.17513
G1 X63.5 Y132.158 E8.19679
G1 X63.501 Y88.025 E9.66466
G1 X63.512 Y87.325 E9.68794
G1 X63.57 Y86.352 E9.72036
G1 X63.716 Y85.389 E9.75276
G1 X63.946 Y84.443 E9.78514
G1 X64.259 Y83.52 E9.81756
G1 X64.651 Y82.63 E9.8499
G1 X65.121 Y81.777 E9.88229
G1 X65.664 Y80.969 E9.91467
G1 X66.231 Y80.265 E9.94474
G1 X66.956 Y79.513 E9.97948
G1 X67.692 Y78.876 E10.01186
M204 S2000
G0 F7500 X67.927 Y79.2
M204 S500
G1 F1500 X68.659 Y78.67 E10.04191
G1 X69.495 Y78.171 E10.0743
G1 X70.34 Y77.764 E10.10549
G1 X71.219 Y77.433 E10.13673
G1 X72.122 Y77.182 E10.1679
G1 X73.05 Y77.01 E10.19929
G1 X74.189 Y76.914 E10.23731
G1 X74.821 Y76.9 E10.25834
G1 X144.798 Y76.9 E12.58578
G1 X145.66 Y76.912 E12.61446
G1 X146.597 Y76.968 E12.64568
G1 X147.525 Y77.107 E12.67689
G1 X148.438 Y77.328 E12.70813
G1 X149.294 Y77.616 E12.73817
G1 X150.186 Y78.006 E12.77055
G1 X151.007 Y78.459 E12.80174
G1 X151.758 Y78.961 E12.83178
G1 X152.517 Y79.573 E12.86421
G1 X153.191 Y80.226 E12.89542
G1 X153.805 Y80.935 E12.92662
G1 X154.355 Y81.696 E12.95785
G1 X154.817 Y82.472 E12.98788
G1 X155.24 Y83.349 E13.02027
G1 X155.569 Y84.227 E13.05145
G1 X155.82 Y85.132 E13.08269
G1 X155.991 Y86.059 E13.11404
G1 X156.086 Y87.189 E13.15176
G1 X156.1 Y87.83 E13.17308
G1 X156.099 Y131.895 E14.63869
G1 X156.089 Y132.64 E14.66347
G1 X156.035 Y133.577 E14.69469
G1 X155.897 Y134.506 E14.72593
G1 X155.678 Y135.418 E14.75712
G1 X155.38 Y136.308 E14.78834
G1 X155.003 Y137.168 E14.81957
G1 X154.553 Y137.99 E14.85074
G1 X154.031 Y138.771 E14.88198
G1 X153.442 Y139.501 E14.91318
G1 X152.817 Y140.152 E14.9432
G1 X152.082 Y140.793 E14.97563
G1 X151.322 Y141.343 E15.00684
G1 X150.516 Y141.824 E15.03805
G1 X149.671 Y142.232 E15.06926
G1 X148.793 Y142.563 E15.10047
G1 X147.889 Y142.816 E15.1317
G1 X146.962 Y142.988 E15.16305
G1 X145.811 Y143.086 E15.20147
G1 X145.17 Y143.1 E15.2228
G1 X75.07 Y143.099 E17.55434
G1 X74.354 Y143.089 E17.57815
G1 X73.418 Y143.035 E17.60933
G1 X72.489 Y142.896 E17.64058
G1 X71.577 Y142.677 E17.67177
G1 X70.687 Y142.378 E17.703
G1 X69.828 Y142.001 E17.7342
G1 X69.005 Y141.55 E17.76542
G1 X68.225 Y141.028 E17.79663
G1 X67.521 Y140.462 E17.82668
G1 X66.819 Y139.787 E17.85907
G1 X66.204 Y139.078 E17.89028
G1 X65.674 Y138.347 E17.92031
G1 X65.174 Y137.511 E17.95271
G1 X64.766 Y136.666 E17.98392
G1 X64.435 Y135.788 E18.01513
G1 X64.183 Y134.884 E18.04635
G1 X64.011 Y133.955 E18.07777
G1 X63.913 Y132.776 E18.11712
G1 X63.9 Y132.158 E18.13768
G1 X63.901 Y88.031 E19.60535
G1 X63.911 Y87.348 E19.62807
G1 X63.966 Y86.411 E19.65929
G1 X64.105 Y85.483 E19.69049
G1 X64.325 Y84.571 E19.7217
G1 X64.625 Y83.681 E19.75294
G1 X65.002 Y82.822 E19.78414
G1 X65.453 Y82 E19.81532
G1 X65.976 Y81.22 E19.84656
G1 X66.543 Y80.516 E19.87662
G1 X67.218 Y79.815 E19.90899
G1 X67.927 Y79.2 E19.94021
M204 S2000
G0 F7500 X68.162 Y79.524
M204 S500
G1 F1500 X68.894 Y78.994 E19.97026
G1 X69.669 Y78.531 E20.00029
G1 X70.482 Y78.138 E20.03032
G1 X71.327 Y77.818 E20.06038
G1 X72.196 Y77.575 E20.09039
G1 X73.084 Y77.409 E20.12044
G1 X74.223 Y77.313 E20.15845
G1 X74.83 Y77.3 E20.17865
G1 X144.793 Y77.3 E22.50563
G1 X145.637 Y77.311 E22.5337
G1 X146.539 Y77.364 E22.56375
G1 X147.432 Y77.496 E22.59378
G1 X148.31 Y77.707 E22.62381
G1 X149.166 Y77.995 E22.65385
G1 X149.993 Y78.357 E22.68387
G1 X150.785 Y78.792 E22.71393
G1 X151.536 Y79.294 E22.74397
G1 X152.239 Y79.861 E22.77401
G1 X152.889 Y80.488 E22.80405
G1 X153.481 Y81.17 E22.83409
G1 X154.011 Y81.901 E22.86412
G1 X154.473 Y82.677 E22.89416
G1 X154.866 Y83.49 E22.92419
G1 X155.184 Y84.335 E22.95422
G1 X155.427 Y85.205 E22.98426
G1 X155.592 Y86.093 E23.0143
G1 X155.687 Y87.223 E23.05202
G1 X155.7 Y87.83 E23.07221
G1 X155.699 Y131.89 E24.53766
G1 X155.69 Y132.617 E24.56184
G1 X155.639 Y133.519 E24.59189
G1 X155.508 Y134.413 E24.62194
G1 X155.299 Y135.291 E24.65196
G1 X155.013 Y136.148 E24.68201
G1 X154.652 Y136.976 E24.71205
G1 X154.22 Y137.768 E24.74205
G1 X153.719 Y138.52 E24.77211
G1 X153.153 Y139.224 E24.80215
G1 X152.528 Y139.875 E24.83217
G1 X151.847 Y140.469 E24.86222
G1 X151.116 Y141 E24.89228
G1 X150.342 Y141.464 E24.92229
G1 X149.529 Y141.858 E24.95234
G1 X148.685 Y142.178 E24.98236
G1 X147.815 Y142.423 E25.01242
G1 X146.928 Y142.589 E25.04244
G1 X145.777 Y142.687 E25.08086
G1 X145.17 Y142.7 E25.10105
G1 X75.075 Y142.699 E27.43242
G1 X74.377 Y142.69 E27.45564
G1 X73.476 Y142.639 E27.48565
G1 X72.582 Y142.507 E27.51571
G1 X71.704 Y142.298 E27.54573
G1 X70.847 Y142.011 E27.57579
G1 X70.02 Y141.65 E27.6058
G1 X69.227 Y141.217 E27.63585
G1 X68.476 Y140.716 E27.66588
G1 X67.772 Y140.15 E27.69592
G1 X67.121 Y139.524 E27.72596
G1 X66.528 Y138.843 E27.75599
G1 X65.998 Y138.112 E27.78603
G1 X65.534 Y137.337 E27.81607
G1 X65.14 Y136.524 E27.84612
G1 X64.82 Y135.68 E27.87614
G1 X64.576 Y134.81 E27.90619
G1 X64.41 Y133.922 E27.93624
G1 X64.313 Y132.767 E27.97479
G1 X64.3 Y132.158 E27.99505
G1 X64.301 Y88.036 E29.46255
G1 X64.31 Y87.371 E29.48467
G1 X64.362 Y86.469 E29.51472
G1 X64.494 Y85.576 E29.54475
G1 X64.704 Y84.698 E29.57477
G1 X64.991 Y83.841 E29.60483
G1 X65.353 Y83.014 E29.63486
G1 X65.786 Y82.222 E29.66488
G1 X66.288 Y81.471 E29.69493
G1 X66.855 Y80.767 E29.72499
G1 X67.481 Y80.117 E29.75501
G1 X68.162 Y79.524 E29.78504
M204 S2000
G1 F2400 E28.98504
;MESH:New_Calf_cover v2.stl
G0 F7500 X74.92 Y86.835
G0 X144.9 Y131.9
M204 S500
;TYPE:WALL-INNER
G1 F2400 E29.78504
G1 F1500 X144.9 Y88.1 E31.24183
G1 X75.1 Y88.1 E33.56339
G1 X75.1 Y131.9 E35.02018
G1 X144.9 Y131.9 E37.34174
M204 S2000
G0 F7500 X145.3 Y132.3
M204 S500
;TYPE:WALL-OUTER
G1 F1500 X145.3 Y87.7 E38.82514
G1 X74.7 Y87.7 E41.17331
G1 X74.7 Y132.3 E42.65671
G1 X145.3 Y132.3 E45.00488
M204 S2000
G0 F7500 X145.03 Y132.03
G0 X144.8 Y131.54
G0 X144.54 Y131.54
M204 S500
;TYPE:SKIN
G1 F1500 X75.46 Y131.54 E47.30249
G1 X75.46 Y88.46 E48.73533
G1 X144.54 Y88.46 E51.03294
G1 X144.54 Y131.54 E52.46579
M204 S2000
G1 F2400 E51.66579
G0 F7500 X144.8 Y131.54
G0 X144.728 Y88.272
G0 X144.097 Y88.2
G0 X144.097 Y88.659
M204 S500
G1 F2400 E52.46579
G1 F1500 X144.339 Y88.902 E52.4772
M204 S2000
G0 F7500 X144.339 Y89.468
M204 S500
G1 F1500 X143.531 Y88.659 E52.51523
M204 S2000
G0 F7500 X142.965 Y88.659
M204 S500
G1 F1500 X144.339 Y90.033 E52.57986
M204 S2000
G0 F7500 X144.339 Y90.599
M204 S500
G1 F1500 X142.399 Y88.659 E52.67111
M204 S2000
G0 F7500 X141.834 Y88.659
M204 S500
G1 F1500 X144.339 Y91.165 E52.78896
M204 S2000
G0 F7500 X144.339 Y91.73
M204 S500
G1 F1500 X141.268 Y88.659 E52.93341
M204 S2000
G0 F7500 X140.702 Y88.659
M204 S500
G1 F1500 X144.339 Y92.296 E53.10448
M204 S2000
G0 F7500 X144.339 Y92.862
M204 S500
G1 F1500 X140.137 Y88.659 E53.30215
M204 S2000
G0 F7500 X139.571 Y88.659
M204 S500
G1 F1500 X144.339 Y93.427 E53.52643
M204 S2000
G0 F7500 X144.339 Y93.993
M204 S500
G1 F1500 X139.005 Y88.659 E53.77732
M204 S2000
G0 F7500 X138.44 Y88.659
M204 S500
G1 F1500 X144.339 Y94.559 E54.05482
M204 S2000
G0 F7500 X144.339 Y95.124
M204 S500
G1 F1500 X137.874 Y88.659 E54.35891
M204 S2000
G0 F7500 X137.308 Y88.659
M204 S500
G1 F1500 X144.339 Y95.69 E54.68963
M204 S2000
G0 F7500 X144.339 Y96.256
M204 S500
G1 F1500 X136.743 Y88.659 E55.04694
M204 S2000
G0 F7500 X136.177 Y88.659
M204 S500
G1 F1500 X144.339 Y96.822 E55.43088
M204 S2000
G0 F7500 X144.339 Y97.387
M204 S500
G1 F1500 X135.611 Y88.659 E55.84142
M204 S2000
G0 F7500 X135.046 Y88.659
M204 S500
G1 F1500 X144.339 Y97.953 E56.27856
M204 S2000
G0 F7500 X144.339 Y98.519
M204 S500
G1 F1500 X134.48 Y88.659 E56.74232
M204 S2000
G0 F7500 X133.914 Y88.659
M204 S500
G1 F1500 X144.339 Y99.084 E57.23268
M204 S2000
G0 F7500 X144.339 Y99.65
M204 S500
G1 F1500 X133.349 Y88.659 E57.74964
M204 S2000
G0 F7500 X132.783 Y88.659
M204 S500
G1 F1500 X144.339 Y100.216 E58.29322
M204 S2000
G0 F7500 X144.339 Y100.781
M204 S500
G1 F1500 X132.217 Y88.659 E58.8634
M204 S2000
G0 F7500 X131.651 Y88.659
M204 S500
G1 F1500 X144.339 Y101.347 E59.46021
M204 S2000
G0 F7500 X144.339 Y101.913
M204 S500
G1 F1500 X131.086 Y88.659 E60.08361
M204 S2000
G0 F7500 X130.52 Y88.659
M204 S500
G1 F1500 X144.339 Y102.478 E60.73361
M204 S2000
G0 F7500 X144.339 Y103.044
M204 S500
G1 F1500 X129.954 Y88.659 E61.41024
M204 S2000
G0 F7500 X129.389 Y88.659
M204 S500
G1 F1500 X144.339 Y103.61 E62.11347
M204 S2000
G0 F7500 X144.339 Y104.175
M204 S500
G1 F1500 X128.823 Y88.659 E62.84329
M204 S2000
G0 F7500 X128.257 Y88.659
M204 S500
G1 F1500 X144.339 Y104.741 E63.59974
M204 S2000
G0 F7500 X144.339 Y105.307
M204 S500
G1 F1500 X127.692 Y88.659 E64.38279
M204 S2000
G0 F7500 X127.126 Y88.659
M204 S500
G1 F1500 X144.339 Y105.872 E65.19243
M204 S2000
G0 F7500 X144.339 Y106.438
M204 S500
G1 F1500 X126.56 Y88.659 E66.0287
M204 S2000
G0 F7500 X125.995 Y88.659
M204 S500
G1 F1500 X144.339 Y107.004 E66.89157
M204 S2000
G0 F7500 X144.339 Y107.57
M204 S500
G1 F1500 X125.429 Y88.659 E67.78106
M204 S2000
G0 F7500 X124.863 Y88.659
M204 S500
G1 F1500 X144.339 Y108.135 E68.69716
M204 S2000
G0 F7500 X144.339 Y108.701
M204 S500
G1 F1500 X124.298 Y88.659 E69.63985
M204 S2000
G0 F7500 X123.732 Y88.659
M204 S500
G1 F1500 X144.339 Y109.267 E70.60916
M204 S2000
G0 F7500 X144.339 Y109.832
M204 S500
G1 F1500 X123.166 Y88.659 E71.60507
M204 S2000
G0 F7500 X122.601 Y88.659
M204 S500
G1 F1500 X144.339 Y110.398 E72.62758
M204 S2000
G0 F7500 X144.339 Y110.964
M204 S500
G1 F1500 X122.035 Y88.659 E73.67672
M204 S2000
G0 F7500 X121.469 Y88.659
M204 S500
G1 F1500 X144.339 Y111.529 E74.75245
M204 S2000
G0 F7500 X144.339 Y112.095
M204 S500
G1 F1500 X120.903 Y88.659 E75.85481
M204 S2000
G0 F7500 X120.338 Y88.659
M204 S500
G1 F1500 X144.339 Y112.661 E76.98377
M204 S2000
G0 F7500 X144.339 Y113.226
M204 S500
G1 F1500 X119.772 Y88.659 E78.13933
M204 S2000
G0 F7500 X119.206 Y88.659
M204 S500
G1 F1500 X144.339 Y113.792 E79.32151
M204 S2000
G0 F7500 X144.339 Y114.358
M204 S500
G1 F1500 X118.641 Y88.659 E80.53028
M204 S2000
G0 F7500 X118.075 Y88.659
M204 S500
G1 F1500 X144.339 Y114.923 E81.76566
M204 S2000
G0 F7500 X144.339 Y115.489
M204 S500
G1 F1500 X117.509 Y88.659 E83.02766
M204 S2000
G0 F7500 X116.944 Y88.659
M204 S500
G1 F1500 X144.339 Y116.055 E84.31626
M204 S2000
G0 F7500 X144.339 Y116.621
M204 S500
G1 F1500 X116.378 Y88.659 E85.63149
M204 S2000
G0 F7500 X115.812 Y88.659
M204 S500
G1 F1500 X144.339 Y117.186 E86.97331
M204 S2000
G0 F7500 X144.339 Y117.752
M204 S500
G1 F1500 X115.247 Y88.659 E88.34173
M204 S2000
G0 F7500 X114.681 Y88.659
M204 S500
G1 F1500 X144.339 Y118.318 E89.73678
M204 S2000
G0 F7500 X144.339 Y118.883
M204 S500
G1 F1500 X114.115 Y88.659 E91.15842
M204 S2000
G0 F7500 X113.55 Y88.659
M204 S500
G1 F1500 X144.339 Y119.449 E92.60666
M204 S2000
G0 F7500 X144.339 Y120.015
M204 S500
G1 F1500 X112.984 Y88.659 E94.08153
M204 S2000
G0 F7500 X112.418 Y88.659
M204 S500
G1 F1500 X144.339 Y120.58 E95.583
M204 S2000
G0 F7500 X144.339 Y121.146
M204 S500
G1 F1500 X111.852 Y88.659 E97.11109
M204 S2000
G0 F7500 X111.287 Y88.659
M204 S500
G1 F1500 X144.339 Y121.712 E98.66577
M204 S2000
G0 F7500 X144.339 Y122.277
M204 S500
G1 F1500 X110.721 Y88.659 E100.24706
M204 S2000
G0 F7500 X110.155 Y88.659
M204 S500
G1 F1500 X144.339 Y122.843 E101.85497
M204 S2000
G0 F7500 X144.339 Y123.409
M204 S500
G1 F1500 X109.59 Y88.659 E103.48948
M204 S2000
G0 F7500 X109.024 Y88.659
M204 S500
G1 F1500 X144.339 Y123.974 E105.15059
M204 S2000
G0 F7500 X144.339 Y124.54
M204 S500
G1 F1500 X108.458 Y88.659 E106.83832
M204 S2000
G0 F7500 X107.893 Y88.659
M204 S500
G1 F1500 X144.339 Y125.106 E108.55265
M204 S2000
G0 F7500 X144.339 Y125.671
M204 S500
G1 F1500 X107.327 Y88.659 E110.29359
M204 S2000
G0 F7500 X106.761 Y88.659
M204 S500
G1 F1500 X144.339 Y126.237 E112.06114
M204 S2000
G0 F7500 X144.339 Y126.803
M204 S500
G1 F1500 X106.196 Y88.659 E113.85529
M204 S2000
G0 F7500 X105.63 Y88.659
M204 S500
G1 F1500 X144.339 Y127.369 E115.67607
M204 S2000
G0 F7500 X144.339 Y127.934
M204 S500
G1 F1500 X105.064 Y88.659 E117.52344
M204 S2000
G0 F7500 X104.499 Y88.659
M204 S500
G1 F1500 X144.339 Y128.5 E119.39742
M204 S2000
G0 F7500 X144.339 Y129.066
M204 S500
G1 F1500 X103.933 Y88.659 E121.29802
M204 S2000
G0 F7500 X103.367 Y88.659
M204 S500
G1 F1500 X144.339 Y129.631 E123.22521
M204 S2000
G0 F7500 X144.339 Y130.197
M204 S500
G1 F1500 X102.802 Y88.659 E125.17901
M204 S2000
G0 F7500 X102.236 Y88.659
M204 S500
G1 F1500 X144.339 Y130.763 E127.15943
M204 S2000
G0 F7500 X144.339 Y131.328
M204 S500
G1 F1500 X101.67 Y88.659 E129.16645
M204 S2000
G0 F7500 X101.104 Y88.659
M204 S500
G1 F1500 X143.784 Y131.339 E131.17399
M204 S2000
G0 F7500 X143.218 Y131.339
M204 S500
G1 F1500 X100.539 Y88.659 E133.1815
M204 S2000
G0 F7500 X99.973 Y88.659
M204 S500
G1 F1500 X142.653 Y131.339 E135.18904
M204 S2000
G0 F7500 X142.087 Y131.339
M204 S500
G1 F1500 X99.407 Y88.659 E137.19657
M204 S2000
G0 F7500 X98.842 Y88.659
M204 S500
G1 F1500 X141.521 Y131.339 E139.20408
M204 S2000
G0 F7500 X140.956 Y131.339
M204 S500
G1 F1500 X98.276 Y88.659 E141.21162
M204 S2000
G0 F7500 X97.71 Y88.659
M204 S500
G1 F1500 X140.39 Y131.339 E143.21916
M204 S2000
G0 F7500 X139.824 Y131.339
M204 S500
G1 F1500 X97.145 Y88.659 E145.22667
M204 S2000
G0 F7500 X96.579 Y88.659
M204 S500
G1 F1500 X139.259 Y131.339 E147.23421
M204 S2000
