;FLAVOR:Marlin
;TIME:148
;Filament used: 0.0356668m
;Layer height: 0.2
;MINX:93.115
;MINY:98.114
;MINZ:0.2
;MAXX:126.881
;MAXY:121.888
;MAXZ:10
;TARGET_MACHINE.NAME:Creality Ender-3 S1
;Generated with Cura_SteamEngine 5.6.0
M82 ;absolute extrusion mode
; Ender 3 S1 Start G-code
; M413 S0 ; Disable power loss recovery
G92 E0 ; Reset Extruder

; Prep surfaces before auto home for better accuracy
M140 S60
M104 S200

G28 ; Home all axes
G1 Z10.0 F3000 ; Move Z Axis up little to prevent scratching of Heat Bed
G1 X0 Y0

M190 S60
M109 S200

G1 X0.1 Y20 Z0.3 F5000.0 ; Move to start position
G1 X0.1 Y200.0 Z0.3 F1500.0 E15 ; Draw the first line
G1 X0.4 Y200.0 Z0.3 F5000.0 ; Move to side a little
G1 X0.4 Y20 Z0.3 F1500.0 E30 ; Draw the second line
G92 E0 ; Reset Extruder
G1 Z2.0 F3000 ; Move Z Axis up little to prevent scratching of Heat Bed
G1 X5 Y20 Z0.3 F5000.0 ; Move over to prevent blob squish

G92 E0
G92 E0
G1 F2400 E-0.8
;LAYER_COUNT:50
;LAYER:0
M107
M204 S2000
G0 F7500 X96.645 Y101.542 Z0.2
M204 S500
;TYPE:SKIRT
G1 F2400 E0
G1 F1500 X97.31 Y100.931 E0.03004
G1 X98.308 Y100.182 E0.07154
G1 X98.554 Y100.019 E0.08135
G1 X99.389 Y99.518 E0.11374
G1 X100.271 Y99.09 E0.14635
G1 X101.26 Y98.719 E0.18148
G1 X101.603 Y98.611 E0.19344
G1 X102.544 Y98.36 E0.22583
G1 X103.504 Y98.193 E0.25824
G1 X104.404 Y98.116 E0.28829
G1 X105.357 Y98.114 E0.31998
G1 X106.107 Y98.145 E0.34495
G1 X108.734 Y98.221 E0.43236
G1 X111.221 Y98.221 E0.51508
G1 X114.751 Y98.116 E0.63254
G1 X115.726 Y98.132 E0.66497
G1 X116.653 Y98.229 E0.69597
G1 X117.298 Y98.344 E0.71776
G1 X117.662 Y98.42 E0.73013
G1 X118.537 Y98.644 E0.76017
G1 X119.522 Y98.992 E0.79492
G1 X120.407 Y99.398 E0.8273
G1 X121.228 Y99.866 E0.85873
G1 X122.241 Y100.584 E0.90003
G1 X122.558 Y100.838 E0.91354
G1 X123.302 Y101.492 E0.94649
G1 X123.927 Y102.144 E0.97653
G1 X124.576 Y102.955 E1.01108
G1 X124.998 Y103.578 E1.0361
G1 X125.201 Y103.903 E1.04885
G1 X125.679 Y104.752 E1.08125
G1 X126.079 Y105.64 E1.11365
G1 X126.401 Y106.56 E1.14607
G1 X126.639 Y107.504 E1.17845
G1 X126.784 Y108.396 E1.2085
G1 X126.843 Y109.038 E1.22995
G1 X126.868 Y109.447 E1.24358
G1 X126.881 Y110.419 E1.27591
G1 X126.817 Y111.319 E1.30592
G1 X126.599 Y112.592 E1.34887
G1 X126.526 Y112.9 E1.3594
G1 X126.259 Y113.838 E1.39184
G1 X125.911 Y114.746 E1.42418
G1 X125.499 Y115.594 E1.45554
G1 X124.875 Y116.612 E1.49525
G1 X124.669 Y116.91 E1.5073
G1 X124.079 Y117.683 E1.53964
G1 X123.422 Y118.403 E1.57206
G1 X122.731 Y119.038 E1.60328
G1 X121.989 Y119.612 E1.63448
G1 X121.168 Y120.148 E1.66709
G1 X120.32 Y120.629 E1.69952
G1 X119.435 Y121.031 E1.73184
G1 X118.526 Y121.352 E1.76391
G1 X117.765 Y121.559 E1.79014
G1 X116.881 Y121.744 E1.82018
G1 X115.833 Y121.866 E1.85527
G1 X114.628 Y121.885 E1.89535
G1 X113.615 Y121.844 E1.92907
G1 X111.015 Y121.777 E2.01558
G1 X108.501 Y121.786 E2.09919
G1 X106.581 Y121.839 E2.16308
G1 X105.311 Y121.888 E2.20535
G1 X104.338 Y121.88 E2.23771
G1 X103.37 Y121.786 E2.27006
G1 X102.422 Y121.611 E2.30212
G1 X101.786 Y121.444 E2.32399
G1 X101.482 Y121.353 E2.33455
G1 X100.547 Y121.027 E2.36748
G1 X99.653 Y120.624 E2.4001
G1 X98.717 Y120.091 E2.43592
G1 X98.44 Y119.913 E2.44688
G1 X97.645 Y119.35 E2.47928
G1 X96.904 Y118.72 E2.51163
G1 X96.246 Y118.054 E2.54276
G1 X95.576 Y117.251 E2.57755
G1 X94.975 Y116.391 E2.61244
G1 X94.472 Y115.517 E2.64598
G1 X94.356 Y115.292 E2.6544
G1 X93.936 Y114.375 E2.68795
G1 X93.612 Y113.456 E2.72036
G1 X93.371 Y112.513 E2.75273
G1 X93.211 Y111.557 E2.78497
G1 X93.135 Y110.625 E2.81607
G1 X93.115 Y109.651 E2.84848
G1 X93.182 Y108.68 E2.88085
G1 X93.33 Y107.73 E2.91283
G1 X93.476 Y107.1 E2.93434
G1 X93.567 Y106.757 E2.94614
G1 X93.866 Y105.813 E2.97907
G1 X94.24 Y104.913 E3.01149
G1 X94.676 Y104.081 E3.04273
G1 X95.2 Y103.262 E3.07507
G1 X95.752 Y102.54 E3.1053
G1 X95.988 Y102.259 E3.1175
G1 X96.645 Y101.542 E3.14985
M204 S2000
G0 F7500 X96.916 Y101.837
M204 S500
G1 F1500 X97.581 Y101.226 E3.17988
G1 X98.529 Y100.515 E3.2193
G1 X98.76 Y100.362 E3.22851
G1 X99.564 Y99.878 E3.25973
G1 X100.411 Y99.465 E3.29107
G1 X101.4 Y99.094 E3.3262
G1 X101.707 Y98.997 E3.33691
G1 X102.613 Y98.754 E3.36811
G1 X103.538 Y98.592 E3.39934
G1 X104.438 Y98.515 E3.42938
G1 X105.34 Y98.514 E3.45938
G1 X106.09 Y98.545 E3.48435
G1 X108.722 Y98.621 E3.57193
G1 X111.233 Y98.621 E3.65544
G1 X114.745 Y98.516 E3.77231
G1 X115.684 Y98.53 E3.80354
G1 X116.611 Y98.627 E3.83454
G1 X117.216 Y98.735 E3.85498
G1 X117.563 Y98.808 E3.86678
G1 X118.438 Y99.032 E3.89682
G1 X119.356 Y99.356 E3.9292
G1 X120.209 Y99.746 E3.96039
G1 X121.03 Y100.214 E3.99182
G1 X121.991 Y100.897 E4.03104
G1 X122.294 Y101.139 E4.04393
G1 X123.013 Y101.769 E4.07573
G1 X123.638 Y102.421 E4.10577
G1 X124.245 Y103.179 E4.13807
G1 X124.659 Y103.79 E4.16262
G1 X124.853 Y104.1 E4.17478
G1 X125.315 Y104.917 E4.206
G1 X125.702 Y105.772 E4.23721
G1 X126.013 Y106.658 E4.26844
G1 X126.244 Y107.568 E4.29967
G1 X126.389 Y108.46 E4.32973
G1 X126.444 Y109.063 E4.34986
G1 X126.468 Y109.453 E4.36286
G1 X126.482 Y110.391 E4.39406
G1 X126.418 Y111.291 E4.42407
G1 X126.21 Y112.5 E4.46487
G1 X126.141 Y112.791 E4.47482
G1 X125.885 Y113.695 E4.50607
G1 X125.551 Y114.571 E4.53725
G1 X125.139 Y115.419 E4.56861
G1 X124.546 Y116.385 E4.60631
G1 X124.351 Y116.668 E4.61774
G1 X123.783 Y117.414 E4.64893
G1 X123.151 Y118.108 E4.68015
G1 X122.46 Y118.743 E4.71136
G1 X121.745 Y119.295 E4.7414
G1 X120.97 Y119.8 E4.77217
G1 X120.154 Y120.265 E4.80341
G1 X119.301 Y120.654 E4.83459
G1 X118.421 Y120.966 E4.86564
G1 X117.683 Y121.167 E4.89108
G1 X116.799 Y121.352 E4.92112
G1 X115.827 Y121.466 E4.95367
G1 X114.644 Y121.485 E4.99302
G1 X113.631 Y121.444 E5.02674
G1 X111.024 Y121.377 E5.11348
G1 X108.49 Y121.386 E5.19776
G1 X106.565 Y121.439 E5.26181
G1 X105.314 Y121.488 E5.30345
G1 X104.376 Y121.482 E5.33465
G1 X103.442 Y121.393 E5.36586
G1 X102.524 Y121.224 E5.3969
G1 X101.9 Y121.06 E5.41836
G1 X101.613 Y120.975 E5.42832
G1 X100.711 Y120.662 E5.46007
G1 X99.851 Y120.276 E5.49143
G1 X98.933 Y119.754 E5.52655
G1 X98.671 Y119.586 E5.5369
G1 X97.904 Y119.045 E5.56812
G1 X97.188 Y118.438 E5.59934
G1 X96.553 Y117.797 E5.62935
G1 X95.904 Y117.021 E5.663
G1 X95.322 Y116.191 E5.69671
G1 X94.828 Y115.334 E5.72961
G1 X94.712 Y115.109 E5.73803
G1 X94.313 Y114.241 E5.76981
G1 X93.999 Y113.356 E5.80104
G1 X93.765 Y112.447 E5.83226
G1 X93.61 Y111.524 E5.86339
G1 X93.535 Y110.616 E5.89369
G1 X93.514 Y109.678 E5.9249
G1 X93.577 Y108.741 E5.95613
G1 X93.72 Y107.82 E5.98713
G1 X93.863 Y107.203 E6.0082
G1 X93.954 Y106.86 E6.02
G1 X94.236 Y105.966 E6.05118
G1 X94.595 Y105.098 E6.08242
G1 X95.013 Y104.297 E6.11247
G1 X95.537 Y103.478 E6.14481
G1 X96.059 Y102.797 E6.17335
G1 X96.283 Y102.529 E6.18497
G1 X96.916 Y101.837 E6.21616
M204 S2000
G0 F7500 X97.187 Y102.132
M204 S500
G1 F1500 X97.852 Y101.521 E6.2462
G1 X98.751 Y100.848 E6.28355
G1 X98.967 Y100.704 E6.29218
G1 X99.74 Y100.237 E6.32222
G1 X100.551 Y99.84 E6.35225
G1 X101.54 Y99.469 E6.38738
G1 X101.811 Y99.383 E6.39684
G1 X102.683 Y99.148 E6.42688
G1 X103.572 Y98.991 E6.4569
G1 X104.472 Y98.914 E6.48695
G1 X105.323 Y98.914 E6.51525
G1 X106.073 Y98.945 E6.54022
G1 X108.71 Y99.021 E6.62796
G1 X111.245 Y99.021 E6.71228
G1 X114.74 Y98.916 E6.82857
G1 X115.643 Y98.928 E6.85861
G1 X116.541 Y99.021 E6.88864
G1 X117.134 Y99.127 E6.90867
G1 X117.464 Y99.196 E6.91989
G1 X118.339 Y99.42 E6.94993
G1 X119.19 Y99.72 E6.97994
G1 X120.012 Y100.094 E7.00997
G1 X120.798 Y100.54 E7.04003
G1 X121.741 Y101.21 E7.07851
G1 X122.044 Y101.452 E7.0914
G1 X122.724 Y102.046 E7.12144
G1 X123.349 Y102.698 E7.15148
G1 X123.914 Y103.403 E7.18152
G1 X124.32 Y104.003 E7.20562
G1 X124.505 Y104.298 E7.2172
G1 X124.951 Y105.083 E7.24723
G1 X125.325 Y105.905 E7.27727
G1 X125.625 Y106.757 E7.30731
G1 X125.849 Y107.632 E7.33735
G1 X125.994 Y108.524 E7.36741
G1 X126.045 Y109.088 E7.38624
G1 X126.068 Y109.46 E7.39864
G1 X126.083 Y110.363 E7.42868
G1 X126.019 Y111.263 E7.45869
G1 X125.82 Y112.409 E7.49737
G1 X125.756 Y112.683 E7.50673
G1 X125.511 Y113.553 E7.5368
G1 X125.191 Y114.397 E7.56682
G1 X124.798 Y115.21 E7.59685
G1 X124.217 Y116.158 E7.63383
G1 X124.032 Y116.426 E7.64466
G1 X123.487 Y117.145 E7.67467
G1 X122.88 Y117.814 E7.70472
G1 X122.216 Y118.426 E7.73475
G1 X121.501 Y118.978 E7.76479
G1 X120.772 Y119.453 E7.79373
G1 X119.987 Y119.901 E7.8238
G1 X119.167 Y120.277 E7.8538
G1 X118.316 Y120.58 E7.88384
G1 X117.601 Y120.775 E7.90849
G1 X116.717 Y120.96 E7.93853
G1 X115.82 Y121.066 E7.96857
G1 X114.66 Y121.085 E8.00716
G1 X113.647 Y121.044 E8.04088
G1 X111.033 Y120.977 E8.12785
G1 X108.479 Y120.986 E8.2128
G1 X106.549 Y121.039 E8.27701
G1 X105.316 Y121.088 E8.31806
G1 X104.413 Y121.084 E8.34809
G1 X103.514 Y121 E8.37812
G1 X102.626 Y120.837 E8.40815
G1 X102.014 Y120.676 E8.4292
G1 X101.727 Y120.591 E8.43915
G1 X100.874 Y120.297 E8.46916
G1 X100.049 Y119.928 E8.49922
G1 X99.131 Y119.406 E8.53435
G1 X98.901 Y119.259 E8.54342
G1 X98.162 Y118.739 E8.57348
G1 X97.472 Y118.156 E8.60352
G1 X96.837 Y117.515 E8.63353
G1 X96.232 Y116.791 E8.66491
G1 X95.65 Y115.961 E8.69863
G1 X95.184 Y115.151 E8.72971
G1 X95.068 Y114.926 E8.73813
G1 X94.69 Y114.106 E8.76816
G1 X94.386 Y113.255 E8.79822
G1 X94.159 Y112.381 E8.82825
G1 X94.009 Y111.491 E8.85827
G1 X93.935 Y110.606 E8.88781
G1 X93.913 Y109.704 E8.91782
G1 X93.972 Y108.802 E8.94788
G1 X94.11 Y107.91 E8.97791
G1 X94.25 Y107.305 E8.99856
G1 X94.336 Y106.98 E9.00974
G1 X94.606 Y106.118 E9.03978
G1 X94.95 Y105.283 E9.06982
G1 X95.368 Y104.482 E9.09987
G1 X95.854 Y103.721 E9.1299
G1 X96.366 Y103.053 E9.1579
G1 X96.578 Y102.799 E9.1689
G1 X97.187 Y102.132 E9.19894
M204 S2000
G1 F2400 E8.39894
;MESH:cylinder 1.8.stl
G0 F7500 X103.856 Y108.961
G0 X104.719 Y109.616
G0 X105.027 Y109.982
G0 X105.021 Y110.248
M204 S500
;TYPE:WALL-INNER
G1 F2400 E9.19894
G1 F1265.8 X105.151 Y110.196 E9.20446
G1 X105.231 Y110.079 E9.21005
G1 X105.247 Y109.932 E9.21588
G1 X105.2 Y109.854 E9.21946
G1 X105.03 Y109.752 E9.22728
G1 X104.863 Y109.787 E9.234
G1 X104.765 Y109.916 E9.24039
G1 X104.778 Y110.115 E9.24825
G1 X104.877 Y110.218 E9.25388
G1 X105.021 Y110.248 E9.25968
M204 S2000
G0 F7500 X105.021 Y110.694
M204 S500
;TYPE:WALL-OUTER
G1 F1500 X105.26 Y110.645 E9.26779
G1 X105.461 Y110.518 E9.2757
G1 X105.652 Y110.236 E9.28703
G1 X105.691 Y109.909 E9.29798
G1 X105.656 Y109.766 E9.30288
G1 X105.531 Y109.552 E9.31112
G1 X105.254 Y109.353 E9.32246
G1 X105.03 Y109.306 E9.33008
G1 X104.686 Y109.378 E9.34177
G1 X104.569 Y109.452 E9.34637
G1 X104.361 Y109.726 E9.35781
G1 X104.306 Y109.959 E9.36577
G1 X104.365 Y110.282 E9.3767
G1 X104.498 Y110.483 E9.38471
G1 X104.697 Y110.626 E9.39286
G1 X105.021 Y110.694 E9.40387
M204 S2000
G1 F2400 E8.60387
G0 F7500 X105.027 Y109.982
G0 X105.47 Y109.921
G0 X106.546 Y110.044
G0 X113.462 Y110.151
G0 X114.528 Y109.959
G0 X115.027 Y109.982
G0 X115.021 Y110.248
M204 S500
;TYPE:WALL-INNER
G1 F2400 E9.40387
G1 F1265.8 X115.151 Y110.196 E9.40939
G1 X115.231 Y110.079 E9.41498
G1 X115.247 Y109.932 E9.42081
G1 X115.2 Y109.854 E9.42439
G1 X115.03 Y109.752 E9.43221
G1 X114.863 Y109.787 E9.43893
G1 X114.765 Y109.916 E9.44532
G1 X114.778 Y110.115 E9.45318
G1 X114.877 Y110.218 E9.45881
G1 X115.021 Y110.248 E9.46461
M204 S2000
G0 F7500 X115.021 Y110.694
M204 S500
;TYPE:WALL-OUTER
G1 F1500 X115.26 Y110.645 E9.47272
G1 X115.461 Y110.518 E9.48063
G1 X115.652 Y110.236 E9.49196
G1 X115.691 Y109.909 E9.50291
G1 X115.656 Y109.766 E9.50781
G1 X115.531 Y109.552 E9.51605
G1 X115.254 Y109.353 E9.52739
G1 X115.03 Y109.306 E9.53501
G1 X114.686 Y109.378 E9.5467
G1 X114.569 Y109.452 E9.5513
G1 X114.361 Y109.726 E9.56274
G1 X114.306 Y109.959 E9.5707
G1 X114.365 Y110.282 E9.58163
G1 X114.498 Y110.483 E9.58964
G1 X114.697 Y110.626 E9.59779
G1 X115.021 Y110.694 E9.6088
M104 S200
M204 S2000
G1 F2400 E8.8088
;MESH:NONMESH
G0 F300 X115.021 Y110.694 Z0.4
G0 F7500 X115.027 Y109.982
G0 X114.561 Y109.824
G0 X113.506 Y109.576
G0 X97.187 Y102.132
;TIME_ELAPSED:17.588998
;LAYER:1
M106 S85
M204 S500
;TYPE:SKIRT
G1 F2400 E9.6088
G1 F631.2 X97.852 Y101.521 E9.63884
G1 X98.751 Y100.848 E9.67619
G1 X98.967 Y100.704 E9.68483
G1 X99.74 Y100.237 E9.71486
G1 X100.551 Y99.84 E9.7449
G1 X101.54 Y99.469 E9.78003
G1 X101.811 Y99.383 E9.78948
G1 X102.683 Y99.148 E9.81952
G1 X103.572 Y98.991 E9.84955
G1 X104.472 Y98.914 E9.87959
G1 X105.323 Y98.914 E9.9079
G1 X106.073 Y98.945 E9.93286
G1 X108.71 Y99.021 E10.02061
G1 X111.245 Y99.021 E10.10492
G1 X114.74 Y98.916 E10.22122
G1 X115.643 Y98.928 E10.25125
G1 X116.541 Y99.021 E10.28128
G1 X117.134 Y99.127 E10.30132
G1 X117.464 Y99.196 E10.31253
G1 X118.339 Y99.42 E10.34257
G1 X119.19 Y99.72 E10.37258
G1 X120.012 Y100.094 E10.40262
G1 X120.798 Y100.54 E10.43268
G1 X121.741 Y101.21 E10.47115
G1 X122.044 Y101.452 E10.48405
G1 X122.724 Y102.046 E10.51408
G1 X123.349 Y102.698 E10.54412
G1 X123.914 Y103.403 E10.57417
G1 X124.32 Y104.003 E10.59826
G1 X124.505 Y104.298 E10.60985
G1 X124.951 Y105.083 E10.63988
G1 X125.325 Y105.905 E10.66991
G1 X125.625 Y106.757 E10.69995
G1 X125.849 Y107.632 E10.73
G1 X125.994 Y108.524 E10.76005
G1 X126.045 Y109.088 E10.77889
G1 X126.068 Y109.46 E10.79129
G1 X126.083 Y110.363 E10.82132
G1 X126.019 Y111.263 E10.85133
G1 X125.82 Y112.409 E10.89002
G1 X125.756 Y112.683 E10.89938
G1 X125.511 Y113.553 E10.92944
G1 X125.191 Y114.397 E10.95946
G1 X124.798 Y115.21 E10.9895
G1 X124.217 Y116.158 E11.02648
G1 X124.032 Y116.426 E11.03731
G1 X123.487 Y117.145 E11.06732
G1 X122.88 Y117.814 E11.09736
G1 X122.216 Y118.426 E11.12739
G1 X121.501 Y118.978 E11.15744
G1 X120.772 Y119.453 E11.18638
G1 X119.987 Y119.901 E11.21644
G1 X119.167 Y120.277 E11.24644
G1 X118.316 Y120.58 E11.27649
G1 X117.601 Y120.775 E11.30114
G1 X116.717 Y120.96 E11.33118
G1 X115.82 Y121.066 E11.36122
G1 X114.66 Y121.085 E11.39981
G1 X113.647 Y121.044 E11.43353
G1 X111.033 Y120.977 E11.5205
G1 X108.479 Y120.986 E11.60544
G1 X106.549 Y121.039 E11.66966
G1 X105.316 Y121.088 E11.7107
G1 X104.413 Y121.084 E11.74074
G1 X103.514 Y121 E11.77077
G1 X102.626 Y120.837 E11.8008
G1 X102.014 Y120.676 E11.82184
G1 X101.727 Y120.591 E11.8318
G1 X100.874 Y120.297 E11.86181
G1 X100.049 Y119.928 E11.89187
G1 X99.131 Y119.406 E11.92699
G1 X98.901 Y119.259 E11.93607
G1 X98.162 Y118.739 E11.96612
G1 X97.472 Y118.156 E11.99617
G1 X96.837 Y117.515 E12.02618
G1 X96.232 Y116.791 E12.05756
G1 X95.65 Y115.961 E12.09128
G1 X95.184 Y115.151 E12.12236
G1 X95.068 Y114.926 E12.13078
G1 X94.69 Y114.106 E12.16081
G1 X94.386 Y113.255 E12.19086
G1 X94.159 Y112.381 E12.2209
G1 X94.009 Y111.491 E12.25092
G1 X93.935 Y110.606 E12.28045
G1 X93.913 Y109.704 E12.31046
G1 X93.972 Y108.802 E12.34053
G1 X94.11 Y107.91 E12.37055
G1 X94.25 Y107.305 E12.3912
G1 X94.336 Y106.98 E12.40239
G1 X94.606 Y106.118 E12.43243
G1 X94.95 Y105.283 E12.46247
G1 X95.368 Y104.482 E12.49252
G1 X95.854 Y103.721 E12.52255
G1 X96.366 Y103.053 E12.55054
G1 X96.578 Y102.799 E12.56155
G1 X97.187 Y102.132 E12.59159
M204 S2000
G1 F2400 E11.79159
;MESH:cylinder 1.8.stl
G0 F8250 X104.005 Y108.808
G0 X104.648 Y109.68
G0 X104.978 Y109.992
G0 X105.059 Y110.247
M204 S500
;TYPE:WALL-INNER
G1 F2400 E12.59159
G1 F531.6 X105.221 Y110.128 E12.59953
G1 X105.25 Y110.028 E12.60364
G1 X105.212 Y109.859 E12.61048
G1 X105.069 Y109.758 E12.61739
G1 X104.909 Y109.761 E12.62372
G1 X104.797 Y109.843 E12.6292
G1 X104.755 Y110.047 E12.63742
G1 X104.835 Y110.184 E12.64369
G1 X104.934 Y110.248 E12.64835
G1 X105.059 Y110.247 E12.65328
M204 S2000
G0 F8250 X105.099 Y110.689
M204 S500
;TYPE:WALL-OUTER
G1 F631.2 X105.246 Y110.65 E12.65834
G1 X105.531 Y110.45 E12.66992
G1 X105.621 Y110.316 E12.67529
G1 X105.692 Y110.077 E12.68358
G1 X105.676 Y109.837 E12.69158
G1 X105.53 Y109.548 E12.70235
G1 X105.247 Y109.349 E12.71386
G1 X105.022 Y109.302 E12.7215
G1 X104.703 Y109.369 E12.73235
G1 X104.489 Y109.526 E12.74117
G1 X104.4 Y109.643 E12.74606
G1 X104.305 Y109.969 E12.75736
G1 X104.331 Y110.189 E12.76472
G1 X104.503 Y110.484 E12.77608
G1 X104.715 Y110.636 E12.78476
G1 X104.859 Y110.684 E12.78981
G1 X105.099 Y110.689 E12.79779
M204 S2000
G1 F2400 E11.99779
G0 F8250 X104.978 Y109.992
G0 X105.472 Y110.048
G0 X106.553 Y109.979
G0 X113.452 Y110.122
