;FLAVOR:Marlin
;TIME:6102
;Filament used: 4.69038m
;Layer height: 0.2
;MINX:76.5
;MINY:63.5
;MINZ:0.2
;MAXX:143.5
;MAXY:156.5
;MAXZ:11
;TARGET_MACHINE.NAME:Creality Ender-3 S1
;Generated with Cura_SteamEngine 5.6.0
M82 ;absolute extrusion mode
; Ender 3 S1 Start G-code
; M413 S0 ; Disable power loss recovery
G92 E0 ; Reset Extruder

; Prep surfaces before auto home for better accuracy
M140 S60
M104 S200

G28 ; Home all axes
G1 Z10.0 F3000 ; Move Z Axis up little to prevent scratching of Heat Bed
G1 X0 Y0

M190 S60
M109 S200

G1 X0.1 Y20 Z0.3 F5000.0 ; Move to start position
G1 X0.1 Y200.0 Z0.3 F1500.0 E15 ; Draw the first line
G1 X0.4 Y200.0 Z0.3 F5000.0 ; Move to side a little
G1 X0.4 Y20 Z0.3 F1500.0 E30 ; Draw the second line
G92 E0 ; Reset Extruder
G1 Z2.0 F3000 ; Move Z Axis up little to prevent scratching of Heat Bed
G1 X5 Y20 Z0.3 F5000.0 ; Move over to prevent blob squish

G92 E0
G92 E0
G1 F2400 E-0.8
;LAYER_COUNT:55
;LAYER:0
M107
M204 S2000
G0 F7500 X79.231 Y67.265 Z0.2
M204 S500
;TYPE:SKIRT
G1 F2400 E0
G1 F1500 X79.956 Y66.513 E0.03474
G1 X80.692 Y65.876 E0.06712
G1 X81.424 Y65.346 E0.09718
G1 X82.321 Y64.811 E0.13191
G1 X83.199 Y64.39 E0.1643
G1 X84.112 Y64.048 E0.19673
G1 X85.049 Y63.789 E0.22906
G1 X86.016 Y63.611 E0.26176
G1 X87.155 Y63.515 E0.29978
G1 X87.812 Y63.5 E0.32164
G1 X131.804 Y63.5 E1.78482
G1 X132.684 Y63.513 E1.81409
G1 X133.656 Y63.572 E1.84648
G1 X134.619 Y63.718 E1.87887
G1 X135.566 Y63.949 E1.91129
G1 X136.454 Y64.249 E1.94247
G1 X137.346 Y64.639 E1.97485
G1 X138.229 Y65.126 E2.00839
G1 X138.98 Y65.628 E2.03843
G1 X139.795 Y66.286 E2.07327
G1 X140.493 Y66.964 E2.10564
G1 X141.129 Y67.701 E2.13802
G1 X141.699 Y68.491 E2.17042
G1 X142.161 Y69.267 E2.20045
G1 X142.615 Y70.209 E2.23523
G1 X142.944 Y71.087 E2.26642
G1 X143.213 Y72.059 E2.29996
G1 X143.39 Y73.025 E2.33263
G1 X143.485 Y74.155 E2.37034
G1 X143.5 Y74.83 E2.3928
G1 X143.499 Y144.9 E4.72334
G1 X143.488 Y145.663 E4.74872
G1 X143.431 Y146.636 E4.78114
G1 X143.286 Y147.599 E4.81353
G1 X143.057 Y148.545 E4.8459
G1 X142.746 Y149.469 E4.87833
G1 X142.354 Y150.36 E4.9107
G1 X141.886 Y151.212 E4.94303
G1 X141.364 Y151.993 E4.97428
G1 X140.731 Y152.778 E5.00782
G1 X140.106 Y153.429 E5.03783
G1 X139.317 Y154.117 E5.07265
G1 X138.557 Y154.667 E5.10385
G1 X137.69 Y155.184 E5.13743
G1 X136.812 Y155.606 E5.16983
G1 X135.901 Y155.948 E5.20219
G1 X134.962 Y156.209 E5.23461
G1 X133.996 Y156.387 E5.26728
G1 X132.845 Y156.485 E5.3057
G1 X132.17 Y156.5 E5.32816
G1 X88.064 Y156.499 E6.79513
G1 X87.331 Y156.488 E6.81951
G1 X86.359 Y156.431 E6.85189
G1 X85.396 Y156.285 E6.88429
G1 X84.45 Y156.056 E6.91666
G1 X83.526 Y155.744 E6.9491
G1 X82.636 Y155.352 E6.98144
G1 X81.813 Y154.901 E7.01266
G1 X80.974 Y154.34 E7.04623
G1 X80.27 Y153.774 E7.07627
G1 X79.517 Y153.049 E7.11104
G1 X78.88 Y152.313 E7.14341
G1 X78.35 Y151.582 E7.17344
G1 X77.814 Y150.685 E7.2082
G1 X77.392 Y149.807 E7.2406
G1 X77.05 Y148.895 E7.27299
G1 X76.79 Y147.957 E7.30537
G1 X76.612 Y146.988 E7.33814
G1 X76.514 Y145.809 E7.37749
G1 X76.5 Y145.158 E7.39914
G1 X76.501 Y75.025 E9.73178
G1 X76.512 Y74.325 E9.75506
G1 X76.57 Y73.352 E9.78748
G1 X76.716 Y72.389 E9.81988
G1 X76.946 Y71.443 E9.85226
G1 X77.259 Y70.52 E9.88467
G1 X77.651 Y69.63 E9.91702
G1 X78.121 Y68.777 E9.94941
G1 X78.664 Y67.969 E9.98179
G1 X79.231 Y67.265 E10.01186
M204 S2000
G0 F7500 X79.543 Y67.516
M204 S500
G1 F1500 X80.218 Y66.815 E10.04422
G1 X80.927 Y66.2 E10.07544
G1 X81.659 Y65.67 E10.1055
G1 X82.495 Y65.171 E10.13788
G1 X83.34 Y64.764 E10.16908
G1 X84.219 Y64.433 E10.20032
G1 X85.122 Y64.182 E10.23149
G1 X86.05 Y64.01 E10.26288
G1 X87.189 Y63.914 E10.3009
G1 X87.821 Y63.9 E10.32192
G1 X131.798 Y63.9 E11.7846
G1 X132.66 Y63.912 E11.81328
G1 X133.597 Y63.968 E11.8445
G1 X134.525 Y64.107 E11.87571
G1 X135.438 Y64.328 E11.90695
G1 X136.294 Y64.616 E11.93699
G1 X137.186 Y65.006 E11.96937
G1 X138.007 Y65.459 E12.00056
G1 X138.758 Y65.961 E12.0306
G1 X139.517 Y66.573 E12.06303
G1 X140.191 Y67.226 E12.09424
G1 X140.805 Y67.935 E12.12544
G1 X141.355 Y68.696 E12.15667
G1 X141.817 Y69.472 E12.1867
G1 X142.24 Y70.349 E12.21909
G1 X142.569 Y71.227 E12.25027
G1 X142.82 Y72.132 E12.28151
G1 X142.991 Y73.059 E12.31286
G1 X143.086 Y74.189 E12.35058
G1 X143.1 Y74.83 E12.3719
G1 X143.099 Y144.895 E14.70228
G1 X143.089 Y145.64 E14.72706
G1 X143.035 Y146.577 E14.75827
G1 X142.897 Y147.506 E14.78951
G1 X142.678 Y148.418 E14.82071
G1 X142.38 Y149.308 E14.85192
G1 X142.003 Y150.168 E14.88316
G1 X141.553 Y150.99 E14.91432
G1 X141.031 Y151.771 E14.94557
G1 X140.442 Y152.501 E14.97677
G1 X139.817 Y153.152 E15.00678
G1 X139.082 Y153.793 E15.03922
G1 X138.322 Y154.343 E15.07042
G1 X137.516 Y154.824 E15.10164
G1 X136.671 Y155.232 E15.13285
G1 X135.793 Y155.563 E15.16406
G1 X134.889 Y155.816 E15.19528
G1 X133.962 Y155.988 E15.22664
G1 X132.811 Y156.086 E15.26506
G1 X132.17 Y156.1 E15.28638
G1 X88.07 Y156.099 E16.75316
G1 X87.354 Y156.089 E16.77697
G1 X86.418 Y156.035 E16.80816
G1 X85.489 Y155.896 E16.8394
G1 X84.577 Y155.677 E16.87059
G1 X83.687 Y155.378 E16.90182
G1 X82.828 Y155.001 E16.93302
G1 X82.005 Y154.55 E16.96424
G1 X81.225 Y154.028 E16.99545
G1 X80.521 Y153.462 E17.0255
G1 X79.819 Y152.787 E17.05789
G1 X79.204 Y152.078 E17.0891
G1 X78.674 Y151.347 E17.11914
G1 X78.174 Y150.511 E17.15153
G1 X77.766 Y149.666 E17.18274
G1 X77.435 Y148.788 E17.21395
G1 X77.183 Y147.884 E17.24517
G1 X77.011 Y146.955 E17.27659
G1 X76.913 Y145.776 E17.31594
G1 X76.9 Y145.158 E17.3365
G1 X76.901 Y75.031 E19.66893
G1 X76.911 Y74.348 E19.69165
G1 X76.966 Y73.411 E19.72287
G1 X77.105 Y72.483 E19.75408
G1 X77.325 Y71.571 E19.78528
G1 X77.625 Y70.681 E19.81652
G1 X78.002 Y69.822 E19.84772
G1 X78.453 Y69 E19.87891
G1 X78.976 Y68.22 E19.91014
G1 X79.543 Y67.516 E19.94021
M204 S2000
G0 F7500 X79.855 Y67.767
M204 S500
G1 F1500 X80.481 Y67.117 E19.97022
G1 X81.162 Y66.524 E20.00025
G1 X81.894 Y65.994 E20.03031
G1 X82.669 Y65.531 E20.06034
G1 X83.482 Y65.138 E20.09037
G1 X84.327 Y64.818 E20.12043
G1 X85.196 Y64.575 E20.15044
G1 X86.084 Y64.409 E20.18048
G1 X87.223 Y64.313 E20.2185
G1 X87.83 Y64.3 E20.2387
G1 X131.793 Y64.3 E21.70091
G1 X132.637 Y64.311 E21.72898
G1 X133.539 Y64.364 E21.75904
G1 X134.432 Y64.496 E21.78906
G1 X135.31 Y64.707 E21.81909
G1 X136.166 Y64.995 E21.84913
G1 X136.993 Y65.357 E21.87916
G1 X137.785 Y65.792 E21.90921
G1 X138.536 Y66.294 E21.93926
G1 X139.239 Y66.861 E21.9693
G1 X139.889 Y67.488 E21.99934
G1 X140.481 Y68.17 E22.02937
G1 X141.011 Y68.901 E22.0594
G1 X141.473 Y69.677 E22.08944
G1 X141.866 Y70.49 E22.11948
G1 X142.184 Y71.335 E22.1495
G1 X142.427 Y72.205 E22.17955
G1 X142.592 Y73.093 E22.20959
G1 X142.687 Y74.223 E22.24731
G1 X142.7 Y74.83 E22.2675
G1 X142.699 Y144.89 E24.5977
G1 X142.69 Y145.617 E24.62189
G1 X142.639 Y146.519 E24.65193
G1 X142.508 Y147.413 E24.68199
G1 X142.299 Y148.291 E24.71201
G1 X142.013 Y149.148 E24.74205
G1 X141.652 Y149.976 E24.7721
G1 X141.22 Y150.768 E24.8021
G1 X140.719 Y151.52 E24.83216
G1 X140.153 Y152.224 E24.8622
G1 X139.528 Y152.875 E24.89222
G1 X138.847 Y153.469 E24.92227
G1 X138.116 Y154 E24.95232
G1 X137.342 Y154.464 E24.98234
G1 X136.529 Y154.858 E25.01239
G1 X135.685 Y155.178 E25.04241
G1 X134.815 Y155.423 E25.07247
G1 X133.928 Y155.589 E25.10248
G1 X132.777 Y155.687 E25.14091
G1 X132.17 Y155.7 E25.1611
G1 X88.075 Y155.699 E26.6277
G1 X87.377 Y155.69 E26.65092
G1 X86.476 Y155.639 E26.68094
G1 X85.582 Y155.507 E26.71099
G1 X84.704 Y155.298 E26.74101
G1 X83.847 Y155.011 E26.77107
G1 X83.02 Y154.65 E26.80109
G1 X82.227 Y154.217 E26.83114
G1 X81.476 Y153.716 E26.86116
G1 X80.772 Y153.15 E26.89121
G1 X80.121 Y152.524 E26.92125
G1 X79.528 Y151.843 E26.95128
G1 X78.998 Y151.112 E26.98131
G1 X78.534 Y150.337 E27.01135
G1 X78.14 Y149.524 E27.0414
G1 X77.82 Y148.68 E27.07142
G1 X77.576 Y147.81 E27.10148
G1 X77.41 Y146.922 E27.13152
G1 X77.313 Y145.767 E27.17007
G1 X77.3 Y145.158 E27.19033
G1 X77.301 Y75.036 E29.5226
G1 X77.31 Y74.371 E29.54472
G1 X77.362 Y73.469 E29.57477
G1 X77.494 Y72.576 E29.6048
G1 X77.704 Y71.698 E29.63482
G1 X77.991 Y70.841 E29.66488
G1 X78.353 Y70.014 E29.69491
G1 X78.786 Y69.222 E29.72493
G1 X79.288 Y68.471 E29.75497
G1 X79.855 Y67.767 E29.78504
M204 S2000
G1 F2400 E28.98504
;MESH:New_Calf_second v1.stl
G0 F7500 X86.835 Y74.92
G0 X111.316 Y144.9
M204 S500
;TYPE:WALL-INNER
G1 F2400 E29.78504
G1 F1500 X131.9 Y144.9 E30.46967
G1 X131.9 Y75.1 E32.79122
G1 X111.316 Y75.1 E33.47585
G1 X111.419 Y75.266 E33.48235
G1 X111.555 Y75.592 E33.4941
G1 X111.6 Y75.998 E33.50768
G1 X111.554 Y76.41 E33.52147
G1 X111.418 Y76.735 E33.53319
G1 X111.316 Y76.9 E33.53964
G1 X117.5 Y76.9 E33.74532
G1 X117.783 Y76.97 E33.75502
G1 X117.98 Y77.14 E33.76367
G1 X118.1 Y77.376 E33.77248
G1 X118.1 Y82.578 E33.9455
G1 X117.992 Y82.845 E33.95508
G1 X117.718 Y83.06 E33.96666
G1 X117.533 Y83.1 E33.97296
G1 X102.467 Y83.1 E34.47405
G1 X102.201 Y83.021 E34.48328
G1 X101.977 Y82.796 E34.49384
G1 X101.9 Y82.582 E34.50141
G1 X101.9 Y77.376 E34.67456
G1 X102.02 Y77.14 E34.68336
G1 X102.217 Y76.97 E34.69202
G1 X102.419 Y76.9 E34.69913
G1 X108.684 Y76.9 E34.9075
G1 X108.581 Y76.734 E34.914
G1 X108.445 Y76.408 E34.92575
G1 X108.4 Y76.002 E34.93934
G1 X108.446 Y75.59 E34.95313
G1 X108.582 Y75.265 E34.96484
G1 X108.684 Y75.1 E34.9713
G1 X88.1 Y75.1 E35.65592
G1 X88.101 Y144.899 E37.97745
G1 X108.684 Y144.9 E38.66204
G1 X108.581 Y144.734 E38.66854
G1 X108.447 Y144.413 E38.68011
G1 X108.394 Y144.006 E38.69376
G1 X108.447 Y143.585 E38.70787
G1 X108.613 Y143.192 E38.72206
G1 X108.877 Y142.852 E38.73638
G1 X109.193 Y142.613 E38.74955
G1 X109.588 Y142.448 E38.76379
G1 X110.007 Y142.396 E38.77784
G1 X110.407 Y142.447 E38.79125
G1 X110.805 Y142.612 E38.80558
G1 X111.123 Y142.852 E38.81883
G1 X111.387 Y143.191 E38.83312
G1 X111.551 Y143.584 E38.84728
G1 X111.606 Y143.993 E38.86101
G1 X111.553 Y144.415 E38.87515
G1 X111.418 Y144.735 E38.88671
G1 X111.316 Y144.9 E38.89316
M204 S2000
G0 F7500 X111.732 Y144.799
G0 X110.946 Y145.069
G0 X110.291 Y145.232
M204 S500
;TYPE:WALL-OUTER
G1 F1160.5 X110.004 Y145.25 E38.90552
G1 X109.709 Y145.232 E38.91823
M204 S2000
G0 F7500 X109.695 Y145.234
M204 S500
G1 F1342.3 X109.416 Y145.058 E38.93049
G1 F1467 X109.132 Y144.829 E38.94289
G1 F1500 X108.951 Y144.58 E38.95313
G1 X108.834 Y144.282 E38.96378
G1 X108.801 Y143.978 E38.97395
G1 X108.838 Y143.688 E38.98367
G1 X108.976 Y143.377 E38.99499
G1 X109.16 Y143.141 E39.00494
G1 X109.395 Y142.964 E39.01473
G1 X109.709 Y142.835 E39.02602
G1 X109.979 Y142.8 E39.03508
G1 X110.317 Y142.841 E39.0464
G1 X110.597 Y142.959 E39.05651
G1 X110.84 Y143.141 E39.0666
G1 X111.049 Y143.42 E39.0782
G1 X111.166 Y143.718 E39.08885
G1 X111.199 Y144.022 E39.09902
G1 X111.162 Y144.312 E39.10874
G1 X111.024 Y144.623 E39.12006
G1 X110.852 Y144.85 E39.12953
G1 F1467 X110.584 Y145.058 E39.14107
G1 F1342.3 X110.301 Y145.234 E39.15345
G1 F1369.9 X110.716 Y145.3 E39.16876
G1 F1500 X132.3 Y145.3 E39.88664
G1 X132.3 Y74.7 E42.23481
G1 X110.716 Y74.7 E42.9527
G1 F1369.9 X110.305 Y74.766 E42.96786
G1 F1342.3 X110.584 Y74.942 E42.98012
G1 F1467 X110.868 Y75.171 E42.99252
G1 F1500 X111.049 Y75.42 E43.00276
G1 X111.166 Y75.718 E43.01341
G1 X111.199 Y76.022 E43.02358
G1 X111.162 Y76.312 E43.03331
G1 X111.024 Y76.623 E43.04462
G1 X110.852 Y76.85 E43.05409
G1 F1467 X110.584 Y77.058 E43.06563
G1 F1342.3 X110.301 Y77.234 E43.07802
G1 F1369.9 X110.716 Y77.3 E43.09332
G1 F1500 X117.577 Y77.3 E43.32152
G1 X117.7 Y77.456 E43.32813
G1 X117.698 Y82.535 E43.49706
G1 X117.64 Y82.644 E43.50116
G1 X117.535 Y82.698 E43.50509
G1 X102.465 Y82.698 E44.00632
G1 X102.302 Y82.583 E44.01296
G1 X102.3 Y77.456 E44.18348
G1 X102.34 Y77.38 E44.18634
G1 X102.465 Y77.302 E44.19124
G1 X109.284 Y77.3 E44.41804
G1 F1369.9 X109.695 Y77.234 E44.4332
G1 F1342.3 X109.416 Y77.058 E44.44546
G1 F1467 X109.132 Y76.829 E44.45787
G1 F1500 X108.951 Y76.58 E44.4681
G1 X108.834 Y76.282 E44.47875
G1 X108.801 Y75.978 E44.48892
G1 X108.838 Y75.688 E44.49865
G1 X108.976 Y75.377 E44.50996
G1 X109.148 Y75.15 E44.51944
G1 F1467 X109.416 Y74.942 E44.53097
G1 F1342.3 X109.699 Y74.766 E44.54336
G1 F1369.9 X109.284 Y74.7 E44.55866
G1 F1500 X87.7 Y74.7 E45.27655
G1 X87.701 Y145.299 E47.62468
G1 X109.284 Y145.3 E48.34254
G1 F1369.9 X109.695 Y145.234 E48.3577
M204 S2000
G1 F2400 E47.5577
G0 F7500 X109.054 Y145.069
G0 X88.273 Y144.727
G0 X88.272 Y75.272
G0 X108.382 Y75.278
G0 X108.382 Y76.448
G0 X109.054 Y77.069
G0 X109.709 Y77.232
M204 S500
G1 F2400 E48.3577
G1 F1160.5 X110.004 Y77.25 E48.3704
G1 X110.291 Y77.232 E48.38276
M204 S2000
G1 F2400 E47.58276
G0 F7500 X110.946 Y77.069
G0 X111.249 Y76.722
G0 X111.394 Y76.373
G0 X111.443 Y75.994
G0 X111.394 Y75.626
G0 X110.946 Y74.931
G0 X110.291 Y74.768
M204 S500
G1 F2400 E48.38276
G1 F1160.5 X109.996 Y74.75 E48.39547
G1 X109.709 Y74.768 E48.40783
M204 S2000
G1 F2400 E47.60783
G0 F7500 X109.054 Y74.931
G0 X108.751 Y75.278
G0 X108.606 Y75.627
G0 X108.557 Y76.006
G0 X108.606 Y76.374
G0 X108.751 Y76.722
G0 X108.98 Y77.02
G0 X102.072 Y77.072
G0 X102.072 Y82.928
G0 X118.123 Y82.938
G0 X118.109 Y77.044
G0 X111.618 Y76.722
G0 X111.618 Y75.278
G0 X131.728 Y75.272
G0 X131.728 Y144.728
G0 X111.869 Y144.799
G0 X111.871 Y144.539
M204 S500
;TYPE:SKIN
G1 F2400 E48.40783
G1 F1500 X111.915 Y144.408 E48.41243
G1 X111.966 Y144.022 E48.42538
G1 X111.905 Y143.497 E48.44296
G1 X111.701 Y143.008 E48.46058
G1 X111.377 Y142.597 E48.47799
G1 X110.978 Y142.297 E48.49459
G1 X110.514 Y142.104 E48.5113
G1 X109.965 Y142.037 E48.5297
G1 X109.483 Y142.1 E48.54587
G1 X109.009 Y142.302 E48.563
G1 X108.639 Y142.583 E48.57846
G1 X108.299 Y143.008 E48.59656
G1 X108.095 Y143.492 E48.61403
G1 X108.036 Y143.988 E48.63064
G1 X108.102 Y144.538 E48.64907
G1 X88.461 Y144.539 E49.30233
G1 X88.46 Y75.46 E51.59991
G1 X108.102 Y75.461 E52.2532
G1 X108.04 Y75.977 E52.27049
G1 X108.08 Y76.373 E52.28373
G1 X108.129 Y76.538 E52.28945
G1 X102.364 Y76.542 E52.4812
G1 X102.043 Y76.649 E52.49245
G1 X101.731 Y76.918 E52.50615
G1 X101.591 Y77.197 E52.51653
G1 X101.541 Y77.478 E52.52603
G1 X101.541 Y82.621 E52.69708
G1 X101.71 Y83.05 E52.71242
G1 X101.94 Y83.28 E52.72324
G1 X102.231 Y83.424 E52.73404
G1 X102.445 Y83.459 E52.74125
G1 X117.61 Y83.455 E53.24564
G1 X118.043 Y83.299 E53.26095
G1 X118.294 Y83.048 E53.27275
G1 X118.459 Y82.621 E53.28798
G1 X118.459 Y77.478 E53.45903
G1 X118.425 Y77.229 E53.46739
G1 X118.269 Y76.918 E53.47897
G1 X117.952 Y76.645 E53.49288
G1 X117.544 Y76.545 E53.50685
G1 X111.872 Y76.538 E53.6955
G1 X111.923 Y76.368 E53.70141
G1 X111.96 Y76.021 E53.71301
G1 X111.92 Y75.625 E53.72625
G1 X111.872 Y75.461 E53.73193
G1 X131.54 Y75.46 E54.3861
G1 X131.54 Y144.539 E56.68367
G1 X111.871 Y144.539 E57.33787
M204 S2000
G0 F7500 X111.869 Y144.799
G0 X111.249 Y144.722
G0 X111.394 Y144.373
G0 X111.443 Y143.994
G0 X111.394 Y143.626
G0 X111.249 Y143.278
G0 X111.02 Y142.98
G0 X110.722 Y142.751
G0 X110.373 Y142.606
G0 X109.994 Y142.557
G0 X109.626 Y142.606
G0 X109.278 Y142.751
G0 X108.98 Y142.98
G0 X108.751 Y143.278
G0 X108.606 Y143.627
G0 X108.557 Y144.006
G0 X108.606 Y144.374
G0 X108.779 Y144.718
G0 X88.9 Y144.799
G0 X88.9 Y144.337
M204 S500
G1 F1500 X88.659 Y144.097 E57.34918
M204 S2000
G0 F7500 X88.659 Y143.531
M204 S500
G1 F1500 X89.465 Y144.337 E57.38709
M204 S2000
G0 F7500 X90.031 Y144.337
M204 S500
G1 F1500 X88.659 Y142.965 E57.45162
M204 S2000
G0 F7500 X88.659 Y142.399
M204 S500
G1 F1500 X90.597 Y144.337 E57.54278
M204 S2000
G0 F7500 X91.163 Y144.337
M204 S500
G1 F1500 X88.659 Y141.834 E57.66054
M204 S2000
G0 F7500 X88.659 Y141.268
M204 S500
G1 F1500 X91.728 Y144.337 E57.8049
M204 S2000
G0 F7500 X92.294 Y144.337
M204 S500
G1 F1500 X88.659 Y140.702 E57.97587
M204 S2000
G0 F7500 X88.659 Y140.137
M204 S500
G1 F1500 X92.86 Y144.337 E58.17345
M204 S2000
G0 F7500 X93.425 Y144.337
M204 S500
G1 F1500 X88.659 Y139.571 E58.39763
M204 S2000
G0 F7500 X88.659 Y139.005
M204 S500
G1 F1500 X93.991 Y144.337 E58.64843
M204 S2000
G0 F7500 X94.557 Y144.337
M204 S500
G1 F1500 X88.659 Y138.44 E58.92583
M204 S2000
G0 F7500 X88.659 Y137.874
M204 S500
G1 F1500 X95.122 Y144.337 E59.22983
M204 S2000
G0 F7500 X95.688 Y144.337
M204 S500
