;FLAVOR:Marlin
;TIME:75
;Filament used: 0.0259146m
;Layer height: 0.2
;MINX:97.675
;MINY:97.678
;MINZ:0.2
;MAXX:122.342
;MAXY:122.322
;MAXZ:10
;TARGET_MACHINE.NAME:Creality Ender-3 S1
;Generated with Cura_SteamEngine 5.6.0
M82 ;absolute extrusion mode
; Ender 3 S1 Start G-code
; M413 S0 ; Disable power loss recovery
G92 E0 ; Reset Extruder

; Prep surfaces before auto home for better accuracy
M140 S60
M104 S200

G28 ; Home all axes
G1 Z10.0 F3000 ; Move Z Axis up little to prevent scratching of Heat Bed
G1 X0 Y0

M190 S60
M109 S200

G1 X0.1 Y20 Z0.3 F5000.0 ; Move to start position
G1 X0.1 Y200.0 Z0.3 F1500.0 E15 ; Draw the first line
G1 X0.4 Y200.0 Z0.3 F5000.0 ; Move to side a little
G1 X0.4 Y20 Z0.3 F1500.0 E30 ; Draw the second line
G92 E0 ; Reset Extruder
G1 Z2.0 F3000 ; Move Z Axis up little to prevent scratching of Heat Bed
G1 X5 Y20 Z0.3 F5000.0 ; Move over to prevent blob squish

G92 E0
G92 E0
G1 F2400 E-0.8
;LAYER_COUNT:50
;LAYER:0
M107
M204 S2000
G0 F7500 X101.286 Y101.278 Z0.2
M204 S500
;TYPE:SKIRT
G1 F2400 E0
G1 F1500 X101.542 Y101.03 E0.01185
G1 X102.311 Y100.352 E0.04595
G1 X103.125 Y99.753 E0.07957
G1 X103.957 Y99.246 E0.11197
G1 X104.879 Y98.789 E0.1462
G1 X105.729 Y98.446 E0.17669
G1 X106.685 Y98.124 E0.21024
G1 X107.597 Y97.903 E0.24145
G1 X108.63 Y97.747 E0.2762
G1 X109.63 Y97.684 E0.30952
G1 X110.022 Y97.678 E0.32256
G1 X110.925 Y97.702 E0.35261
G1 X112.035 Y97.83 E0.38977
G1 X113.021 Y98.039 E0.42329
G1 X113.917 Y98.31 E0.45443
G1 X114.72 Y98.624 E0.4831
G1 X115.161 Y98.817 E0.49911
G1 X116.065 Y99.262 E0.53263
G1 X116.838 Y99.728 E0.56265
G1 X117.732 Y100.382 E0.59949
G1 X118.416 Y100.976 E0.62962
G1 X119.215 Y101.791 E0.66758
G1 X119.888 Y102.619 E0.70307
G1 X120.606 Y103.717 E0.7467
G1 X120.83 Y104.112 E0.76181
G1 X121.284 Y105.014 E0.79539
G1 X121.659 Y105.959 E0.82921
G1 X121.966 Y107.008 E0.86556
G1 X122.044 Y107.335 E0.87674
G1 X122.232 Y108.328 E0.91036
G1 X122.331 Y109.331 E0.94388
G1 X122.342 Y110.341 E0.97747
G1 X122.266 Y111.331 E1.0105
G1 X122.17 Y111.969 E1.03196
G1 X122.086 Y112.419 E1.04718
G1 X121.868 Y113.367 E1.07954
G1 X121.555 Y114.327 E1.11312
G1 X121.158 Y115.257 E1.14675
G1 X120.663 Y116.18 E1.18159
G1 X120.439 Y116.55 E1.19597
G1 X119.878 Y117.388 E1.22952
G1 X119.245 Y118.175 E1.26311
G1 X118.599 Y118.85 E1.29418
G1 X117.921 Y119.459 E1.32449
G1 X116.986 Y120.17 E1.36356
G1 X116.193 Y120.67 E1.39474
G1 X115.247 Y121.157 E1.43013
G1 X114.617 Y121.423 E1.45288
G1 X114.233 Y121.571 E1.46656
G1 X113.308 Y121.879 E1.49899
G1 X112.292 Y122.12 E1.53372
G1 X111.398 Y122.252 E1.56378
G1 X110.373 Y122.316 E1.59794
G1 X109.971 Y122.322 E1.61131
G1 X109.034 Y122.295 E1.64249
G1 X107.96 Y122.169 E1.67845
G1 X106.974 Y121.96 E1.71197
G1 X106.049 Y121.679 E1.74413
G1 X105.296 Y121.384 E1.77103
G1 X104.858 Y121.192 E1.78693
G1 X103.951 Y120.748 E1.82052
G1 X103.178 Y120.282 E1.85054
G1 X102.283 Y119.628 E1.88741
G1 X101.529 Y118.971 E1.92067
G1 X100.754 Y118.173 E1.95767
G1 X100.13 Y117.405 E1.99058
G1 X99.361 Y116.227 E2.03737
G1 X99.172 Y115.893 E2.05014
G1 X98.763 Y115.088 E2.08017
G1 X98.35 Y114.052 E2.11726
G1 X98.059 Y113.07 E2.15133
G1 X97.839 Y111.931 E2.18991
G1 X97.764 Y111.365 E2.2089
G1 X97.677 Y110.363 E2.24235
G1 X97.675 Y109.459 E2.27242
G1 X97.775 Y108.339 E2.30982
G1 X98.001 Y107.13 E2.35073
G1 X98.311 Y106.045 E2.38826
G1 X98.646 Y105.169 E2.41945
G1 X99.058 Y104.314 E2.45102
G1 X99.205 Y104.04 E2.46136
G1 X99.722 Y103.174 E2.49491
G1 X100.302 Y102.373 E2.5278
G1 X101.286 Y101.278 E2.57677
M204 S2000
G0 F7500 X101.565 Y101.565
M204 S500
G1 F1500 X101.807 Y101.33 E2.58799
G1 X102.549 Y100.674 E2.62093
G1 X103.333 Y100.095 E2.65334
G1 X104.165 Y99.588 E2.68575
G1 X105.029 Y99.16 E2.71782
G1 X105.857 Y98.825 E2.74753
G1 X106.78 Y98.513 E2.77993
G1 X107.657 Y98.299 E2.80996
G1 X108.69 Y98.143 E2.8447
G1 X109.636 Y98.084 E2.87623
G1 X110.011 Y98.078 E2.8887
G1 X110.914 Y98.102 E2.91875
G1 X111.952 Y98.221 E2.9535
G1 X112.905 Y98.422 E2.98589
G1 X113.801 Y98.693 E3.01703
G1 X114.56 Y98.99 E3.04413
G1 X114.985 Y99.176 E3.05956
G1 X115.858 Y99.605 E3.09192
G1 X116.631 Y100.071 E3.12194
G1 X117.47 Y100.685 E3.15652
G1 X118.13 Y101.256 E3.18554
G1 X118.929 Y102.071 E3.2235
G1 X119.553 Y102.838 E3.25639
G1 X120.271 Y103.936 E3.30003
G1 X120.473 Y104.292 E3.31364
G1 X120.912 Y105.162 E3.34605
G1 X121.275 Y106.072 E3.37864
G1 X121.577 Y107.101 E3.41431
G1 X121.651 Y107.41 E3.42487
G1 X121.834 Y108.368 E3.45731
G1 X121.931 Y109.336 E3.48967
G1 X121.943 Y110.311 E3.5221
G1 X121.87 Y111.271 E3.55412
G1 X121.774 Y111.909 E3.57558
G1 X121.696 Y112.329 E3.58979
G1 X121.478 Y113.277 E3.62214
G1 X121.187 Y114.17 E3.65338
G1 X120.805 Y115.068 E3.68584
G1 X120.31 Y115.991 E3.72067
G1 X120.106 Y116.328 E3.73378
G1 X119.566 Y117.138 E3.76616
G1 X118.956 Y117.898 E3.79857
G1 X118.31 Y118.573 E3.82964
G1 X117.654 Y119.161 E3.85894
G1 X116.772 Y119.832 E3.8958
G1 X116.009 Y120.315 E3.92584
G1 X115.091 Y120.789 E3.9602
G1 X114.474 Y121.05 E3.98248
G1 X114.107 Y121.191 E3.99556
G1 X113.182 Y121.499 E4.02799
G1 X112.234 Y121.724 E4.06039
G1 X111.34 Y121.856 E4.09045
G1 X110.367 Y121.916 E4.12287
G1 X109.983 Y121.922 E4.13565
G1 X109.046 Y121.895 E4.16682
G1 X108.043 Y121.778 E4.20041
G1 X107.09 Y121.577 E4.23281
G1 X106.195 Y121.306 E4.26391
G1 X105.456 Y121.017 E4.2903
G1 X105.034 Y120.833 E4.30561
G1 X104.158 Y120.405 E4.33804
G1 X103.385 Y119.939 E4.36806
G1 X102.545 Y119.326 E4.40265
G1 X101.816 Y118.692 E4.43478
G1 X101.064 Y117.92 E4.47063
G1 X100.465 Y117.186 E4.50214
G1 X99.696 Y116.008 E4.54893
G1 X99.529 Y115.712 E4.56023
G1 X99.12 Y114.907 E4.59026
G1 X98.733 Y113.938 E4.62497
G1 X98.452 Y112.994 E4.65772
G1 X98.232 Y111.855 E4.69631
G1 X98.162 Y111.33 E4.71392
G1 X98.077 Y110.362 E4.74624
G1 X98.075 Y109.458 E4.77631
G1 X98.168 Y108.412 E4.81124
G1 X98.386 Y107.239 E4.85092
G1 X98.685 Y106.188 E4.88726
G1 X99.02 Y105.312 E4.91846
G1 X99.41 Y104.503 E4.94833
G1 X99.549 Y104.244 E4.95811
G1 X100.046 Y103.408 E4.99045
G1 X100.6 Y102.64 E5.02195
G1 X101.565 Y101.565 E5.07
M204 S2000
G0 F7500 X101.844 Y101.852
M204 S500
G1 F1500 X102.086 Y101.617 E5.08122
G1 X102.787 Y100.995 E5.11239
G1 X103.542 Y100.436 E5.14363
G1 X104.343 Y99.946 E5.17486
G1 X105.179 Y99.531 E5.20591
G1 X105.986 Y99.204 E5.23487
G1 X106.875 Y98.902 E5.26609
G1 X107.752 Y98.688 E5.29612
G1 X108.715 Y98.542 E5.32851
G1 X109.643 Y98.484 E5.35944
G1 X110 Y98.478 E5.37132
G1 X110.903 Y98.502 E5.40136
G1 X111.87 Y98.613 E5.43373
G1 X112.789 Y98.805 E5.46496
G1 X113.685 Y99.076 E5.49609
G1 X114.4 Y99.356 E5.52163
G1 X114.809 Y99.535 E5.53648
G1 X115.651 Y99.948 E5.56768
G1 X116.424 Y100.414 E5.5977
G1 X117.208 Y100.988 E5.63001
G1 X117.868 Y101.559 E5.65904
G1 X118.619 Y102.324 E5.6947
G1 X119.218 Y103.057 E5.72618
G1 X119.936 Y104.155 E5.76982
G1 X120.116 Y104.473 E5.78197
G1 X120.541 Y105.311 E5.81322
G1 X120.891 Y106.185 E5.84453
G1 X121.188 Y107.195 E5.87955
G1 X121.258 Y107.486 E5.8895
G1 X121.436 Y108.409 E5.92077
G1 X121.531 Y109.342 E5.95196
G1 X121.544 Y110.281 E5.9832
G1 X121.474 Y111.211 E6.01421
G1 X121.378 Y111.849 E6.03567
G1 X121.306 Y112.24 E6.0489
G1 X121.097 Y113.154 E6.08008
G1 X120.819 Y114.013 E6.11011
G1 X120.437 Y114.911 E6.14257
G1 X119.968 Y115.784 E6.17553
G1 X119.773 Y116.107 E6.18808
G1 X119.254 Y116.888 E6.21927
G1 X118.667 Y117.621 E6.2505
G1 X118.021 Y118.296 E6.28158
G1 X117.387 Y118.863 E6.30987
G1 X116.558 Y119.494 E6.34452
G1 X115.795 Y119.977 E6.37455
G1 X114.935 Y120.421 E6.40674
G1 X114.33 Y120.677 E6.42859
G1 X113.98 Y120.812 E6.44107
G1 X113.089 Y121.11 E6.47232
G1 X112.176 Y121.328 E6.50354
G1 X111.282 Y121.46 E6.53359
G1 X110.36 Y121.516 E6.56432
G1 X109.995 Y121.522 E6.57646
G1 X109.058 Y121.495 E6.60764
G1 X108.125 Y121.386 E6.63888
G1 X107.206 Y121.194 E6.67011
G1 X106.311 Y120.923 E6.70121
G1 X105.615 Y120.65 E6.72607
G1 X105.209 Y120.474 E6.74079
G1 X104.365 Y120.062 E6.77203
G1 X103.592 Y119.596 E6.80205
G1 X102.807 Y119.024 E6.83436
G1 X102.102 Y118.412 E6.86541
G1 X101.374 Y117.667 E6.90005
G1 X100.775 Y116.933 E6.93156
G1 X100.044 Y115.811 E6.9761
G1 X99.886 Y115.531 E6.98679
G1 X99.477 Y114.726 E7.01683
G1 X99.116 Y113.823 E7.04917
G1 X98.845 Y112.918 E7.08059
G1 X98.625 Y111.779 E7.11918
G1 X98.56 Y111.295 E7.13542
G1 X98.477 Y110.361 E7.16661
G1 X98.475 Y109.457 E7.19667
G1 X98.561 Y108.485 E7.22913
G1 X98.771 Y107.348 E7.26758
G1 X99.059 Y106.331 E7.30274
G1 X99.394 Y105.455 E7.33393
G1 X99.762 Y104.692 E7.36211
G1 X99.893 Y104.448 E7.37132
G1 X100.371 Y103.641 E7.40252
G1 X100.898 Y102.907 E7.43257
G1 X101.844 Y101.852 E7.4797
M204 S2000
G0 F7500 X102.123 Y102.139
M204 S500
G1 F1500 X102.352 Y101.916 E7.49033
G1 X103.026 Y101.316 E7.52034
G1 X103.751 Y100.777 E7.55039
G1 X104.521 Y100.304 E7.58045
G1 X105.329 Y99.902 E7.61046
G1 X106.115 Y99.583 E7.63868
G1 X106.97 Y99.291 E7.66873
G1 X107.847 Y99.077 E7.69875
G1 X108.74 Y98.941 E7.7288
G1 X109.65 Y98.884 E7.75912
G1 X109.989 Y98.878 E7.7704
G1 X110.892 Y98.902 E7.80044
G1 X111.789 Y99.005 E7.83047
G1 X112.674 Y99.188 E7.86053
G1 X113.539 Y99.448 E7.89057
G1 X114.24 Y99.723 E7.91562
G1 X114.633 Y99.894 E7.92987
G1 X115.444 Y100.291 E7.95991
G1 X116.217 Y100.757 E7.98993
G1 X116.946 Y101.291 E8.01998
G1 X117.606 Y101.862 E8.04901
G1 X118.31 Y102.578 E8.08241
G1 X118.883 Y103.276 E8.11244
G1 X119.601 Y104.374 E8.15608
G1 X119.76 Y104.655 E8.16682
G1 X120.17 Y105.46 E8.19686
G1 X120.507 Y106.298 E8.22691
G1 X120.799 Y107.289 E8.26127
G1 X120.865 Y107.563 E8.27064
G1 X121.038 Y108.45 E8.3007
G1 X121.131 Y109.348 E8.33073
G1 X121.145 Y110.251 E8.36076
G1 X121.078 Y111.152 E8.39081
G1 X120.984 Y111.777 E8.41183
G1 X120.916 Y112.151 E8.42448
G1 X120.716 Y113.031 E8.45449
G1 X120.438 Y113.89 E8.48452
G1 X120.085 Y114.722 E8.51458
G1 X119.625 Y115.578 E8.5469
G1 X119.44 Y115.886 E8.55885
G1 X118.941 Y116.639 E8.5889
G1 X118.378 Y117.345 E8.61893
G1 X117.754 Y117.998 E8.64897
G1 X117.144 Y118.545 E8.67622
G1 X116.344 Y119.156 E8.70971
G1 X115.581 Y119.639 E8.73974
G1 X114.779 Y120.053 E8.76976
G1 X114.186 Y120.304 E8.79118
G1 X113.852 Y120.433 E8.80309
G1 X112.996 Y120.721 E8.83312
G1 X112.118 Y120.932 E8.86316
G1 X111.224 Y121.064 E8.89322
G1 X110.353 Y121.116 E8.92224
G1 X110.006 Y121.122 E8.93378
G1 X109.104 Y121.098 E8.96379
G1 X108.206 Y120.994 E8.99386
G1 X107.322 Y120.811 E9.02388
G1 X106.457 Y120.55 E9.05393
G1 X105.774 Y120.283 E9.07833
G1 X105.384 Y120.114 E9.09246
G1 X104.572 Y119.719 E9.1225
G1 X103.799 Y119.253 E9.15252
G1 X103.069 Y118.721 E9.18256
G1 X102.388 Y118.132 E9.21251
G1 X101.683 Y117.413 E9.246
G1 X101.11 Y116.715 E9.27603
G1 X100.392 Y115.614 E9.31975
G1 X100.243 Y115.35 E9.32983
G1 X99.834 Y114.545 E9.35987
G1 X99.499 Y113.707 E9.38988
G1 X99.238 Y112.842 E9.41993
G1 X99.018 Y111.703 E9.45852
G1 X98.958 Y111.259 E9.47342
G1 X98.877 Y110.36 E9.50344
G1 X98.875 Y109.456 E9.53351
G1 X98.954 Y108.557 E9.56353
G1 X99.156 Y107.456 E9.60076
G1 X99.433 Y106.473 E9.63472
G1 X99.754 Y105.629 E9.66476
G1 X100.115 Y104.88 E9.69241
G1 X100.237 Y104.651 E9.70104
G1 X100.696 Y103.874 E9.73106
G1 X101.223 Y103.14 E9.76111
G1 X102.123 Y102.139 E9.80588
M204 S2000
G1 F2400 E9.00588
;MESH:cylinder v3.stl
G0 F7500 X108.865 Y108.859
G0 X109.605 Y109.652
G0 X109.981 Y110.039
G0 X110.029 Y110.274
M204 S500
;TYPE:WALL-INNER
G1 F2400 E9.80588
G1 F1147.2 X110.202 Y110.197 E9.81412
G1 X110.277 Y110.005 E9.82308
G1 X110.195 Y109.799 E9.83272
G1 X109.971 Y109.726 E9.84297
G1 X109.803 Y109.797 E9.8509
G1 X109.727 Y109.927 E9.85745
G1 X109.749 Y110.114 E9.86564
G1 X109.804 Y110.201 E9.87011
G1 X110.029 Y110.274 E9.8804
M204 S2000
G0 F7500 X109.871 Y110.735
M204 S500
;TYPE:WALL-OUTER
G1 F1500 X110.122 Y110.735 E9.88875
G1 X110.452 Y110.594 E9.90068
G1 X110.567 Y110.487 E9.90591
G1 X110.7 Y110.257 E9.91475
G1 X110.745 Y110.008 E9.92316
G1 X110.7 Y109.74 E9.9322
G1 X110.573 Y109.521 E9.94062
G1 X110.456 Y109.409 E9.94601
G1 X110.129 Y109.265 E9.95789
G1 X109.878 Y109.265 E9.96624
G1 X109.547 Y109.406 E9.97821
G1 X109.433 Y109.513 E9.98341
G1 X109.297 Y109.748 E9.99244
G1 X109.259 Y109.896 E9.99752
G1 X109.302 Y110.261 E10.00974
G1 X109.428 Y110.48 E10.01815
G1 X109.544 Y110.591 E10.02349
G1 X109.871 Y110.735 E10.03537
M104 S200
M204 S2000
G1 F2400 E9.23537
;MESH:NONMESH
G0 F300 X109.871 Y110.735 Z0.4
G0 F7500 X110.02 Y110.039
G0 X109.605 Y109.652
G0 X108.865 Y108.859
G0 X102.123 Y102.139
;TIME_ELAPSED:17.516367
;LAYER:1
M106 S255
M204 S500
;TYPE:SKIRT
G1 F2400 E10.03537
G1 F600 X102.352 Y101.916 E10.046
G1 X103.026 Y101.316 E10.07601
G1 X103.751 Y100.777 E10.10606
G1 X104.521 Y100.304 E10.13612
G1 X105.329 Y99.902 E10.16613
G1 X106.115 Y99.583 E10.19435
G1 X106.97 Y99.291 E10.2244
G1 X107.847 Y99.077 E10.25442
G1 X108.74 Y98.941 E10.28447
G1 X109.65 Y98.884 E10.31479
G1 X109.989 Y98.878 E10.32607
G1 X110.892 Y98.902 E10.35611
G1 X111.789 Y99.005 E10.38614
G1 X112.674 Y99.188 E10.4162
G1 X113.539 Y99.448 E10.44624
G1 X114.24 Y99.723 E10.47129
G1 X114.633 Y99.894 E10.48554
G1 X115.444 Y100.291 E10.51558
G1 X116.217 Y100.757 E10.5456
G1 X116.946 Y101.291 E10.57565
G1 X117.606 Y101.862 E10.60468
G1 X118.31 Y102.578 E10.63808
G1 X118.883 Y103.276 E10.66811
G1 X119.601 Y104.374 E10.71175
G1 X119.76 Y104.655 E10.72249
G1 X120.17 Y105.46 E10.75253
G1 X120.507 Y106.298 E10.78258
G1 X120.799 Y107.289 E10.81694
G1 X120.865 Y107.563 E10.82631
G1 X121.038 Y108.45 E10.85637
G1 X121.131 Y109.348 E10.8864
G1 X121.145 Y110.251 E10.91643
G1 X121.078 Y111.152 E10.94648
G1 X120.984 Y111.777 E10.96751
G1 X120.916 Y112.151 E10.98015
G1 X120.716 Y113.031 E11.01016
G1 X120.438 Y113.89 E11.04019
G1 X120.085 Y114.722 E11.07025
G1 X119.625 Y115.578 E11.10257
G1 X119.44 Y115.886 E11.11452
G1 X118.941 Y116.639 E11.14457
G1 X118.378 Y117.345 E11.1746
G1 X117.754 Y117.998 E11.20464
G1 X117.144 Y118.545 E11.2319
G1 X116.344 Y119.156 E11.26538
G1 X115.581 Y119.639 E11.29541
G1 X114.779 Y120.053 E11.32543
G1 X114.186 Y120.304 E11.34685
G1 X113.852 Y120.433 E11.35876
G1 X112.996 Y120.721 E11.38879
G1 X112.118 Y120.932 E11.41883
G1 X111.224 Y121.064 E11.44889
G1 X110.353 Y121.116 E11.47791
G1 X110.006 Y121.122 E11.48945
G1 X109.104 Y121.098 E11.51946
G1 X108.206 Y120.994 E11.54953
G1 X107.322 Y120.811 E11.57955
G1 X106.457 Y120.55 E11.6096
G1 X105.774 Y120.283 E11.634
G1 X105.384 Y120.114 E11.64813
G1 X104.572 Y119.719 E11.67817
G1 X103.799 Y119.253 E11.70819
G1 X103.069 Y118.721 E11.73823
G1 X102.388 Y118.132 E11.76818
G1 X101.683 Y117.413 E11.80167
G1 X101.11 Y116.715 E11.8317
G1 X100.392 Y115.614 E11.87542
G1 X100.243 Y115.35 E11.88551
G1 X99.834 Y114.545 E11.91554
G1 X99.499 Y113.707 E11.94555
G1 X99.238 Y112.842 E11.9756
G1 X99.018 Y111.703 E12.01419
G1 X98.958 Y111.259 E12.02909
G1 X98.877 Y110.36 E12.05911
G1 X98.875 Y109.456 E12.08918
G1 X98.954 Y108.557 E12.1192
G1 X99.156 Y107.456 E12.15643
G1 X99.433 Y106.473 E12.19039
G1 X99.754 Y105.629 E12.22043
G1 X100.115 Y104.88 E12.24808
G1 X100.237 Y104.651 E12.25671
G1 X100.696 Y103.874 E12.28673
G1 X101.223 Y103.14 E12.31678
G1 X102.123 Y102.139 E12.36155
M204 S2000
G1 F2400 E11.56155
;MESH:cylinder v3.stl
G0 F8250 X108.822 Y108.926
G0 X109.565 Y109.714
G0 X110.021 Y110.039
G0 X109.973 Y110.274
M204 S500
;TYPE:WALL-INNER
G1 F2400 E12.36155
G1 F458 X110.156 Y110.234 E12.36971
G1 X110.254 Y110.089 E12.37734
G1 X110.272 Y109.931 E12.38427
G1 X110.201 Y109.804 E12.39061
G1 X110.027 Y109.727 E12.3989
G1 X109.879 Y109.754 E12.40545
G1 X109.774 Y109.852 E12.41171
G1 X109.732 Y109.968 E12.41709
G1 X109.803 Y110.2 E12.42766
G1 X109.973 Y110.274 E12.43574
M204 S2000
G0 F8250 X109.877 Y110.736
M204 S500
;TYPE:WALL-OUTER
G1 F600 X110.129 Y110.736 E12.44412
G1 X110.377 Y110.645 E12.4529
G1 X110.502 Y110.553 E12.45807
G1 X110.7 Y110.252 E12.47005
G1 X110.741 Y109.903 E12.48174
G1 X110.705 Y109.751 E12.48693
G1 X110.567 Y109.513 E12.49608
G1 X110.455 Y109.408 E12.50119
G1 X110.123 Y109.265 E12.51321
G1 X109.872 Y109.265 E12.52156
G1 X109.632 Y109.352 E12.53005
G1 X109.377 Y109.591 E12.54168
G1 X109.26 Y109.913 E12.55307
G1 X109.301 Y110.26 E12.56469
G1 X109.431 Y110.485 E12.57333
