;FLAVOR:Marlin
;TIME:161
;Filament used: 0.052745m
;Layer height: 0.2
;MINX:96.722
;MINY:96.714
;MINZ:0.2
;MAXX:123.29
;MAXY:123.3
;MAXZ:10
;TARGET_MACHINE.NAME:Creality Ender-3 S1
;Generated with Cura_SteamEngine 5.6.0
M82 ;absolute extrusion mode
; Ender 3 S1 Start G-code
; M413 S0 ; Disable power loss recovery
G92 E0 ; Reset Extruder

; Prep surfaces before auto home for better accuracy
M140 S60
M104 S200

G28 ; Home all axes
G1 Z10.0 F3000 ; Move Z Axis up little to prevent scratching of Heat Bed
G1 X0 Y0

M190 S60
M109 S200

G1 X0.1 Y20 Z0.3 F5000.0 ; Move to start position
G1 X0.1 Y200.0 Z0.3 F1500.0 E15 ; Draw the first line
G1 X0.4 Y200.0 Z0.3 F5000.0 ; Move to side a little
G1 X0.4 Y20 Z0.3 F1500.0 E30 ; Draw the second line
G92 E0 ; Reset Extruder
G1 Z2.0 F3000 ; Move Z Axis up little to prevent scratching of Heat Bed
G1 X5 Y20 Z0.3 F5000.0 ; Move over to prevent blob squish

G92 E0
G92 E0
G1 F2400 E-0.8
;LAYER_COUNT:50
;LAYER:0
M107
M204 S2000
G0 F7500 X100.759 Y100.458 Z0.2
M204 S500
;TYPE:SKIRT
G1 F2400 E0
G1 F1500 X101.106 Y100.132 E0.01584
G1 X101.87 Y99.476 E0.04933
G1 X102.603 Y98.948 E0.07937
G1 X103.347 Y98.496 E0.10833
G1 X103.748 Y98.274 E0.12357
G1 X104.649 Y97.828 E0.15701
G1 X105.468 Y97.504 E0.18631
G1 X105.782 Y97.395 E0.19736
G1 X106.74 Y97.11 E0.2306
G1 X107.594 Y96.927 E0.25965
G1 X108.817 Y96.761 E0.3007
G1 X110.121 Y96.714 E0.3441
G1 X110.461 Y96.722 E0.35541
G1 X111.471 Y96.789 E0.38908
G1 X112.489 Y96.947 E0.42334
G1 X112.894 Y97.031 E0.4371
G1 X113.873 Y97.28 E0.4707
G1 X114.754 Y97.587 E0.50173
G1 X115.417 Y97.873 E0.52575
G1 X115.957 Y98.129 E0.54562
G1 X116.847 Y98.603 E0.57916
G1 X117.631 Y99.109 E0.6102
G1 X118.377 Y99.675 E0.64134
G1 X119.062 Y100.263 E0.67137
G1 X119.886 Y101.115 E0.71079
G1 X120.071 Y101.328 E0.72017
G1 X120.863 Y102.353 E0.76326
G1 X121.091 Y102.689 E0.77676
G1 X121.691 Y103.673 E0.81509
G1 X122.219 Y104.751 E0.85502
G1 X122.553 Y105.623 E0.88608
G1 X122.755 Y106.293 E0.90935
G1 X122.882 Y106.765 E0.92561
G1 X123.097 Y107.75 E0.95914
G1 X123.222 Y108.709 E0.99131
G1 X123.253 Y109.09 E1.00402
G1 X123.29 Y110.093 E1.0374
G1 X123.251 Y110.961 E1.0663
G1 X123.212 Y111.406 E1.08116
G1 X123.097 Y112.302 E1.11121
G1 X122.772 Y113.688 E1.15855
G1 X122.666 Y114.041 E1.17081
G1 X122.368 Y114.893 E1.20083
G1 X121.923 Y115.877 E1.23675
G1 X121.706 Y116.301 E1.25259
G1 X121.205 Y117.177 E1.28616
G1 X120.632 Y117.999 E1.31949
G1 X120.088 Y118.66 E1.34796
G1 X119.774 Y119.011 E1.36362
G1 X119.065 Y119.731 E1.39723
G1 X118.285 Y120.396 E1.43132
G1 X118.027 Y120.595 E1.44216
G1 X117.192 Y121.18 E1.47607
G1 X116.213 Y121.736 E1.51352
G1 X115.623 Y122.029 E1.53543
G1 X114.7 Y122.435 E1.56896
G1 X113.816 Y122.737 E1.60004
G1 X113.069 Y122.929 E1.62569
G1 X112.749 Y123 E1.63659
G1 X111.732 Y123.176 E1.67092
G1 X111.333 Y123.225 E1.68429
G1 X110.329 Y123.3 E1.71778
G1 X109.307 Y123.287 E1.75177
G1 X108.125 Y123.157 E1.79132
G1 X107.687 Y123.084 E1.80609
G1 X106.68 Y122.869 E1.84034
G1 X105.91 Y122.643 E1.86703
G1 X105.015 Y122.32 E1.89867
G1 X104.269 Y121.989 E1.92582
G1 X103.413 Y121.542 E1.95794
G1 X103.141 Y121.384 E1.9684
G1 X102.278 Y120.827 E2.00256
G1 X101.496 Y120.22 E2.03549
G1 X100.683 Y119.473 E2.07221
G1 X100.053 Y118.825 E2.10227
G1 X99.216 Y117.774 E2.14696
G1 X99.031 Y117.511 E2.15765
G1 X98.398 Y116.502 E2.19727
G1 X97.875 Y115.465 E2.2359
G1 X97.519 Y114.568 E2.268
G1 X97.394 Y114.203 E2.28083
G1 X97.136 Y113.344 E2.31066
G1 X96.914 Y112.361 E2.34418
G1 X96.779 Y111.372 E2.37738
G1 X96.722 Y110.394 E2.40996
G1 X96.723 Y109.396 E2.44315
G1 X96.782 Y108.661 E2.46768
G1 X96.826 Y108.277 E2.48053
G1 X96.99 Y107.269 E2.5145
G1 X97.289 Y106.13 E2.55367
G1 X97.423 Y105.72 E2.56801
G1 X97.779 Y104.777 E2.60154
G1 X98.192 Y103.916 E2.6333
G1 X98.401 Y103.53 E2.6479
G1 X98.913 Y102.676 E2.68102
G1 X99.34 Y102.073 E2.70559
G1 X99.536 Y101.816 E2.71634
G1 X100.178 Y101.049 E2.74961
G1 X100.759 Y100.458 E2.77718
M204 S2000
G0 F7500 X101.033 Y100.749
M204 S500
G1 F1500 X101.367 Y100.435 E2.79242
G1 X102.104 Y99.801 E2.82476
G1 X102.837 Y99.273 E2.8548
G1 X103.541 Y98.846 E2.88219
G1 X103.926 Y98.632 E2.89684
G1 X104.796 Y98.2 E2.92915
G1 X105.6 Y97.882 E2.9579
G1 X105.897 Y97.778 E2.96837
G1 X106.824 Y97.501 E3.00055
G1 X107.678 Y97.318 E3.0296
G1 X108.832 Y97.161 E3.06833
G1 X110.112 Y97.114 E3.11094
G1 X110.435 Y97.121 E3.12168
G1 X111.41 Y97.184 E3.15418
G1 X112.408 Y97.339 E3.18777
G1 X112.796 Y97.419 E3.20095
G1 X113.741 Y97.658 E3.23337
G1 X114.622 Y97.965 E3.2644
G1 X115.246 Y98.235 E3.28701
G1 X115.769 Y98.482 E3.30625
G1 X116.63 Y98.939 E3.33867
G1 X117.389 Y99.428 E3.3687
G1 X118.116 Y99.979 E3.39904
G1 X118.801 Y100.567 E3.42906
G1 X119.584 Y101.378 E3.46656
G1 X119.754 Y101.573 E3.47516
G1 X120.546 Y102.598 E3.51825
G1 X120.749 Y102.897 E3.53027
G1 X121.349 Y103.881 E3.5686
G1 X121.845 Y104.894 E3.60611
G1 X122.179 Y105.766 E3.63717
G1 X122.369 Y106.397 E3.65909
G1 X122.491 Y106.851 E3.67472
G1 X122.7 Y107.802 E3.70711
G1 X122.823 Y108.742 E3.73864
G1 X122.853 Y109.105 E3.75076
G1 X122.89 Y110.075 E3.78304
G1 X122.852 Y110.927 E3.81141
G1 X122.815 Y111.355 E3.8257
G1 X122.7 Y112.251 E3.85574
G1 X122.389 Y113.573 E3.90091
G1 X122.288 Y113.909 E3.91258
G1 X121.99 Y114.761 E3.9426
G1 X121.567 Y115.695 E3.9767
G1 X121.359 Y116.103 E3.99194
G1 X120.876 Y116.949 E4.02434
G1 X120.323 Y117.745 E4.05657
G1 X119.79 Y118.394 E4.08451
G1 X119.489 Y118.731 E4.09953
G1 X118.806 Y119.427 E4.13197
G1 X118.04 Y120.08 E4.16545
G1 X117.797 Y120.268 E4.17566
G1 X116.994 Y120.832 E4.2083
G1 X116.015 Y121.388 E4.24575
G1 X115.462 Y121.663 E4.26629
G1 X114.571 Y122.056 E4.29868
G1 X113.687 Y122.358 E4.32975
G1 X112.982 Y122.539 E4.35396
G1 X112.681 Y122.606 E4.36422
G1 X111.683 Y122.779 E4.3979
G1 X111.303 Y122.826 E4.41064
G1 X110.333 Y122.9 E4.443
G1 X109.351 Y122.889 E4.47566
G1 X108.191 Y122.762 E4.51447
G1 X107.753 Y122.689 E4.52924
G1 X106.793 Y122.485 E4.56188
G1 X106.023 Y122.259 E4.58857
G1 X105.151 Y121.944 E4.61941
G1 X104.454 Y121.634 E4.64478
G1 X103.614 Y121.196 E4.67629
G1 X103.342 Y121.038 E4.68675
G1 X102.523 Y120.511 E4.71915
G1 X101.763 Y119.922 E4.75113
G1 X101.34 Y119.542 E4.77004
G1 X100.97 Y119.194 E4.78693
G1 X100.34 Y118.546 E4.81699
G1 X99.543 Y117.544 E4.85958
G1 X99.37 Y117.298 E4.86958
G1 X98.737 Y116.289 E4.90919
G1 X98.247 Y115.317 E4.9454
G1 X97.891 Y114.42 E4.9775
G1 X97.777 Y114.088 E4.98917
G1 X97.526 Y113.255 E5.01811
G1 X97.31 Y112.306 E5.05048
G1 X97.178 Y111.349 E5.08261
G1 X97.122 Y110.394 E5.11443
G1 X97.122 Y109.428 E5.14656
G1 X97.179 Y108.707 E5.17061
G1 X97.221 Y108.341 E5.18287
G1 X97.377 Y107.371 E5.21554
G1 X97.676 Y106.232 E5.25471
G1 X97.797 Y105.861 E5.26769
G1 X98.14 Y104.95 E5.30007
G1 X98.544 Y104.106 E5.33119
G1 X98.744 Y103.735 E5.34521
G1 X99.239 Y102.907 E5.37729
G1 X99.658 Y102.315 E5.40141
G1 X99.843 Y102.072 E5.41157
G1 X100.463 Y101.329 E5.44376
G1 X101.033 Y100.749 E5.47081
M204 S2000
G0 F7500 X101.307 Y101.04
M204 S500
G1 F1500 X101.628 Y100.738 E5.48546
G1 X102.338 Y100.126 E5.51664
G1 X103.071 Y99.598 E5.54669
G1 X103.736 Y99.195 E5.57255
G1 X104.104 Y98.99 E5.58656
G1 X104.943 Y98.572 E5.61774
G1 X105.733 Y98.259 E5.646
G1 X106.012 Y98.161 E5.65584
G1 X106.908 Y97.892 E5.68695
G1 X107.762 Y97.709 E5.716
G1 X108.847 Y97.561 E5.75242
G1 X110.104 Y97.514 E5.79426
G1 X110.41 Y97.52 E5.80444
G1 X111.349 Y97.579 E5.83573
G1 X112.328 Y97.731 E5.86868
G1 X112.698 Y97.807 E5.88125
G1 X113.609 Y98.036 E5.91249
G1 X114.49 Y98.343 E5.94352
G1 X115.075 Y98.597 E5.96473
G1 X115.582 Y98.836 E5.98337
G1 X116.413 Y99.275 E6.01463
G1 X117.172 Y99.764 E6.04466
G1 X117.855 Y100.283 E6.07319
G1 X118.54 Y100.871 E6.10322
G1 X119.282 Y101.641 E6.13878
G1 X119.452 Y101.836 E6.14739
G1 X120.215 Y102.823 E6.18888
G1 X120.407 Y103.105 E6.20023
G1 X121.007 Y104.089 E6.23856
G1 X121.471 Y105.037 E6.27367
G1 X121.805 Y105.909 E6.30472
G1 X121.983 Y106.501 E6.32528
G1 X122.1 Y106.937 E6.3403
G1 X122.303 Y107.854 E6.37154
G1 X122.424 Y108.776 E6.40247
G1 X122.453 Y109.121 E6.41398
G1 X122.49 Y110.057 E6.44514
G1 X122.453 Y110.893 E6.47297
G1 X122.418 Y111.304 E6.48669
G1 X122.303 Y112.2 E6.51673
G1 X122.006 Y113.458 E6.55973
G1 X121.91 Y113.777 E6.57081
G1 X121.612 Y114.629 E6.60083
G1 X121.211 Y115.513 E6.63311
G1 X121.011 Y115.905 E6.64775
G1 X120.547 Y116.721 E6.67897
G1 X120.014 Y117.491 E6.71012
G1 X119.491 Y118.128 E6.73753
G1 X119.203 Y118.451 E6.75192
G1 X118.546 Y119.123 E6.78318
G1 X117.795 Y119.764 E6.81602
G1 X117.567 Y119.941 E6.82562
G1 X116.796 Y120.484 E6.85699
G1 X115.817 Y121.04 E6.89443
G1 X115.3 Y121.297 E6.91364
G1 X114.442 Y121.677 E6.94485
G1 X113.558 Y121.979 E6.97592
G1 X112.895 Y122.149 E6.99868
G1 X112.613 Y122.212 E7.00829
G1 X111.634 Y122.382 E7.04134
G1 X111.272 Y122.427 E7.05348
G1 X110.337 Y122.5 E7.08467
G1 X109.394 Y122.491 E7.11603
G1 X108.256 Y122.367 E7.15411
G1 X107.836 Y122.298 E7.16826
G1 X106.906 Y122.101 E7.19988
G1 X106.136 Y121.875 E7.22657
G1 X105.287 Y121.568 E7.2566
G1 X104.639 Y121.279 E7.2802
G1 X103.815 Y120.85 E7.3111
G1 X103.558 Y120.701 E7.32098
G1 X102.768 Y120.195 E7.35218
G1 X102.03 Y119.624 E7.38322
G1 X101.614 Y119.251 E7.4018
G1 X101.257 Y118.915 E7.41811
G1 X100.627 Y118.267 E7.44817
G1 X99.87 Y117.314 E7.48865
G1 X99.709 Y117.085 E7.49796
G1 X99.094 Y116.108 E7.53635
G1 X98.619 Y115.169 E7.57135
G1 X98.263 Y114.272 E7.60345
G1 X98.16 Y113.972 E7.614
G1 X97.916 Y113.165 E7.64204
G1 X97.706 Y112.251 E7.67323
G1 X97.577 Y111.325 E7.70433
G1 X97.522 Y110.394 E7.73535
G1 X97.521 Y109.459 E7.76645
G1 X97.576 Y108.753 E7.79
G1 X97.616 Y108.404 E7.80168
G1 X97.764 Y107.473 E7.83304
G1 X98.063 Y106.334 E7.8722
G1 X98.171 Y106.002 E7.88382
G1 X98.501 Y105.123 E7.91504
G1 X98.905 Y104.279 E7.94617
G1 X99.087 Y103.94 E7.95896
G1 X99.566 Y103.138 E7.99003
G1 X99.976 Y102.557 E8.01369
G1 X100.15 Y102.328 E8.02325
G1 X100.749 Y101.609 E8.05438
G1 X101.307 Y101.04 E8.08088
M204 S2000
G0 F7500 X101.582 Y101.331
M204 S500
G1 F1500 X101.889 Y101.041 E8.09493
G1 X102.572 Y100.451 E8.12495
G1 X103.305 Y99.923 E8.15499
G1 X103.931 Y99.544 E8.17933
G1 X104.283 Y99.348 E8.19273
G1 X105.091 Y98.944 E8.22278
G1 X105.866 Y98.636 E8.25052
G1 X106.128 Y98.544 E8.25975
G1 X106.992 Y98.283 E8.28977
G1 X107.846 Y98.1 E8.31882
G1 X108.862 Y97.961 E8.35293
G1 X110.097 Y97.914 E8.39404
G1 X110.386 Y97.919 E8.40365
G1 X111.288 Y97.974 E8.43371
G1 X112.248 Y98.123 E8.46602
G1 X112.601 Y98.195 E8.478
G1 X113.478 Y98.414 E8.50806
G1 X114.331 Y98.71 E8.53809
G1 X114.905 Y98.959 E8.55891
G1 X115.396 Y99.19 E8.57695
G1 X116.196 Y99.611 E8.60702
G1 X116.955 Y100.1 E8.63705
G1 X117.594 Y100.587 E8.66377
G1 X118.279 Y101.175 E8.6938
G1 X118.98 Y101.904 E8.72744
G1 X119.15 Y102.099 E8.73604
G1 X119.885 Y103.049 E8.77599
G1 X120.066 Y103.314 E8.78666
G1 X120.648 Y104.265 E8.82375
G1 X121.098 Y105.181 E8.85769
G1 X121.422 Y106.024 E8.88773
G1 X121.597 Y106.605 E8.90791
G1 X121.71 Y107.024 E8.92235
G1 X121.906 Y107.906 E8.9524
G1 X122.025 Y108.81 E8.98272
G1 X122.053 Y109.137 E8.99364
G1 X122.09 Y110.039 E9.02366
G1 X122.054 Y110.86 E9.051
G1 X122.021 Y111.253 E9.06411
G1 X121.906 Y112.149 E9.09416
G1 X121.623 Y113.343 E9.13497
G1 X121.532 Y113.645 E9.14546
G1 X121.234 Y114.497 E9.17548
G1 X120.855 Y115.331 E9.20595
G1 X120.663 Y115.708 E9.22003
G1 X120.218 Y116.494 E9.25007
G1 X119.705 Y117.237 E9.2801
G1 X119.192 Y117.862 E9.30699
G1 X118.916 Y118.172 E9.3208
G1 X118.286 Y118.819 E9.35083
G1 X117.55 Y119.448 E9.38303
G1 X117.336 Y119.614 E9.39204
G1 X116.598 Y120.136 E9.42211
G1 X115.638 Y120.682 E9.45884
G1 X115.137 Y120.932 E9.47746
G1 X114.312 Y121.299 E9.50749
G1 X113.458 Y121.592 E9.53752
G1 X112.808 Y121.759 E9.55984
G1 X112.544 Y121.818 E9.56884
G1 X111.584 Y121.985 E9.60125
G1 X111.24 Y122.028 E9.61278
G1 X110.34 Y122.1 E9.64281
G1 X109.437 Y122.093 E9.67285
G1 X108.321 Y121.972 E9.71018
G1 X107.901 Y121.903 E9.72434
G1 X107.018 Y121.717 E9.75435
G1 X106.272 Y121.499 E9.7802
G1 X105.423 Y121.192 E9.81023
G1 X104.823 Y120.924 E9.83208
G1 X104.015 Y120.504 E9.86237
G1 X103.773 Y120.364 E9.87167
G1 X103.012 Y119.878 E9.9017
G1 X102.297 Y119.326 E9.93175
G1 X101.888 Y118.96 E9.95
G1 X101.544 Y118.636 E9.96572
G1 X100.914 Y117.988 E9.99578
G1 X100.197 Y117.084 E10.03416
G1 X100.047 Y116.871 E10.04282
G1 X99.451 Y115.927 E10.07995
G1 X98.991 Y115.021 E10.11375
G1 X98.635 Y114.124 E10.14585
G1 X98.543 Y113.856 E10.15527
G1 X98.306 Y113.075 E10.18242
G1 X98.102 Y112.195 E10.21246
G1 X97.976 Y111.301 E10.24249
G1 X97.922 Y110.393 E10.27274
G1 X97.92 Y109.49 E10.30278
G1 X97.974 Y108.797 E10.3259
G1 X98.011 Y108.466 E10.33697
G1 X98.151 Y107.574 E10.367
G1 X98.444 Y106.457 E10.40541
G1 X98.546 Y106.142 E10.41643
G1 X98.862 Y105.296 E10.44646
G1 X99.258 Y104.468 E10.47699
G1 X99.431 Y104.145 E10.48918
G1 X99.893 Y103.369 E10.51921
G1 X100.295 Y102.799 E10.54241
G1 X100.458 Y102.584 E10.55139
G1 X101.035 Y101.889 E10.58143
G1 X101.582 Y101.331 E10.60742
M204 S2000
G1 F2400 E9.80742
;MESH:cylinder (3.8) v1.stl
G0 F7500 X108.16 Y108.218
G0 X109.971 Y111.304
M204 S500
;TYPE:WALL-INNER
G1 F2400 E10.60742
G1 F1500 X110.245 Y111.274 E10.61659
G1 X110.752 Y111.08 E10.63464
G1 X111.041 Y110.785 E10.64838
G1 X111.18 Y110.543 E10.65766
G1 X111.274 Y110.279 E10.66698
G1 X111.298 Y110.004 E10.67616
G1 X111.222 Y109.561 E10.69111
G1 X110.998 Y109.171 E10.70607
G1 X110.659 Y108.882 E10.72089
G1 X110.417 Y108.764 E10.72984
G1 X110.024 Y108.688 E10.74316
G1 X109.642 Y108.747 E10.75601
G1 X109.388 Y108.856 E10.7652
G1 X109.037 Y109.131 E10.78003
G1 X108.798 Y109.512 E10.79499
G1 X108.704 Y109.948 E10.80983
G1 X108.717 Y110.221 E10.81892
G1 X108.816 Y110.543 E10.83012
G1 X108.995 Y110.83 E10.84137
G1 X109.241 Y111.06 E10.85257
G1 X109.587 Y111.246 E10.86564
G1 X109.971 Y111.304 E10.87856
M204 S2000
G0 F7500 X109.963 Y111.708
M204 S500
;TYPE:WALL-OUTER
G1 F1500 X110.323 Y111.668 E10.8906
G1 X110.604 Y111.587 E10.90033
G1 X110.87 Y111.458 E10.91016
G1 X111.113 Y111.283 E10.92012
G1 X111.363 Y111.028 E10.932
G1 X111.544 Y110.711 E10.94414
G1 X111.668 Y110.365 E10.95637
G1 X111.7 Y110.003 E10.96845
G1 X111.674 Y109.718 E10.97797
G1 X111.6 Y109.427 E10.98796
G1 X111.478 Y109.163 E10.99763
G1 X111.308 Y108.916 E11.0076
G1 X111.112 Y108.716 E11.01692
G1 X110.865 Y108.538 E11.02704
G1 X110.545 Y108.381 E11.0389
G1 X110.184 Y108.312 E11.05112
G1 X109.891 Y108.304 E11.06087
G1 X109.531 Y108.359 E11.07299
G1 X109.198 Y108.502 E11.08504
G1 X108.945 Y108.669 E11.09512
G1 X108.739 Y108.863 E11.10453
G1 X108.562 Y109.095 E11.11424
G1 X108.426 Y109.36 E11.12415
G1 X108.341 Y109.636 E11.13375
G1 X108.303 Y109.932 E11.14368
G1 X108.319 Y110.29 E11.1556
G1 X108.448 Y110.71 E11.17021
G1 X108.683 Y111.086 E11.18496
G1 X109.005 Y111.387 E11.19962
G1 X109.323 Y111.558 E11.21163
G1 X109.598 Y111.652 E11.22129
G1 X109.963 Y111.708 E11.23357
M204 S2000
G0 F7500 X109.979 Y110.941
M204 S500
;TYPE:SKIN
G1 F1500 X109.791 Y110.911 E11.23991
G1 X109.448 Y110.759 E11.25238
G1 X109.277 Y110.6 E11.26015
G1 X109.147 Y110.393 E11.26828
G1 X109.076 Y110.164 E11.27626
G1 X109.088 Y109.797 E11.28847
G1 X109.211 Y109.502 E11.2991
G1 X109.42 Y109.271 E11.30946
G1 X109.75 Y109.095 E11.3219
G1 X109.929 Y109.068 E11.32792
G1 X110.306 Y109.112 E11.34054
G1 X110.467 Y109.191 E11.34651
G1 X110.717 Y109.403 E11.35741
G1 X110.877 Y109.681 E11.36808
G1 X110.937 Y110.018 E11.37946
G1 X110.921 Y110.191 E11.38524
G1 X110.748 Y110.566 E11.39898
G1 X110.476 Y110.803 E11.41098
G1 X110.171 Y110.919 E11.42183
G1 X109.979 Y110.941 E11.42826
M204 S2000
G0 F7500 X110.315 Y111.142
G0 X109.731 Y111.105
G0 X109.337 Y110.929
G0 X109.121 Y110.727
G0 X108.923 Y110.293
G0 X108.827 Y109.849
G0 X109.286 Y109.851
M204 S500
G1 F1500 X110.147 Y110.713 E11.46878
M204 S2000
G0 F7500 X110.508 Y110.508
M204 S500
G1 F1500 X109.49 Y109.49 E11.51666
M204 S2000
G0 F7500 X109.839 Y109.274
M204 S500
G1 F1500 X110.718 Y110.153 E11.55801
M104 S200
M204 S2000
G1 F2400 E10.75801
;MESH:NONMESH
G0 F300 X110.718 Y110.153 Z0.4
G0 F7500 X111.13 Y110.358
G0 X111.069 Y109.615
G0 X110.873 Y109.273
G0 X110.364 Y108.917
