;FLAVOR:Marlin
;TIME:6105
;Filament used: 4.77265m
;Layer height: 0.2
;MINX:76.5
;MINY:63.5
;MINZ:0.2
;MAXX:143.5
;MAXY:156.5
;MAXZ:11
;TARGET_MACHINE.NAME:Creality Ender-3 S1
;Generated with Cura_SteamEngine 5.6.0
M82 ;absolute extrusion mode
; Ender 3 S1 Start G-code
; M413 S0 ; Disable power loss recovery
G92 E0 ; Reset Extruder

; Prep surfaces before auto home for better accuracy
M140 S60
M104 S200

G28 ; Home all axes
G1 Z10.0 F3000 ; Move Z Axis up little to prevent scratching of Heat Bed
G1 X0 Y0

M190 S60
M109 S200

G1 X0.1 Y20 Z0.3 F5000.0 ; Move to start position
G1 X0.1 Y200.0 Z0.3 F1500.0 E15 ; Draw the first line
G1 X0.4 Y200.0 Z0.3 F5000.0 ; Move to side a little
G1 X0.4 Y20 Z0.3 F1500.0 E30 ; Draw the second line
G92 E0 ; Reset Extruder
G1 Z2.0 F3000 ; Move Z Axis up little to prevent scratching of Heat Bed
G1 X5 Y20 Z0.3 F5000.0 ; Move over to prevent blob squish

G92 E0
G92 E0
G1 F2400 E-0.8
;LAYER_COUNT:55
;LAYER:0
M107
M204 S2000
G0 F7500 X79.231 Y67.265 Z0.2
M204 S500
;TYPE:SKIRT
G1 F2400 E0
G1 F1500 X79.956 Y66.513 E0.03474
G1 X80.692 Y65.876 E0.06712
G1 X81.424 Y65.346 E0.09718
G1 X82.321 Y64.811 E0.13191
G1 X83.199 Y64.39 E0.1643
G1 X84.112 Y64.048 E0.19673
G1 X85.049 Y63.789 E0.22906
G1 X86.016 Y63.611 E0.26176
G1 X87.155 Y63.515 E0.29978
G1 X87.812 Y63.5 E0.32164
G1 X131.804 Y63.5 E1.78482
G1 X132.684 Y63.513 E1.81409
G1 X133.656 Y63.572 E1.84648
G1 X134.619 Y63.718 E1.87887
G1 X135.566 Y63.949 E1.91129
G1 X136.454 Y64.249 E1.94247
G1 X137.346 Y64.639 E1.97485
G1 X138.229 Y65.126 E2.00839
G1 X138.98 Y65.628 E2.03843
G1 X139.795 Y66.286 E2.07327
G1 X140.493 Y66.964 E2.10564
G1 X141.129 Y67.701 E2.13802
G1 X141.699 Y68.491 E2.17042
G1 X142.161 Y69.267 E2.20045
G1 X142.615 Y70.209 E2.23523
G1 X142.944 Y71.087 E2.26642
G1 X143.213 Y72.059 E2.29996
G1 X143.39 Y73.025 E2.33263
G1 X143.485 Y74.155 E2.37034
G1 X143.5 Y74.83 E2.3928
G1 X143.499 Y144.9 E4.72334
G1 X143.488 Y145.663 E4.74872
G1 X143.431 Y146.636 E4.78114
G1 X143.286 Y147.599 E4.81353
G1 X143.057 Y148.545 E4.8459
G1 X142.746 Y149.469 E4.87833
G1 X142.354 Y150.36 E4.9107
G1 X141.886 Y151.212 E4.94303
G1 X141.364 Y151.993 E4.97428
G1 X140.731 Y152.778 E5.00782
G1 X140.106 Y153.429 E5.03783
G1 X139.317 Y154.117 E5.07265
G1 X138.557 Y154.667 E5.10385
G1 X137.69 Y155.184 E5.13743
G1 X136.812 Y155.606 E5.16983
G1 X135.901 Y155.948 E5.20219
G1 X134.962 Y156.209 E5.23461
G1 X133.996 Y156.387 E5.26728
G1 X132.845 Y156.485 E5.3057
G1 X132.17 Y156.5 E5.32816
G1 X88.064 Y156.499 E6.79513
G1 X87.331 Y156.488 E6.81951
G1 X86.359 Y156.431 E6.85189
G1 X85.396 Y156.285 E6.88429
G1 X84.45 Y156.056 E6.91666
G1 X83.526 Y155.744 E6.9491
G1 X82.636 Y155.352 E6.98144
G1 X81.813 Y154.901 E7.01266
G1 X80.974 Y154.34 E7.04623
G1 X80.27 Y153.774 E7.07627
G1 X79.517 Y153.049 E7.11104
G1 X78.88 Y152.313 E7.14341
G1 X78.35 Y151.582 E7.17344
G1 X77.814 Y150.685 E7.2082
G1 X77.392 Y149.807 E7.2406
G1 X77.05 Y148.895 E7.27299
G1 X76.79 Y147.957 E7.30537
G1 X76.612 Y146.988 E7.33814
G1 X76.514 Y145.809 E7.37749
G1 X76.5 Y145.158 E7.39914
G1 X76.501 Y75.025 E9.73178
G1 X76.512 Y74.325 E9.75506
G1 X76.57 Y73.352 E9.78748
G1 X76.716 Y72.389 E9.81988
G1 X76.946 Y71.443 E9.85226
G1 X77.259 Y70.52 E9.88467
G1 X77.651 Y69.63 E9.91702
G1 X78.121 Y68.777 E9.94941
G1 X78.664 Y67.969 E9.98179
G1 X79.231 Y67.265 E10.01186
M204 S2000
G0 F7500 X79.543 Y67.516
M204 S500
G1 F1500 X80.218 Y66.815 E10.04422
G1 X80.927 Y66.2 E10.07544
G1 X81.659 Y65.67 E10.1055
G1 X82.495 Y65.171 E10.13788
G1 X83.34 Y64.764 E10.16908
G1 X84.219 Y64.433 E10.20032
G1 X85.122 Y64.182 E10.23149
G1 X86.05 Y64.01 E10.26288
G1 X87.189 Y63.914 E10.3009
G1 X87.821 Y63.9 E10.32192
G1 X131.798 Y63.9 E11.7846
G1 X132.66 Y63.912 E11.81328
G1 X133.597 Y63.968 E11.8445
G1 X134.525 Y64.107 E11.87571
G1 X135.438 Y64.328 E11.90695
G1 X136.294 Y64.616 E11.93699
G1 X137.186 Y65.006 E11.96937
G1 X138.007 Y65.459 E12.00056
G1 X138.758 Y65.961 E12.0306
G1 X139.517 Y66.573 E12.06303
G1 X140.191 Y67.226 E12.09424
G1 X140.805 Y67.935 E12.12544
G1 X141.355 Y68.696 E12.15667
G1 X141.817 Y69.472 E12.1867
G1 X142.24 Y70.349 E12.21909
G1 X142.569 Y71.227 E12.25027
G1 X142.82 Y72.132 E12.28151
G1 X142.991 Y73.059 E12.31286
G1 X143.086 Y74.189 E12.35058
G1 X143.1 Y74.83 E12.3719
G1 X143.099 Y144.895 E14.70228
G1 X143.089 Y145.64 E14.72706
G1 X143.035 Y146.577 E14.75827
G1 X142.897 Y147.506 E14.78951
G1 X142.678 Y148.418 E14.82071
G1 X142.38 Y149.308 E14.85192
G1 X142.003 Y150.168 E14.88316
G1 X141.553 Y150.99 E14.91432
G1 X141.031 Y151.771 E14.94557
G1 X140.442 Y152.501 E14.97677
G1 X139.817 Y153.152 E15.00678
G1 X139.082 Y153.793 E15.03922
G1 X138.322 Y154.343 E15.07042
G1 X137.516 Y154.824 E15.10164
G1 X136.671 Y155.232 E15.13285
G1 X135.793 Y155.563 E15.16406
G1 X134.889 Y155.816 E15.19528
G1 X133.962 Y155.988 E15.22664
G1 X132.811 Y156.086 E15.26506
G1 X132.17 Y156.1 E15.28638
G1 X88.07 Y156.099 E16.75316
G1 X87.354 Y156.089 E16.77697
G1 X86.418 Y156.035 E16.80816
G1 X85.489 Y155.896 E16.8394
G1 X84.577 Y155.677 E16.87059
G1 X83.687 Y155.378 E16.90182
G1 X82.828 Y155.001 E16.93302
G1 X82.005 Y154.55 E16.96424
G1 X81.225 Y154.028 E16.99545
G1 X80.521 Y153.462 E17.0255
G1 X79.819 Y152.787 E17.05789
G1 X79.204 Y152.078 E17.0891
G1 X78.674 Y151.347 E17.11914
G1 X78.174 Y150.511 E17.15153
G1 X77.766 Y149.666 E17.18274
G1 X77.435 Y148.788 E17.21395
G1 X77.183 Y147.884 E17.24517
G1 X77.011 Y146.955 E17.27659
G1 X76.913 Y145.776 E17.31594
G1 X76.9 Y145.158 E17.3365
G1 X76.901 Y75.031 E19.66893
G1 X76.911 Y74.348 E19.69165
G1 X76.966 Y73.411 E19.72287
G1 X77.105 Y72.483 E19.75408
G1 X77.325 Y71.571 E19.78528
G1 X77.625 Y70.681 E19.81652
G1 X78.002 Y69.822 E19.84772
G1 X78.453 Y69 E19.87891
G1 X78.976 Y68.22 E19.91014
G1 X79.543 Y67.516 E19.94021
M204 S2000
G0 F7500 X79.855 Y67.767
M204 S500
G1 F1500 X80.481 Y67.117 E19.97022
G1 X81.162 Y66.524 E20.00025
G1 X81.894 Y65.994 E20.03031
G1 X82.669 Y65.531 E20.06034
G1 X83.482 Y65.138 E20.09037
G1 X84.327 Y64.818 E20.12043
G1 X85.196 Y64.575 E20.15044
G1 X86.084 Y64.409 E20.18048
G1 X87.223 Y64.313 E20.2185
G1 X87.83 Y64.3 E20.2387
G1 X131.793 Y64.3 E21.70091
G1 X132.637 Y64.311 E21.72898
G1 X133.539 Y64.364 E21.75904
G1 X134.432 Y64.496 E21.78906
G1 X135.31 Y64.707 E21.81909
G1 X136.166 Y64.995 E21.84913
G1 X136.993 Y65.357 E21.87916
G1 X137.785 Y65.792 E21.90921
G1 X138.536 Y66.294 E21.93926
G1 X139.239 Y66.861 E21.9693
G1 X139.889 Y67.488 E21.99934
G1 X140.481 Y68.17 E22.02937
G1 X141.011 Y68.901 E22.0594
G1 X141.473 Y69.677 E22.08944
G1 X141.866 Y70.49 E22.11948
G1 X142.184 Y71.335 E22.1495
G1 X142.427 Y72.205 E22.17955
G1 X142.592 Y73.093 E22.20959
G1 X142.687 Y74.223 E22.24731
G1 X142.7 Y74.83 E22.2675
G1 X142.699 Y144.89 E24.5977
G1 X142.69 Y145.617 E24.62189
G1 X142.639 Y146.519 E24.65193
G1 X142.508 Y147.413 E24.68199
G1 X142.299 Y148.291 E24.71201
G1 X142.013 Y149.148 E24.74205
G1 X141.652 Y149.976 E24.7721
G1 X141.22 Y150.768 E24.8021
G1 X140.719 Y151.52 E24.83216
G1 X140.153 Y152.224 E24.8622
G1 X139.528 Y152.875 E24.89222
G1 X138.847 Y153.469 E24.92227
G1 X138.116 Y154 E24.95232
G1 X137.342 Y154.464 E24.98234
G1 X136.529 Y154.858 E25.01239
G1 X135.685 Y155.178 E25.04241
G1 X134.815 Y155.423 E25.07247
G1 X133.928 Y155.589 E25.10248
G1 X132.777 Y155.687 E25.14091
G1 X132.17 Y155.7 E25.1611
G1 X88.075 Y155.699 E26.6277
G1 X87.377 Y155.69 E26.65092
G1 X86.476 Y155.639 E26.68094
G1 X85.582 Y155.507 E26.71099
G1 X84.704 Y155.298 E26.74101
G1 X83.847 Y155.011 E26.77107
G1 X83.02 Y154.65 E26.80109
G1 X82.227 Y154.217 E26.83114
G1 X81.476 Y153.716 E26.86116
G1 X80.772 Y153.15 E26.89121
G1 X80.121 Y152.524 E26.92125
G1 X79.528 Y151.843 E26.95128
G1 X78.998 Y151.112 E26.98131
G1 X78.534 Y150.337 E27.01135
G1 X78.14 Y149.524 E27.0414
G1 X77.82 Y148.68 E27.07142
G1 X77.576 Y147.81 E27.10148
G1 X77.41 Y146.922 E27.13152
G1 X77.313 Y145.767 E27.17007
G1 X77.3 Y145.158 E27.19033
G1 X77.301 Y75.036 E29.5226
G1 X77.31 Y74.371 E29.54472
G1 X77.362 Y73.469 E29.57477
G1 X77.494 Y72.576 E29.6048
G1 X77.704 Y71.698 E29.63482
G1 X77.991 Y70.841 E29.66488
G1 X78.353 Y70.014 E29.69491
G1 X78.786 Y69.222 E29.72493
G1 X79.288 Y68.471 E29.75497
G1 X79.855 Y67.767 E29.78504
M204 S2000
G1 F2400 E28.98504
;MESH:New_Calf_second v2.stl
G0 F7500 X101.719 Y77.501
G0 X102.201 Y83.021
M204 S500
;TYPE:WALL-INNER
G1 F2400 E29.78504
G1 F1500 X101.977 Y82.796 E29.7956
G1 X101.9 Y82.582 E29.80316
G1 X101.9 Y77.376 E29.97632
G1 X102.02 Y77.14 E29.98512
G1 X102.217 Y76.97 E29.99378
G1 X102.419 Y76.9 E30.00089
G1 X117.5 Y76.9 E30.50248
G1 X117.783 Y76.97 E30.51218
G1 X117.98 Y77.14 E30.52083
G1 X118.1 Y77.376 E30.52964
G1 X118.097 Y82.569 E30.70236
G1 X118.049 Y82.744 E30.7084
G1 X117.882 Y82.964 E30.71758
G1 X117.679 Y83.073 E30.72525
G1 X117.533 Y83.1 E30.73018
G1 X102.467 Y83.1 E31.23128
G1 X102.201 Y83.021 E31.24051
M204 S2000
G1 F2400 E30.44051
G0 F7500 X117.928 Y82.928
G0 X118.3 Y81.107
G0 X126.77 Y80.681
G0 X128.498 Y81.105
M204 S500
G1 F2400 E31.24051
G1 F1500 X127.919 Y81.035 E31.25991
G1 X127.368 Y80.847 E31.27927
G1 X126.882 Y80.538 E31.29843
G1 X126.468 Y80.126 E31.31785
G1 X126.151 Y79.63 E31.33743
G1 X125.958 Y79.047 E31.35786
G1 X125.895 Y78.501 E31.37614
G1 X125.961 Y77.922 E31.39552
G1 X126.152 Y77.369 E31.41498
G1 X126.461 Y76.876 E31.43433
G1 X126.875 Y76.462 E31.4538
G1 X127.368 Y76.151 E31.47319
G1 X127.953 Y75.958 E31.49368
G1 X128.499 Y75.895 E31.51196
G1 X129.073 Y75.96 E31.53117
G1 X129.635 Y76.153 E31.55094
G1 X130.125 Y76.462 E31.57021
G1 X130.536 Y76.873 E31.58954
G1 X130.845 Y77.365 E31.60886
G1 X131.04 Y77.926 E31.62861
G1 X131.105 Y78.495 E31.64766
G1 X131.042 Y79.047 E31.66614
G1 X130.847 Y79.632 E31.68665
G1 X130.536 Y80.127 E31.7061
G1 X130.127 Y80.536 E31.72533
G1 X129.635 Y80.845 E31.74466
G1 X129.074 Y81.04 E31.76441
G1 X128.498 Y81.105 E31.78369
M204 S2000
G1 F2400 E30.98369
G0 F7500 X131.7 Y81.286
G0 X131.9 Y144.9
M204 S500
G1 F2400 E31.78369
G1 F1500 X131.9 Y75.1 E34.10525
G1 X88.1 Y75.1 E35.56204
G1 X88.1 Y144.9 E37.8836
G1 X131.9 Y144.9 E39.34039
M204 S2000
G1 F2400 E38.54039
G0 F7500 X92.382 Y144.7
G0 X92.212 Y144.203
G0 X92.047 Y144.042
M204 S500
G1 F2400 E39.34039
G1 F1500 X91.501 Y144.105 E39.35867
G1 X90.927 Y144.04 E39.37789
G1 X90.365 Y143.847 E39.39765
G1 X89.875 Y143.538 E39.41692
G1 X89.462 Y143.125 E39.43634
G1 X89.151 Y142.632 E39.45573
G1 X88.958 Y142.047 E39.47622
G1 X88.895 Y141.501 E39.4945
G1 X88.96 Y140.927 E39.51371
G1 X89.153 Y140.365 E39.53348
G1 X89.462 Y139.875 E39.55275
G1 X89.876 Y139.461 E39.57222
G1 X90.369 Y139.152 E39.59157
G1 X90.922 Y138.961 E39.61103
G1 X91.502 Y138.895 E39.63044
G1 X92.081 Y138.965 E39.64984
G1 X92.639 Y139.16 E39.6695
G1 X93.129 Y139.47 E39.68879
G1 X93.53 Y139.871 E39.70765
G1 X93.84 Y140.361 E39.72693
G1 X94.035 Y140.919 E39.74659
G1 X94.105 Y141.493 E39.76583
G1 X94.039 Y142.078 E39.78541
G1 X93.848 Y142.631 E39.80487
G1 X93.539 Y143.124 E39.82422
G1 X93.125 Y143.538 E39.84369
G1 X92.632 Y143.849 E39.86308
G1 X92.047 Y144.042 E39.88357
M204 S2000
G0 F7500 X91.978 Y143.648
M204 S500
;TYPE:WALL-OUTER
G1 F1500 X91.5 Y143.7 E39.89956
G1 X90.991 Y143.639 E39.91661
G1 X90.561 Y143.491 E39.93174
G1 X90.145 Y143.235 E39.94798
G1 X89.765 Y142.855 E39.96586
G1 X89.509 Y142.439 E39.9821
G1 X89.352 Y141.978 E39.9983
G1 X89.3 Y141.5 E40.01429
G1 X89.361 Y140.991 E40.03134
G1 X89.509 Y140.561 E40.04647
G1 X89.765 Y140.145 E40.06271
G1 X90.145 Y139.765 E40.08059
G1 X90.561 Y139.509 E40.09683
G1 X90.991 Y139.36 E40.11197
G1 X91.477 Y139.301 E40.12825
G1 X91.989 Y139.355 E40.14538
G1 X92.462 Y139.519 E40.16203
G1 X92.866 Y139.773 E40.1779
G1 X93.22 Y140.125 E40.1945
G1 X93.481 Y140.538 E40.21075
G1 X93.645 Y141.011 E40.2274
G1 X93.699 Y141.519 E40.2444
G1 X93.64 Y142.009 E40.26081
G1 X93.471 Y142.48 E40.27745
G1 X93.207 Y142.89 E40.29367
G1 X92.855 Y143.235 E40.31007
G1 X92.439 Y143.491 E40.32631
G1 X91.978 Y143.648 E40.34251
M204 S2000
G1 F2400 E39.54251
G0 F7500 X92.382 Y144.04
G0 X93.242 Y143.678
G0 X93.242 Y144.7
G0 X132.3 Y145.3
M204 S500
G1 F2400 E40.34251
G1 F1500 X132.3 Y74.7 E42.69068
G1 X87.7 Y74.7 E44.17408
G1 X87.7 Y145.3 E46.52224
G1 X132.3 Y145.3 E48.00565
M204 S2000
G1 F2400 E47.20565
G0 F7500 X132.03 Y145.03
G0 X131.7 Y82.405
G0 X118.282 Y82.498
G0 X117.628 Y82.655
M204 S500
G1 F2400 E48.00565
G1 F1500 X117.535 Y82.698 E48.00905
G1 X102.465 Y82.698 E48.51028
G1 X102.302 Y82.583 E48.51692
G1 X102.3 Y77.456 E48.68744
G1 X102.34 Y77.38 E48.6903
G1 X102.465 Y77.302 E48.6952
G1 X117.577 Y77.3 E49.19783
G1 X117.7 Y77.456 E49.20444
G1 X117.701 Y82.54 E49.37353
G1 X117.628 Y82.655 E49.37806
M204 S2000
G1 F2400 E48.57806
G0 F7500 X118.2 Y82.405
G0 X118.3 Y81.2
G0 X126.77 Y80.681
G0 X128.011 Y80.645
M204 S500
G1 F2400 E49.37806
G1 F1500 X127.52 Y80.471 E49.39539
G1 X127.128 Y80.223 E49.41081
G1 X126.779 Y79.874 E49.42723
G1 X126.509 Y79.439 E49.44426
G1 X126.352 Y78.978 E49.46046
G1 X126.301 Y78.477 E49.47721
G1 X126.36 Y77.991 E49.49349
G1 X126.529 Y77.52 E49.51013
G1 X126.793 Y77.11 E49.52635
G1 X127.145 Y76.765 E49.54274
G1 X127.561 Y76.509 E49.55899
G1 X128.022 Y76.352 E49.57519
G1 X128.5 Y76.3 E49.59118
G1 X129.009 Y76.361 E49.60823
G1 X129.439 Y76.509 E49.62336
G1 X129.855 Y76.765 E49.6396
G1 X130.235 Y77.145 E49.65748
G1 X130.471 Y77.52 E49.67221
G1 X130.649 Y78.034 E49.69031
G1 X130.7 Y78.496 E49.70576
G1 X130.648 Y78.978 E49.72189
G1 X130.471 Y79.48 E49.73959
G1 X130.207 Y79.89 E49.75581
G1 X129.855 Y80.235 E49.77221
G1 X129.48 Y80.471 E49.78694
G1 X128.966 Y80.649 E49.80503
G1 X128.477 Y80.699 E49.82138
G1 X128.011 Y80.645 E49.83699
M204 S2000
G1 F2400 E49.03699
G0 F7500 X128.427 Y81.198
G0 X126.77 Y80.681
G0 X118.3 Y80.682
G0 X118.031 Y83.299
M204 S500
;TYPE:SKIN
G1 F2400 E49.83699
G1 F1500 X118.276 Y83.066 E49.84823
G1 X118.386 Y82.869 E49.85574
G1 X118.46 Y82.52 E49.8676
G1 X118.459 Y77.478 E50.0353
G1 X118.425 Y77.229 E50.04366
G1 X118.269 Y76.918 E50.05523
G1 X117.952 Y76.645 E50.06915
G1 X117.544 Y76.545 E50.08312
G1 X102.364 Y76.542 E50.58801
G1 X102.043 Y76.649 E50.59926
G1 X101.731 Y76.918 E50.61296
G1 X101.591 Y77.197 E50.62334
G1 X101.541 Y77.478 E50.63284
G1 X101.541 Y82.621 E50.80389
G1 X101.71 Y83.05 E50.81923
G1 X101.94 Y83.28 E50.83005
G1 X102.231 Y83.424 E50.84085
G1 X102.445 Y83.459 E50.84806
G1 X117.61 Y83.455 E51.35245
G1 X118.031 Y83.299 E51.36738
M204 S2000
G1 F2400 E50.56738
G0 F7500 X117.902 Y83.075
G0 X102.457 Y83.28
G0 X89.765 Y139.317
G0 X88.532 Y140.865
M204 S500
G1 F2400 E51.36738
G1 F1178.8 X88.497 Y141.499 E51.39426
G1 F1174.2 X88.534 Y142.148 E51.42188
M204 S2000
G0 F7500 X88.96 Y142.382
G0 X89.527 Y143.47
G0 X90.902 Y144.139
G0 X90.864 Y144.468
M204 S500
G1 F1273.9 X90.169 Y144.54 E51.44924
G1 F1500 X88.46 Y144.54 E51.50608
G1 X88.46 Y142.829 E51.56299
G1 F1268.5 X88.534 Y142.148 E51.58993
G1 X88.838 Y142.811 E51.61862
G1 F1500 X89.169 Y143.338 E51.63932
G1 X89.627 Y143.803 E51.66103
G1 X90.188 Y144.161 E51.68316
G1 F1273.9 X90.864 Y144.468 E51.71224
G1 F1178.8 X91.499 Y144.503 E51.73915
G1 F1174.2 X92.148 Y144.466 E51.76677
G1 F1268.5 X92.813 Y144.162 E51.79553
G1 F1500 X93.337 Y143.832 E51.81613
G1 X93.81 Y143.362 E51.83831
G1 X94.161 Y142.815 E51.85992
G1 X94.387 Y142.173 E51.88256
G1 X94.464 Y141.473 E51.90598
G1 X94.388 Y140.853 E51.92676
G1 X94.172 Y140.226 E51.94882
G1 X93.818 Y139.648 E51.97136
G1 X93.348 Y139.179 E51.99344
G1 X92.801 Y138.832 E52.01499
G1 X92.179 Y138.619 E52.03685
G1 X91.531 Y138.535 E52.05859
G1 X90.816 Y138.616 E52.08252
G1 X90.227 Y138.819 E52.10324
G1 X89.672 Y139.163 E52.12496
G1 X89.196 Y139.628 E52.14709
G1 X88.839 Y140.185 E52.1691
G1 F1273.9 X88.532 Y140.865 E52.19832
G1 X88.461 Y140.167 E52.22579
G1 F1500 X88.46 Y75.46 E54.37796
G1 X127.169 Y75.46 E55.66542
G1 F1268.5 X127.852 Y75.534 E55.69244
G1 X127.187 Y75.838 E55.7212
G1 F1500 X126.664 Y76.167 E55.74175
G1 X126.19 Y76.638 E55.76398
G1 X125.819 Y77.227 E55.78713
G1 X125.616 Y77.815 E55.80782
G1 X125.536 Y78.477 E55.83
G1 X125.608 Y79.152 E55.85258
G1 X125.817 Y79.77 E55.87427
G1 X126.2 Y80.366 E55.89784
G1 X126.659 Y80.822 E55.91936
G1 X127.214 Y81.169 E55.94113
