;FLAVOR:Marlin
;TIME:12057
;Filament used: 8.72275m
;Layer height: 0.2
;MINX:63.5
;MINY:66.5
;MINZ:0.2
;MAXX:156.5
;MAXY:153.5
;MAXZ:24
;TARGET_MACHINE.NAME:Creality Ender-3 S1
;Generated with Cura_SteamEngine 5.6.0
M82 ;absolute extrusion mode
; Ender 3 S1 Start G-code
; M413 S0 ; Disable power loss recovery
G92 E0 ; Reset Extruder

; Prep surfaces before auto home for better accuracy
M140 S60
M104 S200

G28 ; Home all axes
G1 Z10.0 F3000 ; Move Z Axis up little to prevent scratching of Heat Bed
G1 X0 Y0

M190 S60
M109 S200

G1 X0.1 Y20 Z0.3 F5000.0 ; Move to start position
G1 X0.1 Y200.0 Z0.3 F1500.0 E15 ; Draw the first line
G1 X0.4 Y200.0 Z0.3 F5000.0 ; Move to side a little
G1 X0.4 Y20 Z0.3 F1500.0 E30 ; Draw the second line
G92 E0 ; Reset Extruder
G1 Z2.0 F3000 ; Move Z Axis up little to prevent scratching of Heat Bed
G1 X5 Y20 Z0.3 F5000.0 ; Move over to prevent blob squish

G92 E0
G92 E0
G1 F2400 E-0.8
;LAYER_COUNT:120
;LAYER:0
M107
M204 S2000
G0 F7500 X66.956 Y69.513 Z0.2
M204 S500
;TYPE:SKIRT
G1 F2400 E0
G1 F1500 X67.692 Y68.876 E0.03237
G1 X68.424 Y68.346 E0.06243
G1 X69.321 Y67.811 E0.09717
G1 X70.199 Y67.39 E0.12956
G1 X71.112 Y67.048 E0.16198
G1 X72.049 Y66.789 E0.19432
G1 X73.016 Y66.611 E0.22702
G1 X74.155 Y66.515 E0.26504
G1 X74.812 Y66.5 E0.2869
G1 X144.804 Y66.5 E2.61484
G1 X145.684 Y66.513 E2.64411
G1 X146.656 Y66.572 E2.6765
G1 X147.619 Y66.718 E2.70889
G1 X148.566 Y66.949 E2.74132
G1 X149.454 Y67.249 E2.77249
G1 X150.346 Y67.639 E2.80487
G1 X151.229 Y68.126 E2.83841
G1 X151.98 Y68.628 E2.86845
G1 X152.795 Y69.286 E2.90329
G1 X153.493 Y69.964 E2.93566
G1 X154.129 Y70.701 E2.96804
G1 X154.699 Y71.491 E3.00044
G1 X155.161 Y72.267 E3.03047
G1 X155.615 Y73.209 E3.06525
G1 X155.944 Y74.087 E3.09644
G1 X156.213 Y75.059 E3.12998
G1 X156.39 Y76.025 E3.16265
G1 X156.485 Y77.155 E3.20036
G1 X156.5 Y77.83 E3.22282
G1 X156.499 Y141.9 E5.3538
G1 X156.488 Y142.663 E5.37918
G1 X156.431 Y143.636 E5.4116
G1 X156.286 Y144.599 E5.44399
G1 X156.057 Y145.545 E5.47636
G1 X155.746 Y146.469 E5.50879
G1 X155.354 Y147.36 E5.54116
G1 X154.886 Y148.212 E5.57349
G1 X154.364 Y148.993 E5.60474
G1 X153.731 Y149.778 E5.63828
G1 X153.106 Y150.429 E5.66829
G1 X152.317 Y151.117 E5.70311
G1 X151.557 Y151.667 E5.73431
G1 X150.69 Y152.184 E5.76789
G1 X149.812 Y152.606 E5.80029
G1 X148.901 Y152.948 E5.83265
G1 X147.962 Y153.209 E5.86507
G1 X146.996 Y153.387 E5.89774
G1 X145.845 Y153.485 E5.93616
G1 X145.17 Y153.5 E5.95862
G1 X75.064 Y153.499 E8.29035
G1 X74.331 Y153.488 E8.31473
G1 X73.359 Y153.431 E8.34712
G1 X72.396 Y153.285 E8.37951
G1 X71.45 Y153.056 E8.41189
G1 X70.526 Y152.744 E8.44432
G1 X69.636 Y152.352 E8.47667
G1 X68.813 Y151.901 E8.50788
G1 X67.974 Y151.34 E8.54145
G1 X67.27 Y150.774 E8.57149
G1 X66.517 Y150.049 E8.60626
G1 X65.88 Y149.313 E8.63864
G1 X65.35 Y148.582 E8.66867
G1 X64.814 Y147.685 E8.70342
G1 X64.392 Y146.807 E8.73582
G1 X64.05 Y145.895 E8.76822
G1 X63.79 Y144.957 E8.80059
G1 X63.612 Y143.988 E8.83336
G1 X63.514 Y142.809 E8.87271
G1 X63.5 Y142.158 E8.89437
G1 X63.501 Y78.025 E11.02744
G1 X63.512 Y77.325 E11.05072
G1 X63.57 Y76.352 E11.08314
G1 X63.716 Y75.389 E11.11554
G1 X63.946 Y74.443 E11.14792
G1 X64.259 Y73.52 E11.18034
G1 X64.651 Y72.63 E11.21268
G1 X65.121 Y71.777 E11.24507
G1 X65.664 Y70.969 E11.27745
G1 X66.231 Y70.265 E11.30752
G1 X66.956 Y69.513 E11.34226
M204 S2000
G0 F7500 X67.218 Y69.815
M204 S500
G1 F1500 X67.927 Y69.2 E11.37348
G1 X68.659 Y68.67 E11.40354
G1 X69.495 Y68.171 E11.43592
G1 X70.34 Y67.764 E11.46711
G1 X71.219 Y67.433 E11.49835
G1 X72.122 Y67.182 E11.52953
G1 X73.05 Y67.01 E11.56092
G1 X74.189 Y66.914 E11.59893
G1 X74.821 Y66.9 E11.61996
G1 X144.798 Y66.9 E13.9474
G1 X145.66 Y66.912 E13.97608
G1 X146.597 Y66.968 E14.0073
G1 X147.525 Y67.107 E14.03851
G1 X148.438 Y67.328 E14.06975
G1 X149.294 Y67.616 E14.09979
G1 X150.186 Y68.006 E14.13217
G1 X151.007 Y68.459 E14.16336
G1 X151.758 Y68.961 E14.1934
G1 X152.517 Y69.573 E14.22583
G1 X153.191 Y70.226 E14.25704
G1 X153.805 Y70.935 E14.28824
G1 X154.355 Y71.696 E14.31947
G1 X154.817 Y72.472 E14.34951
G1 X155.24 Y73.349 E14.38189
G1 X155.569 Y74.227 E14.41308
G1 X155.82 Y75.132 E14.44431
G1 X155.991 Y76.059 E14.47567
G1 X156.086 Y77.189 E14.51338
G1 X156.1 Y77.83 E14.53471
G1 X156.099 Y141.895 E16.66552
G1 X156.089 Y142.64 E16.6903
G1 X156.035 Y143.577 E16.72151
G1 X155.897 Y144.506 E16.75275
G1 X155.678 Y145.418 E16.78395
G1 X155.38 Y146.308 E16.81516
G1 X155.003 Y147.168 E16.8464
G1 X154.553 Y147.99 E16.87756
G1 X154.031 Y148.771 E16.90881
G1 X153.442 Y149.501 E16.94001
G1 X152.817 Y150.152 E16.97002
G1 X152.082 Y150.793 E17.00246
G1 X151.322 Y151.343 E17.03366
G1 X150.516 Y151.824 E17.06488
G1 X149.671 Y152.232 E17.09609
G1 X148.793 Y152.563 E17.1273
G1 X147.889 Y152.816 E17.15852
G1 X146.962 Y152.988 E17.18988
G1 X145.811 Y153.086 E17.2283
G1 X145.17 Y153.1 E17.24962
G1 X75.07 Y153.099 E19.58116
G1 X74.354 Y153.089 E19.60498
G1 X73.418 Y153.035 E19.63616
G1 X72.489 Y152.896 E19.6674
G1 X71.577 Y152.677 E19.6986
G1 X70.687 Y152.378 E19.72983
G1 X69.828 Y152.001 E19.76103
G1 X69.005 Y151.55 E19.79224
G1 X68.225 Y151.028 E19.82346
G1 X67.521 Y150.462 E19.8535
G1 X66.819 Y149.787 E19.88589
G1 X66.204 Y149.078 E19.91711
G1 X65.674 Y148.347 E19.94714
G1 X65.174 Y147.511 E19.97954
G1 X64.766 Y146.666 E20.01075
G1 X64.435 Y145.788 E20.04196
G1 X64.183 Y144.884 E20.07317
G1 X64.011 Y143.955 E20.10459
G1 X63.913 Y142.776 E20.14394
G1 X63.9 Y142.158 E20.1645
G1 X63.901 Y78.031 E22.29738
G1 X63.911 Y77.348 E22.32009
G1 X63.966 Y76.411 E22.35131
G1 X64.105 Y75.483 E22.38252
G1 X64.325 Y74.571 E22.41373
G1 X64.625 Y73.681 E22.44496
G1 X65.002 Y72.822 E22.47616
G1 X65.453 Y72 E22.50735
G1 X65.976 Y71.22 E22.53858
G1 X66.543 Y70.516 E22.56865
G1 X67.218 Y69.815 E22.60102
M204 S2000
G0 F7500 X67.481 Y70.117
M204 S500
G1 F1500 X68.162 Y69.524 E22.63105
G1 X68.894 Y68.994 E22.66111
G1 X69.669 Y68.531 E22.69113
G1 X70.482 Y68.138 E22.72117
G1 X71.327 Y67.818 E22.75122
G1 X72.196 Y67.575 E22.78123
G1 X73.084 Y67.409 E22.81128
G1 X74.223 Y67.313 E22.8493
G1 X74.83 Y67.3 E22.86949
G1 X144.793 Y67.3 E25.19647
G1 X145.637 Y67.311 E25.22454
G1 X146.539 Y67.364 E25.2546
G1 X147.432 Y67.496 E25.28462
G1 X148.31 Y67.707 E25.31465
G1 X149.166 Y67.995 E25.34469
G1 X149.993 Y68.357 E25.37472
G1 X150.785 Y68.792 E25.40477
G1 X151.536 Y69.294 E25.43482
G1 X152.239 Y69.861 E25.46486
G1 X152.889 Y70.488 E25.49489
G1 X153.481 Y71.17 E25.52493
G1 X154.011 Y71.901 E25.55496
G1 X154.473 Y72.677 E25.585
G1 X154.866 Y73.49 E25.61504
G1 X155.184 Y74.335 E25.64506
G1 X155.427 Y75.205 E25.67511
G1 X155.592 Y76.093 E25.70515
G1 X155.687 Y77.223 E25.74287
G1 X155.7 Y77.83 E25.76306
G1 X155.699 Y141.89 E27.8937
G1 X155.69 Y142.617 E27.91788
G1 X155.639 Y143.519 E27.94793
G1 X155.508 Y144.413 E27.97799
G1 X155.299 Y145.291 E28.008
G1 X155.013 Y146.148 E28.03805
G1 X154.652 Y146.976 E28.0681
G1 X154.22 Y147.768 E28.0981
G1 X153.719 Y148.52 E28.12816
G1 X153.153 Y149.224 E28.1582
G1 X152.528 Y149.875 E28.18822
G1 X151.847 Y150.469 E28.21827
G1 X151.116 Y151 E28.24832
G1 X150.342 Y151.464 E28.27834
G1 X149.529 Y151.858 E28.30839
G1 X148.685 Y152.178 E28.33841
G1 X147.815 Y152.423 E28.36847
G1 X146.928 Y152.589 E28.39848
G1 X145.777 Y152.687 E28.4369
G1 X145.17 Y152.7 E28.4571
G1 X75.075 Y152.699 E30.78847
G1 X74.377 Y152.69 E30.81168
G1 X73.476 Y152.639 E30.8417
G1 X72.582 Y152.507 E30.87176
G1 X71.704 Y152.298 E30.90178
G1 X70.847 Y152.011 E30.93183
G1 X70.02 Y151.65 E30.96185
G1 X69.227 Y151.217 E30.9919
G1 X68.476 Y150.716 E31.02192
G1 X67.772 Y150.15 E31.05197
G1 X67.121 Y149.524 E31.08201
G1 X66.528 Y148.843 E31.11204
G1 X65.998 Y148.112 E31.14207
G1 X65.534 Y147.337 E31.17212
G1 X65.14 Y146.524 E31.20216
G1 X64.82 Y145.68 E31.23219
G1 X64.576 Y144.81 E31.26224
G1 X64.41 Y143.922 E31.29229
G1 X64.313 Y142.767 E31.33084
G1 X64.3 Y142.158 E31.3511
G1 X64.301 Y78.036 E33.4838
G1 X64.31 Y77.371 E33.50592
G1 X64.362 Y76.469 E33.53597
G1 X64.494 Y75.576 E33.566
G1 X64.704 Y74.698 E33.59602
G1 X64.991 Y73.841 E33.62608
G1 X65.353 Y73.014 E33.65611
G1 X65.786 Y72.222 E33.68613
G1 X66.288 Y71.471 E33.71618
G1 X66.855 Y70.767 E33.74624
G1 X67.481 Y70.117 E33.77626
M204 S2000
G1 F2400 E32.97626
;MESH:calf base.stl
G0 F7500 X77.392 Y81.719
G0 X97.869 Y87.974
M204 S500
;TYPE:WALL-INNER
G1 F2400 E33.77626
G1 F1500 X97.63 Y88.1 E33.78524
G1 X77.376 Y88.1 E34.45889
G1 X77.14 Y87.98 E34.4677
G1 X76.97 Y87.783 E34.47635
G1 X76.9 Y87.581 E34.48346
G1 X76.9 Y82.5 E34.65246
G1 X76.984 Y82.192 E34.66308
G1 X77.178 Y81.992 E34.67234
G1 X77.417 Y81.9 E34.68086
G1 X97.601 Y81.9 E35.35218
G1 X97.783 Y81.97 E35.35867
G1 X97.938 Y82.089 E35.36517
G1 X98.044 Y82.245 E35.37144
G1 X98.1 Y82.5 E35.38013
G1 X98.099 Y87.553 E35.54819
G1 X98.006 Y87.825 E35.55775
G1 X97.869 Y87.974 E35.56448
M204 S2000
G1 F2400 E34.76448
G0 F7500 X97.869 Y88
G0 X98.157 Y87.923
G0 X99.92 Y88.281
G0 X120.132 Y88.099
M204 S500
G1 F2400 E35.56448
G1 F1500 X99.87 Y88.1 E36.2384
G1 X99.631 Y87.974 E36.24739
G1 X99.494 Y87.825 E36.25412
G1 X99.401 Y87.553 E36.26368
G1 X99.4 Y82.5 E36.43174
G1 X99.456 Y82.245 E36.44043
G1 X99.562 Y82.089 E36.4467
G1 X99.717 Y81.97 E36.4532
G1 X99.919 Y81.9 E36.46031
G1 X120.101 Y81.9 E37.13156
G1 X120.283 Y81.97 E37.13805
G1 X120.438 Y82.089 E37.14455
G1 X120.544 Y82.245 E37.15082
G1 X120.6 Y82.5 E37.15951
G1 X120.599 Y87.553 E37.32757
G1 X120.506 Y87.825 E37.33713
G1 X120.369 Y87.974 E37.34386
G1 X120.132 Y88.099 E37.35277
M204 S2000
G1 F2400 E36.55277
G0 F7500 X120.657 Y87.923
G0 X121.721 Y87.567
G0 X122.131 Y87.974
M204 S500
G1 F2400 E37.35277
G1 F1500 X121.994 Y87.825 E37.35951
G1 X121.901 Y87.553 E37.36907
G1 X121.9 Y82.5 E37.53713
G1 X121.956 Y82.245 E37.54581
G1 X122.062 Y82.089 E37.55209
G1 X122.217 Y81.97 E37.55859
G1 X122.419 Y81.9 E37.5657
G1 X142.589 Y81.9 E38.23655
G1 X142.822 Y81.992 E38.24489
G1 X143.016 Y82.192 E38.25415
G1 X143.1 Y82.5 E38.26477
G1 X143.1 Y87.581 E38.43377
G1 X143.03 Y87.783 E38.44088
G1 X142.86 Y87.98 E38.44953
G1 X142.624 Y88.1 E38.45834
G1 X122.415 Y88.095 E39.13049
G1 X122.131 Y87.974 E39.14076
M204 S2000
G1 F2400 E38.34076
G0 F7500 X122.131 Y88
G0 X122.42 Y88.281
G0 X122.456 Y131.72
G0 X122.217 Y138.03
M204 S500
G1 F2400 E39.14076
G1 F1500 X122.062 Y137.911 E39.14726
G1 X121.956 Y137.755 E39.15353
G1 X121.901 Y137.553 E39.1605
G1 X121.9 Y132.5 E39.32856
G1 X121.995 Y132.175 E39.33982
G1 X122.131 Y132.026 E39.34653
G1 X122.37 Y131.9 E39.35552
G1 X142.624 Y131.9 E40.02917
G1 X142.86 Y132.02 E40.03797
G1 X143.03 Y132.217 E40.04663
G1 X143.1 Y132.5 E40.05632
G1 X143.1 Y137.583 E40.22539
G1 X143.016 Y137.807 E40.23334
G1 X142.822 Y138.007 E40.24261
G1 X142.583 Y138.1 E40.25114
G1 X122.399 Y138.1 E40.92246
G1 X122.217 Y138.03 E40.92895
M204 S2000
G1 F2400 E40.12895
G0 F7500 X121.721 Y137.568
G0 X120.4 Y137.568
G0 X99.899 Y138.1
M204 S500
G1 F2400 E40.92895
G1 F1500 X99.717 Y138.03 E40.93543
G1 X99.562 Y137.911 E40.94193
G1 X99.456 Y137.755 E40.94821
G1 X99.401 Y137.553 E40.95517
G1 X99.4 Y132.5 E41.12323
G1 X99.495 Y132.175 E41.13449
G1 X99.631 Y132.026 E41.1412
G1 X99.87 Y131.9 E41.15019
G1 X120.085 Y131.905 E41.82254
G1 X120.369 Y132.026 E41.83281
G1 X120.505 Y132.175 E41.83952
G1 X120.6 Y132.5 E41.85078
G1 X120.599 Y137.553 E42.01885
G1 X120.544 Y137.755 E42.02581
G1 X120.438 Y137.911 E42.03208
G1 X120.283 Y138.03 E42.03858
G1 X120.081 Y138.1 E42.04569
G1 X99.899 Y138.1 E42.71695
M204 S2000
G1 F2400 E41.91695
G0 F7500 X99.222 Y137.642
G0 X98.279 Y137.568
G0 X97.783 Y138.03
M204 S500
G1 F2400 E42.71695
G1 F1500 X97.581 Y138.1 E42.72406
G1 X77.411 Y138.1 E43.39492
G1 X77.178 Y138.007 E43.40326
G1 X76.984 Y137.807 E43.41253
G1 X76.9 Y137.583 E43.42048
G1 X76.9 Y132.5 E43.58955
G1 X76.97 Y132.217 E43.59924
G1 X77.14 Y132.02 E43.6079
G1 X77.376 Y131.9 E43.6167
G1 X97.585 Y131.905 E44.28886
G1 X97.869 Y132.026 E44.29912
G1 X98.005 Y132.175 E44.30583
G1 X98.1 Y132.5 E44.3171
G1 X98.099 Y137.553 E44.48516
G1 X98.044 Y137.755 E44.49212
G1 X97.938 Y137.911 E44.4984
G1 X97.783 Y138.03 E44.50489
M204 S2000
G1 F2400 E43.70489
G0 F7500 X98.279 Y137.568
G0 X98.277 Y141.719
G0 X144.9 Y141.9
M204 S500
G1 F2400 E44.50489
G1 F1500 X144.9 Y78.1 E46.62689
G1 X75.101 Y78.101 E48.94842
G1 X75.101 Y141.899 E51.07035
G1 X144.9 Y141.9 E53.39187
M204 S2000
G0 F7500 X145.3 Y142.3
M204 S500
;TYPE:WALL-OUTER
G1 F1500 X145.3 Y77.7 E55.54047
G1 X74.701 Y77.701 E57.88861
G1 X74.701 Y142.299 E60.03714
G1 X145.3 Y142.3 E62.38528
M204 S2000
G1 F2400 E61.58528
G0 F7500 X145.03 Y142.03
G0 X122.448 Y141.719
G0 X122.448 Y138.28
G0 X122.45 Y137.694
M204 S500
G1 F2400 E62.38528
G1 F1500 X122.354 Y137.637 E62.38899
G1 X122.3 Y137.518 E62.39334
G1 X122.3 Y132.5 E62.56024
G1 X122.331 Y132.391 E62.56401
G1 X122.455 Y132.3 E62.56912
G1 X142.544 Y132.3 E63.23728
G1 X142.7 Y132.423 E63.24389
G1 X142.698 Y137.535 E63.41392
G1 X142.608 Y137.669 E63.41929
G1 X142.535 Y137.698 E63.4219
G1 X122.45 Y137.694 E64.08993
M204 S2000
G1 F2400 E63.28993
G0 F7500 X122.45 Y138
G0 X121.721 Y137.568
G0 X120.779 Y137.568
G0 X120.075 Y137.698
M204 S500
G1 F2400 E64.08993
G1 F1500 X99.95 Y137.694 E64.75929
G1 X99.854 Y137.637 E64.763
G1 X99.8 Y137.518 E64.76735
G1 X99.8 Y132.5 E64.93425
G1 X99.831 Y132.391 E64.93802
G1 X99.955 Y132.3 E64.94313
G1 X120.044 Y132.304 E65.6113
G1 X120.169 Y132.391 E65.61636
G1 X120.2 Y132.5 E65.62013
G1 X120.2 Y137.566 E65.78863
G1 X120.075 Y137.698 E65.79467
M204 S2000
G1 F2400 E64.99467
G0 F7500 X120.075 Y138
G0 X99.6 Y137.9
G0 X98.279 Y137.568
G0 X97.575 Y137.698
M204 S500
G1 F2400 E65.79467
G1 F1500 X77.462 Y137.697 E66.46363
G1 X77.392 Y137.669 E66.46614
G1 X77.302 Y137.535 E66.47151
G1 X77.3 Y132.423 E66.64154
G1 X77.456 Y132.3 E66.64814
G1 X97.544 Y132.304 E67.31627
G1 X97.669 Y132.391 E67.32134
G1 X97.7 Y132.5 E67.32511
G1 X97.7 Y137.566 E67.4936
G1 X97.575 Y137.698 E67.49965
M204 S2000
G1 F2400 E66.69965
G0 F7500 X97.575 Y138
G0 X97.928 Y137.928
G0 X97.928 Y132.072
G0 X97.528 Y131.726
G0 X97.526 Y88.299
G0 X97.545 Y87.7
M204 S500
G1 F2400 E67.49965
G1 F1500 X77.456 Y87.7 E68.16781
G1 X77.38 Y87.66 E68.17067
G1 X77.302 Y87.535 E68.17557
G1 X77.3 Y82.5 E68.34303
G1 X77.328 Y82.397 E68.34658
G1 X77.465 Y82.302 E68.35213
G1 X97.55 Y82.306 E69.02016
G1 X97.646 Y82.363 E69.02387
G1 X97.7 Y82.5 E69.02877
G1 X97.7 Y87.518 E69.19567
G1 X97.669 Y87.609 E69.19887
G1 X97.545 Y87.7 E69.20398
M204 S2000
G1 F2400 E68.40398
G0 F7500 X97.545 Y88
G0 X98.157 Y87.923
G0 X99.92 Y88.281
G0 X120.045 Y87.7
M204 S500
G1 F2400 E69.20398
G1 F1500 X99.956 Y87.696 E69.87215
G1 X99.831 Y87.609 E69.87721
G1 X99.8 Y87.518 E69.88041
G1 X99.8 Y82.434 E70.0495
G1 X99.925 Y82.302 E70.05555
G1 X120.05 Y82.306 E70.72491
G1 X120.146 Y82.363 E70.72862
G1 X120.2 Y82.5 E70.73352
G1 X120.2 Y87.518 E70.90042
G1 X120.169 Y87.609 E70.90362
G1 X120.045 Y87.7 E70.90873
M204 S2000
G1 F2400 E70.10873
G0 F7500 X120.045 Y88
G0 X120.657 Y87.923
G0 X121.721 Y87.567
G0 X122.456 Y87.696
M204 S500
G1 F2400 E70.90873
G1 F1500 X122.331 Y87.609 E70.9138
G1 X122.3 Y87.518 E70.917
G1 X122.3 Y82.434 E71.08609
G1 X122.425 Y82.302 E71.09214
G1 X142.538 Y82.303 E71.7611
G1 X142.672 Y82.397 E71.76654
G1 X142.7 Y82.5 E71.77009
G1 X142.698 Y87.535 E71.93756
G1 X142.62 Y87.66 E71.94246
G1 X142.544 Y87.7 E71.94531
G1 X122.456 Y87.696 E72.61344
M204 S2000
G1 F2400 E71.81344
G0 F7500 X122.456 Y88
G0 X142.499 Y88.281
G0 X144.7 Y88.281
G0 X144.54 Y141.54
M204 S500
;TYPE:SKIN
G1 F2400 E72.61344
G1 F1500 X75.461 Y141.539 E74.91102
G1 X75.462 Y78.462 E77.00897
G1 X144.54 Y78.46 E79.30651
G1 X144.54 Y141.54 E81.40456
M204 S2000
G1 F2400 E80.60456
G0 F7500 X144.538 Y141.799
G0 X122.169 Y141.719
G0 X122.369 Y138.281
G0 X122.052 Y138.352
M204 S500
G1 F2400 E81.40456
G1 F1500 X122.334 Y138.46 E81.41461
G1 X142.64 Y138.458 E82.08999
G1 X143.02 Y138.315 E82.10349
G1 X143.327 Y137.995 E82.11824
G1 X143.458 Y137.638 E82.13089
G1 X143.455 Y132.456 E82.30324
G1 X143.355 Y132.048 E82.31721
G1 X143.082 Y131.731 E82.33113
G1 X142.803 Y131.591 E82.34151
G1 X142.522 Y131.541 E82.351
G1 X122.456 Y131.541 E83.0184
G1 X122.192 Y131.59 E83.02733
