;FLAVOR:Marlin
;TIME:172
;Filament used: 0.0555207m
;Layer height: 0.2
;MINX:96.734
;MINY:96.721
;MINZ:0.2
;MAXX:123.272
;MAXY:123.279
;MAXZ:11
;TARGET_MACHINE.NAME:Creality Ender-3 S1
;Generated with Cura_SteamEngine 5.6.0
M82 ;absolute extrusion mode
; Ender 3 S1 Start G-code
; M413 S0 ; Disable power loss recovery
G92 E0 ; Reset Extruder

; Prep surfaces before auto home for better accuracy
M140 S60
M104 S200

G28 ; Home all axes
G1 Z10.0 F3000 ; Move Z Axis up little to prevent scratching of Heat Bed
G1 X0 Y0

M190 S60
M109 S200

G1 X0.1 Y20 Z0.3 F5000.0 ; Move to start position
G1 X0.1 Y200.0 Z0.3 F1500.0 E15 ; Draw the first line
G1 X0.4 Y200.0 Z0.3 F5000.0 ; Move to side a little
G1 X0.4 Y20 Z0.3 F1500.0 E30 ; Draw the second line
G92 E0 ; Reset Extruder
G1 Z2.0 F3000 ; Move Z Axis up little to prevent scratching of Heat Bed
G1 X5 Y20 Z0.3 F5000.0 ; Move over to prevent blob squish

G92 E0
G92 E0
G1 F2400 E-0.8
;LAYER_COUNT:55
;LAYER:0
M107
M204 S2000
G0 F7500 X100.772 Y100.477 Z0.2
M204 S500
;TYPE:SKIRT
G1 F2400 E0
G1 F1500 X101.136 Y100.137 E0.01657
G1 X101.876 Y99.505 E0.04893
G1 X102.688 Y98.926 E0.0821
G1 X103.248 Y98.583 E0.10395
G1 X103.577 Y98.395 E0.11655
G1 X104.38 Y97.982 E0.14658
G1 X105.299 Y97.597 E0.17972
G1 X106.276 Y97.26 E0.2141
G1 X107.635 Y96.947 E0.26048
G1 X108.132 Y96.867 E0.27722
G1 X109.136 Y96.749 E0.31085
G1 X110.039 Y96.721 E0.34089
G1 X111.009 Y96.77 E0.3732
G1 X111.457 Y96.813 E0.38817
G1 X112.456 Y96.955 E0.42173
G1 X113.336 Y97.158 E0.45177
G1 X114.242 Y97.439 E0.48331
G1 X115.219 Y97.809 E0.51806
G1 X115.905 Y98.131 E0.54327
G1 X116.212 Y98.29 E0.55477
G1 X117.07 Y98.782 E0.58766
G1 X117.905 Y99.362 E0.62148
G1 X118.326 Y99.686 E0.63915
G1 X119.097 Y100.338 E0.67273
G1 X119.779 Y101.025 E0.70493
G1 X120.311 Y101.652 E0.73228
G1 X120.611 Y102.032 E0.74838
G1 X121.138 Y102.765 E0.77841
G1 X121.706 Y103.726 E0.81553
G1 X122.098 Y104.546 E0.84576
G1 X122.279 Y104.972 E0.86116
G1 X122.625 Y105.898 E0.89404
G1 X122.963 Y107.19 E0.93846
G1 X123.069 Y107.718 E0.95637
G1 X123.204 Y108.611 E0.98641
G1 X123.272 Y109.713 E1.02313
G1 X123.257 Y110.496 E1.04918
G1 X123.193 Y111.351 E1.07769
G1 X123.151 Y111.722 E1.09011
G1 X122.991 Y112.715 E1.12356
G1 X122.76 Y113.646 E1.15547
G1 X122.568 Y114.24 E1.17623
G1 X122.389 Y114.738 E1.19383
G1 X122.005 Y115.671 E1.22739
G1 X121.555 Y116.539 E1.25991
G1 X120.935 Y117.504 E1.29806
G1 X120.619 Y117.942 E1.31602
G1 X120.034 Y118.678 E1.34729
G1 X119.253 Y119.498 E1.38496
G1 X118.887 Y119.842 E1.40166
G1 X118.123 Y120.496 E1.43511
G1 X117.366 Y121.041 E1.46614
G1 X116.752 Y121.417 E1.49008
G1 X116.423 Y121.605 E1.50269
G1 X115.62 Y122.018 E1.53272
G1 X114.701 Y122.403 E1.56586
G1 X113.724 Y122.74 E1.60023
G1 X112.365 Y123.053 E1.64662
G1 X111.868 Y123.133 E1.66336
G1 X110.864 Y123.251 E1.69698
G1 X109.961 Y123.279 E1.72703
G1 X108.991 Y123.23 E1.75933
G1 X108.543 Y123.187 E1.7743
G1 X107.544 Y123.045 E1.80786
G1 X106.664 Y122.842 E1.8379
G1 X105.758 Y122.561 E1.86945
G1 X104.781 Y122.191 E1.9042
G1 X104.095 Y121.869 E1.9294
G1 X103.788 Y121.71 E1.9409
G1 X102.93 Y121.218 E1.9738
G1 X102.095 Y120.638 E2.00761
G1 X101.674 Y120.314 E2.02528
G1 X100.904 Y119.664 E2.0588
G1 X100.266 Y119.025 E2.08883
G1 X99.75 Y118.425 E2.11515
G1 X99.449 Y118.047 E2.13122
G1 X98.858 Y117.231 E2.16473
G1 X98.358 Y116.395 E2.19713
G1 X97.909 Y115.468 E2.23139
G1 X97.732 Y115.052 E2.24643
G1 X97.401 Y114.173 E2.27767
G1 X97.109 Y113.124 E2.31389
G1 X97.04 Y112.815 E2.32442
G1 X96.88 Y111.951 E2.35364
G1 X96.837 Y111.64 E2.36408
G1 X96.743 Y110.638 E2.39756
G1 X96.734 Y109.735 E2.42759
G1 X96.777 Y109.032 E2.45102
G1 X96.829 Y108.479 E2.46949
G1 X96.969 Y107.479 E2.50308
G1 X97.179 Y106.566 E2.53424
G1 X97.441 Y105.735 E2.56322
G1 X97.614 Y105.254 E2.58022
G1 X98.007 Y104.305 E2.61438
G1 X98.46 Y103.434 E2.64703
G1 X99.11 Y102.431 E2.68679
G1 X99.442 Y101.979 E2.70544
G1 X100.078 Y101.195 E2.73902
G1 X100.772 Y100.477 E2.77223
M204 S2000
G0 F7500 X101.06 Y100.755
M204 S500
G1 F1500 X101.396 Y100.441 E2.78753
G1 X102.109 Y99.83 E2.81876
G1 X102.897 Y99.267 E2.85097
G1 X103.447 Y98.93 E2.87242
G1 X103.76 Y98.751 E2.88441
G1 X104.563 Y98.338 E2.91445
G1 X105.43 Y97.975 E2.94571
G1 X106.366 Y97.65 E2.97866
G1 X107.699 Y97.342 E3.02417
G1 X108.179 Y97.264 E3.04034
G1 X109.148 Y97.149 E3.0728
G1 X110.051 Y97.121 E3.10285
G1 X110.971 Y97.168 E3.13348
G1 X111.401 Y97.209 E3.14785
G1 X112.366 Y97.345 E3.18026
G1 X113.246 Y97.548 E3.2103
G1 X114.101 Y97.813 E3.24007
G1 X115.049 Y98.171 E3.27378
G1 X115.722 Y98.487 E3.29851
G1 X116.013 Y98.637 E3.3094
G1 X116.842 Y99.111 E3.34116
G1 X117.661 Y99.679 E3.37431
G1 X118.068 Y99.992 E3.39138
G1 X118.813 Y100.62 E3.42379
G1 X119.495 Y101.307 E3.45599
G1 X119.997 Y101.9 E3.48183
G1 X120.286 Y102.266 E3.49734
G1 X120.813 Y102.999 E3.52737
G1 X121.345 Y103.899 E3.56214
G1 X121.73 Y104.703 E3.59179
G1 X121.904 Y105.112 E3.60657
G1 X122.25 Y106.038 E3.63945
G1 X122.571 Y107.268 E3.68173
G1 X122.673 Y107.778 E3.69903
G1 X122.808 Y108.671 E3.72907
G1 X122.872 Y109.706 E3.76356
G1 X122.858 Y110.467 E3.78887
G1 X122.796 Y111.306 E3.81686
G1 X122.756 Y111.659 E3.82867
G1 X122.603 Y112.619 E3.861
G1 X122.379 Y113.523 E3.89198
G1 X122.191 Y114.105 E3.91232
G1 X122.019 Y114.586 E3.92931
G1 X121.65 Y115.487 E3.9617
G1 X121.218 Y116.323 E3.99299
G1 X120.598 Y117.288 E4.03114
G1 X120.305 Y117.694 E4.0478
G1 X119.744 Y118.402 E4.07784
G1 X118.963 Y119.222 E4.11551
G1 X118.627 Y119.538 E4.13085
G1 X117.889 Y120.171 E4.16319
G1 X117.132 Y120.716 E4.19421
G1 X116.553 Y121.07 E4.21678
G1 X116.24 Y121.249 E4.22877
G1 X115.437 Y121.662 E4.25881
G1 X114.57 Y122.025 E4.29007
G1 X113.634 Y122.35 E4.32302
G1 X112.301 Y122.658 E4.36853
G1 X111.821 Y122.736 E4.3847
G1 X110.852 Y122.851 E4.41716
G1 X109.949 Y122.879 E4.44721
G1 X109.029 Y122.832 E4.47785
G1 X108.599 Y122.791 E4.49221
G1 X107.634 Y122.655 E4.52463
G1 X106.754 Y122.452 E4.55466
G1 X105.899 Y122.187 E4.58443
G1 X104.951 Y121.829 E4.61814
G1 X104.278 Y121.513 E4.64287
G1 X103.987 Y121.363 E4.65376
G1 X103.158 Y120.889 E4.68552
G1 X102.339 Y120.321 E4.71867
G1 X101.932 Y120.008 E4.73574
G1 X101.187 Y119.381 E4.76813
G1 X100.549 Y118.742 E4.79816
G1 X100.063 Y118.176 E4.82298
G1 X99.773 Y117.812 E4.83846
G1 X99.201 Y117.025 E4.87082
G1 X98.718 Y116.22 E4.90204
G1 X98.277 Y115.311 E4.93564
G1 X98.106 Y114.91 E4.95014
G1 X97.786 Y114.065 E4.9802
G1 X97.499 Y113.037 E5.01569
G1 X97.433 Y112.742 E5.02575
G1 X97.276 Y111.896 E5.05437
G1 X97.235 Y111.602 E5.06424
G1 X97.143 Y110.634 E5.09658
G1 X97.134 Y109.731 E5.12662
G1 X97.175 Y109.069 E5.14868
G1 X97.225 Y108.534 E5.16655
G1 X97.359 Y107.569 E5.19895
G1 X97.569 Y106.656 E5.23011
G1 X97.817 Y105.87 E5.25752
G1 X97.984 Y105.406 E5.27393
G1 X98.362 Y104.489 E5.30692
G1 X98.796 Y103.652 E5.33827
G1 X99.446 Y102.649 E5.37803
G1 X99.753 Y102.231 E5.39528
G1 X100.366 Y101.473 E5.4277
G1 X101.06 Y100.755 E5.46091
M204 S2000
G0 F7500 X101.348 Y101.033
M204 S500
G1 F1500 X101.657 Y100.744 E5.47499
G1 X102.342 Y100.155 E5.50503
G1 X103.13 Y99.592 E5.53724
G1 X103.646 Y99.277 E5.55735
G1 X103.943 Y99.107 E5.56873
G1 X104.746 Y98.694 E5.59877
G1 X105.562 Y98.353 E5.62818
G1 X106.456 Y98.04 E5.65969
G1 X107.764 Y97.737 E5.70434
G1 X108.227 Y97.661 E5.71995
G1 X109.16 Y97.549 E5.7512
G1 X110.063 Y97.521 E5.78125
G1 X110.933 Y97.566 E5.81023
G1 X111.346 Y97.605 E5.82402
G1 X112.276 Y97.735 E5.85526
G1 X113.156 Y97.938 E5.88529
G1 X113.982 Y98.195 E5.91406
G1 X114.879 Y98.533 E5.94595
G1 X115.539 Y98.843 E5.9702
G1 X115.814 Y98.984 E5.98048
G1 X116.643 Y99.458 E6.01224
G1 X117.418 Y99.997 E6.04364
G1 X117.811 Y100.298 E6.0601
G1 X118.53 Y100.902 E6.09133
G1 X119.19 Y101.565 E6.12245
G1 X119.683 Y102.148 E6.14784
G1 X119.961 Y102.5 E6.16276
G1 X120.488 Y103.233 E6.19279
G1 X120.984 Y104.072 E6.22521
G1 X121.362 Y104.86 E6.25427
G1 X121.53 Y105.253 E6.26849
G1 X121.863 Y106.139 E6.29997
G1 X122.179 Y107.346 E6.34147
G1 X122.277 Y107.838 E6.35815
G1 X122.412 Y108.731 E6.38819
G1 X122.472 Y109.699 E6.42045
G1 X122.459 Y110.438 E6.44503
G1 X122.399 Y111.261 E6.47248
G1 X122.361 Y111.597 E6.48373
G1 X122.215 Y112.523 E6.51491
G1 X121.998 Y113.4 E6.54495
G1 X121.814 Y113.971 E6.56491
G1 X121.649 Y114.435 E6.58129
G1 X121.294 Y115.304 E6.61251
G1 X120.881 Y116.107 E6.64254
G1 X120.261 Y117.072 E6.68069
G1 X119.991 Y117.446 E6.69603
G1 X119.43 Y118.154 E6.72608
G1 X118.689 Y118.931 E6.76179
G1 X118.366 Y119.235 E6.77654
G1 X117.655 Y119.846 E6.80772
G1 X116.898 Y120.391 E6.83875
G1 X116.354 Y120.723 E6.85994
G1 X116.057 Y120.893 E6.87133
G1 X115.254 Y121.306 E6.90136
G1 X114.438 Y121.647 E6.93077
G1 X113.544 Y121.96 E6.96228
G1 X112.236 Y122.263 E7.00693
G1 X111.773 Y122.339 E7.02254
G1 X110.84 Y122.451 E7.05379
G1 X109.937 Y122.479 E7.08384
G1 X109.067 Y122.434 E7.11282
G1 X108.654 Y122.395 E7.12662
G1 X107.724 Y122.265 E7.15785
G1 X106.844 Y122.062 E7.18789
G1 X106.018 Y121.805 E7.21666
G1 X105.121 Y121.467 E7.24854
G1 X104.461 Y121.157 E7.27279
G1 X104.186 Y121.016 E7.28307
G1 X103.357 Y120.542 E7.31483
G1 X102.582 Y120.003 E7.34623
G1 X102.189 Y119.702 E7.36269
G1 X101.47 Y119.098 E7.39393
G1 X100.832 Y118.459 E7.42396
G1 X100.375 Y117.926 E7.44731
G1 X100.096 Y117.577 E7.46217
G1 X99.544 Y116.818 E7.49339
G1 X99.078 Y116.045 E7.52341
G1 X98.645 Y115.154 E7.55636
G1 X98.48 Y114.768 E7.57032
G1 X98.16 Y113.923 E7.60037
G1 X97.889 Y112.949 E7.634
G1 X97.826 Y112.669 E7.64354
G1 X97.672 Y111.84 E7.67159
G1 X97.633 Y111.564 E7.68086
G1 X97.543 Y110.63 E7.71207
G1 X97.534 Y109.727 E7.7421
G1 X97.573 Y109.106 E7.7628
G1 X97.621 Y108.589 E7.78007
G1 X97.749 Y107.659 E7.81129
G1 X97.959 Y106.746 E7.84245
G1 X98.194 Y106.005 E7.86831
G1 X98.354 Y105.558 E7.8841
G1 X98.717 Y104.673 E7.91591
G1 X99.132 Y103.87 E7.94598
G1 X99.782 Y102.867 E7.98573
G1 X100.064 Y102.482 E8.0016
G1 X100.654 Y101.751 E8.03285
G1 X101.348 Y101.033 E8.06606
M204 S2000
G0 F7500 X101.622 Y101.325
M204 S500
G1 F1500 X101.918 Y101.047 E8.07956
G1 X102.603 Y100.458 E8.10961
G1 X103.338 Y99.933 E8.13965
G1 X103.844 Y99.624 E8.15937
G1 X104.126 Y99.463 E8.17017
G1 X104.929 Y99.05 E8.20021
G1 X105.695 Y98.73 E8.22782
G1 X106.547 Y98.43 E8.25786
G1 X107.829 Y98.132 E8.30164
G1 X108.275 Y98.058 E8.31667
G1 X109.172 Y97.949 E8.34673
G1 X110.075 Y97.921 E8.37678
G1 X110.896 Y97.964 E8.40412
G1 X111.291 Y98.001 E8.41732
G1 X112.186 Y98.125 E8.44737
G1 X113.066 Y98.328 E8.47741
G1 X113.863 Y98.577 E8.50518
G1 X114.709 Y98.895 E8.53524
G1 X115.356 Y99.199 E8.55901
G1 X115.631 Y99.34 E8.56929
G1 X116.415 Y99.787 E8.59931
G1 X117.175 Y100.315 E8.63009
G1 X117.554 Y100.605 E8.64596
G1 X118.247 Y101.185 E8.67602
G1 X118.885 Y101.824 E8.70605
G1 X119.369 Y102.395 E8.73095
G1 X119.636 Y102.734 E8.7453
G1 X120.163 Y103.467 E8.77533
G1 X120.623 Y104.245 E8.80539
G1 X120.994 Y105.018 E8.83391
G1 X121.156 Y105.395 E8.84755
G1 X121.476 Y106.24 E8.87761
G1 X121.792 Y107.447 E8.9191
G1 X121.881 Y107.898 E8.93439
G1 X122.016 Y108.791 E8.96443
G1 X122.072 Y109.692 E8.99446
G1 X122.06 Y110.409 E9.01831
G1 X122.001 Y111.217 E9.04525
G1 X121.966 Y111.535 E9.05589
G1 X121.827 Y112.427 E9.08592
G1 X121.61 Y113.304 E9.11597
G1 X121.437 Y113.837 E9.13461
G1 X121.278 Y114.284 E9.15039
G1 X120.938 Y115.121 E9.18044
G1 X120.525 Y115.924 E9.21047
G1 X119.937 Y116.838 E9.24662
G1 X119.677 Y117.198 E9.26139
G1 X119.116 Y117.906 E9.29143
G1 X118.414 Y118.64 E9.32521
G1 X118.105 Y118.932 E9.33935
G1 X117.421 Y119.522 E9.3694
G1 X116.689 Y120.05 E9.39941
G1 X116.156 Y120.376 E9.42019
G1 X115.874 Y120.537 E9.431
G1 X115.071 Y120.95 E9.46103
G1 X114.305 Y121.27 E9.48864
G1 X113.453 Y121.57 E9.51868
G1 X112.171 Y121.868 E9.56246
G1 X111.725 Y121.942 E9.5775
G1 X110.828 Y122.051 E9.60755
G1 X109.925 Y122.079 E9.6376
G1 X109.104 Y122.036 E9.66494
G1 X108.709 Y121.999 E9.67814
G1 X107.814 Y121.875 E9.70819
G1 X106.934 Y121.672 E9.73823
G1 X106.137 Y121.423 E9.766
G1 X105.291 Y121.105 E9.79606
G1 X104.644 Y120.801 E9.81984
G1 X104.369 Y120.66 E9.83011
G1 X103.585 Y120.213 E9.86013
G1 X102.825 Y119.685 E9.89091
G1 X102.446 Y119.395 E9.90678
G1 X101.753 Y118.815 E9.93684
G1 X101.115 Y118.176 E9.96687
G1 X100.679 Y117.666 E9.98919
G1 X100.419 Y117.341 E10.00303
G1 X99.887 Y116.611 E10.03308
G1 X99.421 Y115.838 E10.0631
G1 X99.013 Y114.996 E10.09422
G1 X98.854 Y114.626 E10.10761
G1 X98.534 Y113.781 E10.13766
G1 X98.279 Y112.86 E10.16945
G1 X98.219 Y112.596 E10.17845
G1 X98.068 Y111.783 E10.20595
G1 X98.031 Y111.525 E10.21462
G1 X97.943 Y110.626 E10.24467
G1 X97.934 Y109.723 E10.2747
G1 X97.971 Y109.143 E10.29403
G1 X98.017 Y108.643 E10.31073
G1 X98.139 Y107.748 E10.34078
G1 X98.34 Y106.867 E10.37083
G1 X98.571 Y106.14 E10.3962
G1 X98.731 Y105.693 E10.41199
G1 X99.072 Y104.857 E10.44202
G1 X99.487 Y104.054 E10.47209
G1 X100.105 Y103.103 E10.50981
G1 X100.376 Y102.733 E10.52506
G1 X100.942 Y102.029 E10.55511
G1 X101.622 Y101.325 E10.58766
M204 S2000
G1 F2400 E9.78766
;MESH:calf cylinder.stl
G0 F7500 X108.158 Y108.257
G0 X109.989 Y111.279
M204 S500
;TYPE:WALL-INNER
G1 F2400 E10.58766
G1 F1500 X110.338 Y111.232 E10.59938
G1 X110.596 Y111.123 E10.60869
G1 X110.957 Y110.837 E10.62401
G1 X111.123 Y110.611 E10.63334
G1 X111.246 Y110.285 E10.64492
G1 X111.278 Y109.947 E10.65622
G1 X111.229 Y109.673 E10.66547
G1 X111.126 Y109.395 E10.67534
G1 X110.927 Y109.121 E10.6866
G1 X110.699 Y108.938 E10.69632
G1 X110.277 Y108.758 E10.71158
G1 X110.011 Y108.721 E10.72051
G1 X109.662 Y108.768 E10.73223
G1 X109.404 Y108.877 E10.74154
G1 X109.043 Y109.163 E10.75686
G1 X108.874 Y109.391 E10.7663
G1 X108.754 Y109.713 E10.77773
G1 X108.723 Y110.051 E10.78902
G1 X108.772 Y110.329 E10.79841
G1 X108.874 Y110.606 E10.80822
G1 X109.073 Y110.879 E10.81946
G1 X109.301 Y111.062 E10.82918
G1 X109.723 Y111.243 E10.84446
G1 X109.989 Y111.279 E10.85339
M204 S2000
G0 F7500 X109.988 Y111.683
M204 S500
;TYPE:WALL-OUTER
G1 F1500 X110.444 Y111.622 E10.86869
G1 X110.786 Y111.477 E10.88104
G1 X111.042 Y111.308 E10.89124
G1 X111.258 Y111.103 E10.90115
G1 X111.479 Y110.803 E10.91354
G1 X111.639 Y110.375 E10.92874
G1 X111.682 Y109.931 E10.94358
G1 X111.617 Y109.567 E10.95587
G1 X111.482 Y109.204 E10.96876
G1 X111.219 Y108.843 E10.98361
G1 X110.921 Y108.603 E10.99634
G1 X110.667 Y108.466 E11.00594
G1 X110.368 Y108.366 E11.01642
G1 X110.012 Y108.317 E11.02837
G1 X109.556 Y108.378 E11.04368
G1 X109.214 Y108.523 E11.05603
G1 X108.959 Y108.692 E11.06621
G1 X108.742 Y108.897 E11.07614
G1 X108.519 Y109.199 E11.08862
G1 X108.36 Y109.623 E11.10368
G1 X108.319 Y110.068 E11.11855
G1 X108.384 Y110.435 E11.13094
G1 X108.518 Y110.796 E11.14375
G1 X108.781 Y111.157 E11.15861
G1 X109.079 Y111.397 E11.17133
G1 X109.333 Y111.534 E11.18093
G1 X109.632 Y111.634 E11.19142
G1 X109.988 Y111.683 E11.20337
M204 S2000
G0 F7500 X109.991 Y110.914
M204 S500
;TYPE:SKIN
G1 F1500 X109.812 Y110.89 E11.20938
G1 X109.494 Y110.754 E11.22088
G1 X109.334 Y110.627 E11.22767
G1 X109.199 Y110.441 E11.23532
G1 X109.086 Y110.027 E11.24959
G1 X109.109 Y109.798 E11.25725
G1 X109.196 Y109.563 E11.26558
G1 X109.31 Y109.407 E11.27201
G1 X109.579 Y109.195 E11.2834
G1 X109.757 Y109.119 E11.28984
G1 X110.01 Y109.086 E11.29832
G1 X110.188 Y109.11 E11.3043
G1 X110.506 Y109.246 E11.3158
G1 X110.663 Y109.371 E11.32247
G1 X110.805 Y109.567 E11.33052
G1 X110.915 Y109.96 E11.3441
G1 X110.891 Y110.2 E11.35212
G1 X110.801 Y110.442 E11.36071
G1 X110.692 Y110.588 E11.36677
G1 X110.418 Y110.805 E11.37839
G1 X110.242 Y110.881 E11.38477
G1 X109.991 Y110.914 E11.39319
M204 S2000
G0 F7500 X110.024 Y111.174
G0 X109.392 Y110.929
G0 X109.088 Y110.603
G0 X108.854 Y110.165
G0 X109.303 Y109.868
M204 S500
G1 F1500 X110.121 Y110.686 E11.43166
M204 S2000
G0 F7500 X110.491 Y110.491
M204 S500
G1 F1500 X109.506 Y109.506 E11.478
M204 S2000
G0 F7500 X109.878 Y109.312
M204 S500
G1 F1500 X110.696 Y110.13 E11.51647
M104 S200
M204 S2000
G1 F2400 E10.71647
;MESH:NONMESH
G0 F300 X110.696 Y110.13 Z0.4
G0 F7500 X111.155 Y110.174
G0 X110.983 Y109.472
G0 X110.608 Y109.071
G0 X110.125 Y108.919
G0 X109.098 Y108.86
G0 X108.352 Y108.073
G0 X101.622 Y101.325
;TIME_ELAPSED:19.855010
