;FLAVOR:Marlin
;TIME:2993
;Filament used: 2.6766m
;Layer height: 0.2
;MINX:76.5
;MINY:63.5
;MINZ:0.2
;MAXX:143.5
;MAXY:156.5
;MAXZ:8
;TARGET_MACHINE.NAME:Creality Ender-3 S1
;Generated with Cura_SteamEngine 5.6.0
M82 ;absolute extrusion mode
; Ender 3 S1 Start G-code
; M413 S0 ; Disable power loss recovery
G92 E0 ; Reset Extruder

; Prep surfaces before auto home for better accuracy
M140 S60
M104 S200

G28 ; Home all axes
G1 Z10.0 F3000 ; Move Z Axis up little to prevent scratching of Heat Bed
G1 X0 Y0

M190 S60
M109 S200

G1 X0.1 Y20 Z0.3 F5000.0 ; Move to start position
G1 X0.1 Y200.0 Z0.3 F1500.0 E15 ; Draw the first line
G1 X0.4 Y200.0 Z0.3 F5000.0 ; Move to side a little
G1 X0.4 Y20 Z0.3 F1500.0 E30 ; Draw the second line
G92 E0 ; Reset Extruder
G1 Z2.0 F3000 ; Move Z Axis up little to prevent scratching of Heat Bed
G1 X5 Y20 Z0.3 F5000.0 ; Move over to prevent blob squish

G92 E0
G92 E0
G1 F2400 E-0.8
;LAYER_COUNT:40
;LAYER:0
M107
M204 S2000
G0 F7500 X79.231 Y67.265 Z0.2
M204 S500
;TYPE:SKIRT
G1 F2400 E0
G1 F1500 X79.956 Y66.513 E0.03474
G1 X80.692 Y65.876 E0.06712
G1 X81.424 Y65.346 E0.09718
G1 X82.321 Y64.811 E0.13191
G1 X83.199 Y64.39 E0.1643
G1 X84.112 Y64.048 E0.19673
G1 X85.049 Y63.789 E0.22906
G1 X86.016 Y63.611 E0.26176
G1 X87.155 Y63.515 E0.29978
G1 X87.812 Y63.5 E0.32164
G1 X131.804 Y63.5 E1.78482
G1 X132.684 Y63.513 E1.81409
G1 X133.656 Y63.572 E1.84648
G1 X134.619 Y63.718 E1.87887
G1 X135.566 Y63.949 E1.91129
G1 X136.454 Y64.249 E1.94247
G1 X137.346 Y64.639 E1.97485
G1 X138.229 Y65.126 E2.00839
G1 X138.98 Y65.628 E2.03843
G1 X139.795 Y66.286 E2.07327
G1 X140.493 Y66.964 E2.10564
G1 X141.129 Y67.701 E2.13802
G1 X141.699 Y68.491 E2.17042
G1 X142.161 Y69.267 E2.20045
G1 X142.615 Y70.209 E2.23523
G1 X142.944 Y71.087 E2.26642
G1 X143.213 Y72.059 E2.29996
G1 X143.39 Y73.025 E2.33263
G1 X143.485 Y74.155 E2.37034
G1 X143.5 Y74.83 E2.3928
G1 X143.499 Y144.9 E4.72334
G1 X143.488 Y145.663 E4.74872
G1 X143.431 Y146.636 E4.78114
G1 X143.286 Y147.599 E4.81353
G1 X143.057 Y148.545 E4.8459
G1 X142.746 Y149.469 E4.87833
G1 X142.354 Y150.36 E4.9107
G1 X141.886 Y151.212 E4.94303
G1 X141.364 Y151.993 E4.97428
G1 X140.731 Y152.778 E5.00782
G1 X140.106 Y153.429 E5.03783
G1 X139.317 Y154.117 E5.07265
G1 X138.557 Y154.667 E5.10385
G1 X137.69 Y155.184 E5.13743
G1 X136.812 Y155.606 E5.16983
G1 X135.901 Y155.948 E5.20219
G1 X134.962 Y156.209 E5.23461
G1 X133.996 Y156.387 E5.26728
G1 X132.845 Y156.485 E5.3057
G1 X132.17 Y156.5 E5.32816
G1 X88.064 Y156.499 E6.79513
G1 X87.331 Y156.488 E6.81951
G1 X86.359 Y156.431 E6.85189
G1 X85.396 Y156.285 E6.88429
G1 X84.45 Y156.056 E6.91666
G1 X83.526 Y155.744 E6.9491
G1 X82.636 Y155.352 E6.98144
G1 X81.813 Y154.901 E7.01266
G1 X80.974 Y154.34 E7.04623
G1 X80.27 Y153.774 E7.07627
G1 X79.517 Y153.049 E7.11104
G1 X78.88 Y152.313 E7.14341
G1 X78.35 Y151.582 E7.17344
G1 X77.814 Y150.685 E7.2082
G1 X77.392 Y149.807 E7.2406
G1 X77.05 Y148.895 E7.27299
G1 X76.79 Y147.957 E7.30537
G1 X76.612 Y146.988 E7.33814
G1 X76.514 Y145.809 E7.37749
G1 X76.5 Y145.158 E7.39914
G1 X76.501 Y75.025 E9.73178
G1 X76.512 Y74.325 E9.75506
G1 X76.57 Y73.352 E9.78748
G1 X76.716 Y72.389 E9.81988
G1 X76.946 Y71.443 E9.85226
G1 X77.259 Y70.52 E9.88467
G1 X77.651 Y69.63 E9.91702
G1 X78.121 Y68.777 E9.94941
G1 X78.664 Y67.969 E9.98179
G1 X79.231 Y67.265 E10.01186
M204 S2000
G0 F7500 X79.543 Y67.516
M204 S500
G1 F1500 X80.218 Y66.815 E10.04422
G1 X80.927 Y66.2 E10.07544
G1 X81.659 Y65.67 E10.1055
G1 X82.495 Y65.171 E10.13788
G1 X83.34 Y64.764 E10.16908
G1 X84.219 Y64.433 E10.20032
G1 X85.122 Y64.182 E10.23149
G1 X86.05 Y64.01 E10.26288
G1 X87.189 Y63.914 E10.3009
G1 X87.821 Y63.9 E10.32192
G1 X131.798 Y63.9 E11.7846
G1 X132.66 Y63.912 E11.81328
G1 X133.597 Y63.968 E11.8445
G1 X134.525 Y64.107 E11.87571
G1 X135.438 Y64.328 E11.90695
G1 X136.294 Y64.616 E11.93699
G1 X137.186 Y65.006 E11.96937
G1 X138.007 Y65.459 E12.00056
G1 X138.758 Y65.961 E12.0306
G1 X139.517 Y66.573 E12.06303
G1 X140.191 Y67.226 E12.09424
G1 X140.805 Y67.935 E12.12544
G1 X141.355 Y68.696 E12.15667
G1 X141.817 Y69.472 E12.1867
G1 X142.24 Y70.349 E12.21909
G1 X142.569 Y71.227 E12.25027
G1 X142.82 Y72.132 E12.28151
G1 X142.991 Y73.059 E12.31286
G1 X143.086 Y74.189 E12.35058
G1 X143.1 Y74.83 E12.3719
G1 X143.099 Y144.895 E14.70228
G1 X143.089 Y145.64 E14.72706
G1 X143.035 Y146.577 E14.75827
G1 X142.897 Y147.506 E14.78951
G1 X142.678 Y148.418 E14.82071
G1 X142.38 Y149.308 E14.85192
G1 X142.003 Y150.168 E14.88316
G1 X141.553 Y150.99 E14.91432
G1 X141.031 Y151.771 E14.94557
G1 X140.442 Y152.501 E14.97677
G1 X139.817 Y153.152 E15.00678
G1 X139.082 Y153.793 E15.03922
G1 X138.322 Y154.343 E15.07042
G1 X137.516 Y154.824 E15.10164
G1 X136.671 Y155.232 E15.13285
G1 X135.793 Y155.563 E15.16406
G1 X134.889 Y155.816 E15.19528
G1 X133.962 Y155.988 E15.22664
G1 X132.811 Y156.086 E15.26506
G1 X132.17 Y156.1 E15.28638
G1 X88.07 Y156.099 E16.75316
G1 X87.354 Y156.089 E16.77697
G1 X86.418 Y156.035 E16.80816
G1 X85.489 Y155.896 E16.8394
G1 X84.577 Y155.677 E16.87059
G1 X83.687 Y155.378 E16.90182
G1 X82.828 Y155.001 E16.93302
G1 X82.005 Y154.55 E16.96424
G1 X81.225 Y154.028 E16.99545
G1 X80.521 Y153.462 E17.0255
G1 X79.819 Y152.787 E17.05789
G1 X79.204 Y152.078 E17.0891
G1 X78.674 Y151.347 E17.11914
G1 X78.174 Y150.511 E17.15153
G1 X77.766 Y149.666 E17.18274
G1 X77.435 Y148.788 E17.21395
G1 X77.183 Y147.884 E17.24517
G1 X77.011 Y146.955 E17.27659
G1 X76.913 Y145.776 E17.31594
G1 X76.9 Y145.158 E17.3365
G1 X76.901 Y75.031 E19.66893
G1 X76.911 Y74.348 E19.69165
G1 X76.966 Y73.411 E19.72287
G1 X77.105 Y72.483 E19.75408
G1 X77.325 Y71.571 E19.78528
G1 X77.625 Y70.681 E19.81652
G1 X78.002 Y69.822 E19.84772
G1 X78.453 Y69 E19.87891
G1 X78.976 Y68.22 E19.91014
G1 X79.543 Y67.516 E19.94021
M204 S2000
G0 F7500 X79.855 Y67.767
M204 S500
G1 F1500 X80.481 Y67.117 E19.97022
G1 X81.162 Y66.524 E20.00025
G1 X81.894 Y65.994 E20.03031
G1 X82.669 Y65.531 E20.06034
G1 X83.482 Y65.138 E20.09037
G1 X84.327 Y64.818 E20.12043
G1 X85.196 Y64.575 E20.15044
G1 X86.084 Y64.409 E20.18048
G1 X87.223 Y64.313 E20.2185
G1 X87.83 Y64.3 E20.2387
G1 X131.793 Y64.3 E21.70091
G1 X132.637 Y64.311 E21.72898
G1 X133.539 Y64.364 E21.75904
G1 X134.432 Y64.496 E21.78906
G1 X135.31 Y64.707 E21.81909
G1 X136.166 Y64.995 E21.84913
G1 X136.993 Y65.357 E21.87916
G1 X137.785 Y65.792 E21.90921
G1 X138.536 Y66.294 E21.93926
G1 X139.239 Y66.861 E21.9693
G1 X139.889 Y67.488 E21.99934
G1 X140.481 Y68.17 E22.02937
G1 X141.011 Y68.901 E22.0594
G1 X141.473 Y69.677 E22.08944
G1 X141.866 Y70.49 E22.11948
G1 X142.184 Y71.335 E22.1495
G1 X142.427 Y72.205 E22.17955
G1 X142.592 Y73.093 E22.20959
G1 X142.687 Y74.223 E22.24731
G1 X142.7 Y74.83 E22.2675
G1 X142.699 Y144.89 E24.5977
G1 X142.69 Y145.617 E24.62189
G1 X142.639 Y146.519 E24.65193
G1 X142.508 Y147.413 E24.68199
G1 X142.299 Y148.291 E24.71201
G1 X142.013 Y149.148 E24.74205
G1 X141.652 Y149.976 E24.7721
G1 X141.22 Y150.768 E24.8021
G1 X140.719 Y151.52 E24.83216
G1 X140.153 Y152.224 E24.8622
G1 X139.528 Y152.875 E24.89222
G1 X138.847 Y153.469 E24.92227
G1 X138.116 Y154 E24.95232
G1 X137.342 Y154.464 E24.98234
G1 X136.529 Y154.858 E25.01239
G1 X135.685 Y155.178 E25.04241
G1 X134.815 Y155.423 E25.07247
G1 X133.928 Y155.589 E25.10248
G1 X132.777 Y155.687 E25.14091
G1 X132.17 Y155.7 E25.1611
G1 X88.075 Y155.699 E26.6277
G1 X87.377 Y155.69 E26.65092
G1 X86.476 Y155.639 E26.68094
G1 X85.582 Y155.507 E26.71099
G1 X84.704 Y155.298 E26.74101
G1 X83.847 Y155.011 E26.77107
G1 X83.02 Y154.65 E26.80109
G1 X82.227 Y154.217 E26.83114
G1 X81.476 Y153.716 E26.86116
G1 X80.772 Y153.15 E26.89121
G1 X80.121 Y152.524 E26.92125
G1 X79.528 Y151.843 E26.95128
G1 X78.998 Y151.112 E26.98131
G1 X78.534 Y150.337 E27.01135
G1 X78.14 Y149.524 E27.0414
G1 X77.82 Y148.68 E27.07142
G1 X77.576 Y147.81 E27.10148
G1 X77.41 Y146.922 E27.13152
G1 X77.313 Y145.767 E27.17007
G1 X77.3 Y145.158 E27.19033
G1 X77.301 Y75.036 E29.5226
G1 X77.31 Y74.371 E29.54472
G1 X77.362 Y73.469 E29.57477
G1 X77.494 Y72.576 E29.6048
G1 X77.704 Y71.698 E29.63482
G1 X77.991 Y70.841 E29.66488
G1 X78.353 Y70.014 E29.69491
G1 X78.786 Y69.222 E29.72493
G1 X79.288 Y68.471 E29.75497
G1 X79.855 Y67.767 E29.78504
M204 S2000
G1 F2400 E28.98504
;MESH:thigh cover.stl
G0 F7500 X86.835 Y74.92
G0 X131.9 Y144.9
M204 S500
;TYPE:WALL-INNER
G1 F2400 E29.78504
G1 F1500 X131.9 Y75.1 E32.1066
G1 X88.1 Y75.1 E33.56339
G1 X88.1 Y144.9 E35.88495
G1 X131.9 Y144.9 E37.34174
M204 S2000
G0 F7500 X132.3 Y145.3
M204 S500
;TYPE:WALL-OUTER
G1 F1500 X132.3 Y74.7 E39.68991
G1 X87.7 Y74.7 E41.17331
G1 X87.7 Y145.3 E43.52148
G1 X132.3 Y145.3 E45.00488
M204 S2000
G0 F7500 X132.03 Y145.03
G0 X131.8 Y144.54
G0 X131.54 Y144.54
M204 S500
;TYPE:SKIN
G1 F1500 X88.46 Y144.54 E46.43772
G1 X88.46 Y75.46 E48.73533
G1 X131.54 Y75.46 E50.16818
G1 X131.54 Y144.54 E52.46579
M204 S2000
G1 F2400 E51.66579
G0 F7500 X131.8 Y144.54
G0 X88.901 Y144.8
G0 X88.901 Y144.338
M204 S500
G1 F2400 E52.46579
G1 F1500 X88.659 Y144.096 E52.47717
M204 S2000
G0 F7500 X88.659 Y143.53
M204 S500
G1 F1500 X89.467 Y144.338 E52.51518
M204 S2000
G0 F7500 X90.033 Y144.338
M204 S500
G1 F1500 X88.659 Y142.964 E52.57981
M204 S2000
G0 F7500 X88.659 Y142.399
M204 S500
G1 F1500 X90.598 Y144.338 E52.67101
M204 S2000
G0 F7500 X91.164 Y144.338
M204 S500
G1 F1500 X88.659 Y141.833 E52.78884
M204 S2000
G0 F7500 X88.659 Y141.267
M204 S500
G1 F1500 X91.73 Y144.338 E52.93329
M204 S2000
G0 F7500 X92.295 Y144.338
M204 S500
G1 F1500 X88.659 Y140.702 E53.10432
M204 S2000
G0 F7500 X88.659 Y140.136
M204 S500
G1 F1500 X92.861 Y144.338 E53.30197
M204 S2000
G0 F7500 X93.427 Y144.338
M204 S500
G1 F1500 X88.659 Y139.57 E53.52624
M204 S2000
G0 F7500 X88.659 Y139.005
M204 S500
G1 F1500 X93.992 Y144.338 E53.77709
M204 S2000
G0 F7500 X94.558 Y144.338
M204 S500
G1 F1500 X88.659 Y138.439 E54.05456
M204 S2000
G0 F7500 X88.659 Y137.873
M204 S500
G1 F1500 X95.124 Y144.338 E54.35865
M204 S2000
G0 F7500 X95.689 Y144.338
M204 S500
G1 F1500 X88.659 Y137.308 E54.68932
M204 S2000
G0 F7500 X88.659 Y136.742
M204 S500
G1 F1500 X96.255 Y144.338 E55.04661
M204 S2000
G0 F7500 X96.821 Y144.338
M204 S500
G1 F1500 X88.659 Y136.176 E55.43053
M204 S2000
G0 F7500 X88.659 Y135.611
M204 S500
G1 F1500 X97.386 Y144.338 E55.84102
M204 S2000
G0 F7500 X97.952 Y144.338
M204 S500
G1 F1500 X88.659 Y135.045 E56.27813
M204 S2000
G0 F7500 X88.659 Y134.479
M204 S500
G1 F1500 X98.518 Y144.338 E56.74187
M204 S2000
G0 F7500 X99.084 Y144.338
M204 S500
G1 F1500 X88.659 Y133.914 E57.23221
M204 S2000
G0 F7500 X88.659 Y133.348
M204 S500
G1 F1500 X99.649 Y144.338 E57.74914
M204 S2000
G0 F7500 X100.215 Y144.338
M204 S500
G1 F1500 X88.659 Y132.782 E58.2927
M204 S2000
G0 F7500 X88.659 Y132.216
M204 S500
G1 F1500 X100.781 Y144.338 E58.86288
M204 S2000
G0 F7500 X101.346 Y144.338
M204 S500
G1 F1500 X88.659 Y131.651 E59.45964
M204 S2000
G0 F7500 X88.659 Y131.085
M204 S500
G1 F1500 X101.912 Y144.338 E60.08302
M204 S2000
G0 F7500 X102.478 Y144.338
M204 S500
G1 F1500 X88.659 Y130.519 E60.73303
M204 S2000
G0 F7500 X88.659 Y129.954
M204 S500
G1 F1500 X103.043 Y144.338 E61.40961
M204 S2000
G0 F7500 X103.609 Y144.338
M204 S500
G1 F1500 X88.659 Y129.388 E62.11281
M204 S2000
G0 F7500 X88.659 Y128.822
M204 S500
G1 F1500 X104.175 Y144.338 E62.84263
M204 S2000
G0 F7500 X104.74 Y144.338
M204 S500
G1 F1500 X88.659 Y128.257 E63.59903
M204 S2000
G0 F7500 X88.659 Y127.691
M204 S500
G1 F1500 X105.306 Y144.338 E64.38206
M204 S2000
G0 F7500 X105.872 Y144.338
M204 S500
G1 F1500 X88.659 Y127.125 E65.1917
M204 S2000
G0 F7500 X88.659 Y126.56
M204 S500
G1 F1500 X106.437 Y144.338 E66.02793
M204 S2000
G0 F7500 X107.003 Y144.338
M204 S500
G1 F1500 X88.659 Y125.994 E66.89077
M204 S2000
G0 F7500 X88.659 Y125.428
M204 S500
G1 F1500 X107.569 Y144.338 E67.78024
M204 S2000
G0 F7500 X108.135 Y144.338
M204 S500
G1 F1500 X88.659 Y124.863 E68.69631
M204 S2000
G0 F7500 X88.659 Y124.297
M204 S500
G1 F1500 X108.7 Y144.338 E69.63898
M204 S2000
G0 F7500 X109.266 Y144.338
M204 S500
G1 F1500 X88.659 Y123.731 E70.60827
M204 S2000
G0 F7500 X88.659 Y123.165
M204 S500
G1 F1500 X109.832 Y144.338 E71.60418
M204 S2000
G0 F7500 X110.397 Y144.338
M204 S500
G1 F1500 X88.659 Y122.6 E72.62667
M204 S2000
G0 F7500 X88.659 Y122.034
M204 S500
G1 F1500 X110.963 Y144.338 E73.67578
M204 S2000
G0 F7500 X111.529 Y144.338
M204 S500
G1 F1500 X88.659 Y121.468 E74.75151
M204 S2000
G0 F7500 X88.659 Y120.903
M204 S500
G1 F1500 X112.094 Y144.338 E75.85382
M204 S2000
G0 F7500 X112.66 Y144.338
M204 S500
G1 F1500 X88.659 Y120.337 E76.98276
M204 S2000
G0 F7500 X88.659 Y119.771
M204 S500
G1 F1500 X113.226 Y144.338 E78.13831
M204 S2000
G0 F7500 X113.791 Y144.338
M204 S500
G1 F1500 X88.659 Y119.206 E79.32045
M204 S2000
G0 F7500 X88.659 Y118.64
M204 S500
G1 F1500 X114.357 Y144.338 E80.5292
M204 S2000
G0 F7500 X114.923 Y144.338
M204 S500
G1 F1500 X88.659 Y118.074 E81.76458
M204 S2000
G0 F7500 X88.659 Y117.509
M204 S500
G1 F1500 X115.488 Y144.338 E83.02653
M204 S2000
G0 F7500 X116.054 Y144.338
M204 S500
G1 F1500 X88.659 Y116.943 E84.31511
M204 S2000
G0 F7500 X88.659 Y116.377
M204 S500
G1 F1500 X116.62 Y144.338 E85.63031
M204 S2000
G0 F7500 X117.185 Y144.338
M204 S500
G1 F1500 X88.659 Y115.812 E86.97209
M204 S2000
G0 F7500 X88.659 Y115.246
M204 S500
G1 F1500 X117.751 Y144.338 E88.34048
M204 S2000
G0 F7500 X118.317 Y144.338
M204 S500
G1 F1500 X88.659 Y114.68 E89.73551
M204 S2000
G0 F7500 X88.659 Y114.115
M204 S500
G1 F1500 X118.883 Y144.338 E91.15713
M204 S2000
G0 F7500 X119.448 Y144.338
M204 S500
G1 F1500 X88.659 Y113.549 E92.60535
M204 S2000
G0 F7500 X88.659 Y112.983
M204 S500
G1 F1500 X120.014 Y144.338 E94.08019
M204 S2000
G0 F7500 X120.58 Y144.338
M204 S500
G1 F1500 X88.659 Y112.417 E95.58166
M204 S2000
G0 F7500 X88.659 Y111.852
M204 S500
G1 F1500 X121.145 Y144.338 E97.1097
M204 S2000
G0 F7500 X121.711 Y144.338
M204 S500
G1 F1500 X88.659 Y111.286 E98.66436
M204 S2000
G0 F7500 X88.659 Y110.72
M204 S500
G1 F1500 X122.277 Y144.338 E100.24565
M204 S2000
G0 F7500 X122.842 Y144.338
M204 S500
G1 F1500 X88.659 Y110.155 E101.85351
M204 S2000
G0 F7500 X88.659 Y109.589
M204 S500
G1 F1500 X123.408 Y144.338 E103.488
M204 S2000
G0 F7500 X123.974 Y144.338
M204 S500
G1 F1500 X88.659 Y109.023 E105.14911
M204 S2000
G0 F7500 X88.659 Y108.458
M204 S500
G1 F1500 X124.539 Y144.338 E106.83679
M204 S2000
G0 F7500 X125.105 Y144.338
M204 S500
G1 F1500 X88.659 Y107.892 E108.5511
M204 S2000
G0 F7500 X88.659 Y107.326
M204 S500
G1 F1500 X125.671 Y144.338 E110.29203
M204 S2000
G0 F7500 X126.236 Y144.338
M204 S500
G1 F1500 X88.659 Y106.761 E112.05954
M204 S2000
G0 F7500 X88.659 Y106.195
M204 S500
G1 F1500 X126.802 Y144.338 E113.85367
M204 S2000
G0 F7500 X127.368 Y144.338
M204 S500
G1 F1500 X88.659 Y105.629 E115.67442
M204 S2000
G0 F7500 X88.659 Y105.064
M204 S500
G1 F1500 X127.934 Y144.338 E117.52177
M204 S2000
G0 F7500 X128.499 Y144.338
M204 S500
G1 F1500 X88.659 Y104.498 E119.39573
M204 S2000
G0 F7500 X88.659 Y103.932
M204 S500
G1 F1500 X129.065 Y144.338 E121.2963
M204 S2000
G0 F7500 X129.631 Y144.338
M204 S500
G1 F1500 X88.659 Y103.366 E123.2235
M204 S2000
G0 F7500 X88.659 Y102.801
M204 S500
G1 F1500 X130.196 Y144.338 E125.17727
M204 S2000
G0 F7500 X130.762 Y144.338
M204 S500
G1 F1500 X88.659 Y102.235 E127.15767
M204 S2000
G0 F7500 X88.659 Y101.669
M204 S500
G1 F1500 X131.328 Y144.338 E129.16469
M204 S2000
G0 F7500 X131.34 Y143.785
M204 S500
G1 F1500 X88.659 Y101.104 E131.17227
M204 S2000
G0 F7500 X88.659 Y100.538
M204 S500
G1 F1500 X131.34 Y143.219 E133.17985
M204 S2000
G0 F7500 X131.34 Y142.653
M204 S500
G1 F1500 X88.659 Y99.972 E135.18744
M204 S2000
G0 F7500 X88.659 Y99.407
M204 S500
G1 F1500 X131.34 Y142.088 E137.19502
M204 S2000
G0 F7500 X131.34 Y141.522
M204 S500
G1 F1500 X88.659 Y98.841 E139.2026
M204 S2000
G0 F7500 X88.659 Y98.275
M204 S500
G1 F1500 X131.34 Y140.956 E141.21019
M204 S2000
G0 F7500 X131.34 Y140.391
M204 S500
G1 F1500 X88.659 Y97.71 E143.21777
M204 S2000
G0 F7500 X88.659 Y97.144
M204 S500
G1 F1500 X131.34 Y139.825 E145.22535
M204 S2000
G0 F7500 X131.34 Y139.259
M204 S500
G1 F1500 X88.659 Y96.578 E147.23294
M204 S2000
G0 F7500 X88.659 Y96.013
M204 S500
