;FLAVOR:Marlin
;TIME:398
;Filament used: 0.120384m
;Layer height: 0.2
;MINX:96.736
;MINY:96.736
;MINZ:0.2
;MAXX:123.264
;MAXY:123.264
;MAXZ:30
;TARGET_MACHINE.NAME:Creality Ender-3 S1
;Generated with Cura_SteamEngine 5.6.0
M82 ;absolute extrusion mode
; Ender 3 S1 Start G-code
; M413 S0 ; Disable power loss recovery
G92 E0 ; Reset Extruder

; Prep surfaces before auto home for better accuracy
M140 S60
M104 S200

G28 ; Home all axes
G1 Z10.0 F3000 ; Move Z Axis up little to prevent scratching of Heat Bed
G1 X0 Y0

M190 S60
M109 S200

G1 X0.1 Y20 Z0.3 F5000.0 ; Move to start position
G1 X0.1 Y200.0 Z0.3 F1500.0 E15 ; Draw the first line
G1 X0.4 Y200.0 Z0.3 F5000.0 ; Move to side a little
G1 X0.4 Y20 Z0.3 F1500.0 E30 ; Draw the second line
G92 E0 ; Reset Extruder
G1 Z2.0 F3000 ; Move Z Axis up little to prevent scratching of Heat Bed
G1 X5 Y20 Z0.3 F5000.0 ; Move over to prevent blob squish

G92 E0
G92 E0
G1 F2400 E-0.8
;LAYER_COUNT:150
;LAYER:0
M107
M204 S2000
G0 F7500 X100.666 Y100.58 Z0.2
M204 S500
;TYPE:SKIRT
G1 F2400 E0
G1 F1500 X101.44 Y99.87 E0.03493
G1 X102.183 Y99.29 E0.06628
G1 X103.006 Y98.727 E0.09945
G1 X103.68 Y98.339 E0.12532
G1 X104.646 Y97.865 E0.1611
G1 X105.427 Y97.555 E0.18905
G1 X106.399 Y97.234 E0.2231
G1 X107.225 Y97.032 E0.25138
G1 X108.191 Y96.86 E0.28402
G1 X109.197 Y96.764 E0.31763
G1 X110.099 Y96.736 E0.34764
G1 X111.152 Y96.791 E0.38271
G1 X112.144 Y96.912 E0.41595
G1 X113.035 Y97.093 E0.44619
G1 X114.003 Y97.354 E0.47954
G1 X114.857 Y97.661 E0.50972
G1 X115.998 Y98.176 E0.55136
G1 X116.364 Y98.367 E0.56509
G1 X117.144 Y98.822 E0.59512
G1 X117.884 Y99.337 E0.62511
G1 X118.129 Y99.524 E0.63536
G1 X118.847 Y100.119 E0.66637
G1 X119.435 Y100.683 E0.69347
G1 X120.133 Y101.44 E0.72772
G1 X120.693 Y102.159 E0.75803
G1 X121.279 Y103.019 E0.79265
G1 X121.671 Y103.704 E0.8189
G1 X122.113 Y104.599 E0.8521
G1 X122.436 Y105.406 E0.88101
G1 X122.752 Y106.358 E0.91437
G1 X122.981 Y107.292 E0.94635
G1 X123.139 Y108.181 E0.97639
G1 X123.236 Y109.193 E1.0102
G1 X123.264 Y110.192 E1.04344
G1 X123.224 Y111.006 E1.07055
G1 X123.099 Y112.074 E1.10631
G1 X122.917 Y112.997 E1.1376
G1 X122.687 Y113.871 E1.16766
G1 X122.344 Y114.844 E1.20197
G1 X121.818 Y116.008 E1.24446
G1 X121.638 Y116.349 E1.25728
G1 X121.132 Y117.212 E1.29056
G1 X120.68 Y117.859 E1.31681
G1 X120.495 Y118.105 E1.32704
G1 X119.881 Y118.849 E1.35913
G1 X119.334 Y119.42 E1.38543
G1 X118.562 Y120.13 E1.42031
G1 X117.84 Y120.694 E1.45079
G1 X116.998 Y121.268 E1.48468
G1 X116.244 Y121.699 E1.51356
G1 X115.434 Y122.098 E1.5436
G1 X114.602 Y122.433 E1.57343
G1 X113.606 Y122.765 E1.60835
G1 X112.775 Y122.968 E1.6368
G1 X111.809 Y123.14 E1.66943
G1 X110.792 Y123.237 E1.70341
G1 X109.889 Y123.264 E1.73346
G1 X108.836 Y123.209 E1.76853
G1 X107.847 Y123.086 E1.80168
G1 X106.965 Y122.907 E1.83161
G1 X105.997 Y122.646 E1.86496
G1 X105.13 Y122.334 E1.8956
G1 X104.02 Y121.833 E1.93611
G1 X103.635 Y121.632 E1.95055
G1 X102.855 Y121.177 E1.98059
G1 X102.116 Y120.663 E2.01053
G1 X101.871 Y120.476 E2.02078
G1 X101.175 Y119.9 E2.05083
G1 X100.542 Y119.292 E2.08002
G1 X99.868 Y118.56 E2.11312
G1 X99.444 Y118.023 E2.13587
G1 X99.239 Y117.747 E2.14731
G1 X98.717 Y116.973 E2.17836
G1 X98.327 Y116.293 E2.20443
G1 X97.902 Y115.433 E2.23634
G1 X97.562 Y114.587 E2.26666
G1 X97.237 Y113.612 E2.30084
G1 X97.032 Y112.775 E2.32951
G1 X96.852 Y111.745 E2.36428
G1 X96.764 Y110.811 E2.39549
G1 X96.736 Y109.812 E2.42873
G1 X96.776 Y108.997 E2.45587
G1 X96.898 Y107.936 E2.49139
G1 X97.024 Y107.281 E2.51357
G1 X97.123 Y106.837 E2.5287
G1 X97.388 Y105.864 E2.56224
G1 X97.699 Y105.016 E2.59228
G1 X98.143 Y104.066 E2.62716
G1 X98.363 Y103.648 E2.64287
G1 X98.85 Y102.815 E2.67497
G1 X99.315 Y102.147 E2.70204
G1 X99.5 Y101.902 E2.71225
G1 X100.133 Y101.135 E2.74532
G1 X100.666 Y100.58 E2.77092
M204 S2000
G0 F7500 X100.955 Y100.857
M204 S500
G1 F1500 X101.686 Y100.185 E2.80394
G1 X102.409 Y99.62 E2.83446
G1 X103.206 Y99.074 E2.86659
G1 X103.88 Y98.686 E2.89246
G1 X104.794 Y98.237 E2.92633
G1 X105.553 Y97.935 E2.9535
G1 X106.494 Y97.623 E2.98647
G1 X107.32 Y97.421 E3.01476
G1 X108.261 Y97.254 E3.04654
G1 X109.209 Y97.164 E3.07821
G1 X110.111 Y97.136 E3.10823
G1 X111.104 Y97.188 E3.1413
G1 X112.065 Y97.304 E3.1735
G1 X112.931 Y97.479 E3.20288
G1 X113.868 Y97.73 E3.23515
G1 X114.692 Y98.026 E3.26427
G1 X115.833 Y98.541 E3.3059
G1 X116.162 Y98.713 E3.31825
G1 X116.942 Y99.168 E3.34829
G1 X117.642 Y99.656 E3.37667
G1 X117.874 Y99.832 E3.38635
G1 X118.57 Y100.408 E3.4164
G1 X119.158 Y100.972 E3.4435
G1 X119.817 Y101.686 E3.47582
G1 X120.377 Y102.405 E3.50613
G1 X120.948 Y103.244 E3.53988
G1 X121.313 Y103.882 E3.56433
G1 X121.742 Y104.748 E3.59647
G1 X122.057 Y105.533 E3.62461
G1 X122.364 Y106.453 E3.65687
G1 X122.587 Y107.362 E3.688
G1 X122.745 Y108.251 E3.71803
G1 X122.836 Y109.205 E3.7499
G1 X122.864 Y110.172 E3.78208
G1 X122.824 Y110.986 E3.80918
G1 X122.707 Y111.997 E3.84303
G1 X122.53 Y112.895 E3.87348
G1 X122.3 Y113.769 E3.90354
G1 X121.979 Y114.679 E3.93563
G1 X121.453 Y115.843 E3.97811
G1 X121.293 Y116.147 E3.98954
G1 X120.804 Y116.983 E4.02175
G1 X120.361 Y117.618 E4.0475
G1 X120.186 Y117.85 E4.05717
G1 X119.572 Y118.594 E4.08925
G1 X119.045 Y119.143 E4.11457
G1 X118.315 Y119.815 E4.14757
G1 X117.615 Y120.363 E4.17713
G1 X116.773 Y120.937 E4.21103
G1 X116.067 Y121.34 E4.23807
G1 X115.257 Y121.739 E4.2681
G1 X114.453 Y122.062 E4.29692
G1 X113.511 Y122.376 E4.32994
G1 X112.68 Y122.579 E4.35839
G1 X111.739 Y122.746 E4.39018
G1 X110.78 Y122.837 E4.42222
G1 X109.877 Y122.864 E4.45227
G1 X108.885 Y122.812 E4.48531
G1 X107.926 Y122.694 E4.51744
G1 X107.069 Y122.521 E4.54652
G1 X106.132 Y122.27 E4.57879
G1 X105.295 Y121.969 E4.60837
G1 X104.185 Y121.468 E4.64888
G1 X103.837 Y121.286 E4.66194
G1 X103.057 Y120.831 E4.69197
G1 X102.358 Y120.344 E4.72031
G1 X102.126 Y120.168 E4.72999
G1 X101.43 Y119.592 E4.76004
G1 X100.836 Y119.021 E4.78744
G1 X100.182 Y118.312 E4.81953
G1 X99.765 Y117.784 E4.8419
G1 X99.571 Y117.523 E4.85272
G1 X99.049 Y116.749 E4.88377
G1 X98.686 Y116.116 E4.90804
G1 X98.261 Y115.256 E4.93995
G1 X97.933 Y114.438 E4.96926
G1 X97.626 Y113.517 E5.00155
G1 X97.421 Y112.68 E5.03021
G1 X97.25 Y111.707 E5.06307
G1 X97.164 Y110.799 E5.0934
G1 X97.136 Y109.832 E5.12558
G1 X97.176 Y109.017 E5.15272
G1 X97.291 Y108.011 E5.1864
G1 X97.414 Y107.368 E5.20817
G1 X97.509 Y106.942 E5.22269
G1 X97.764 Y106.002 E5.25508
G1 X98.075 Y105.154 E5.28512
G1 X98.497 Y104.252 E5.31825
G1 X98.708 Y103.85 E5.33335
G1 X99.179 Y103.043 E5.36442
G1 X99.634 Y102.388 E5.39095
G1 X99.809 Y102.156 E5.40062
G1 X100.422 Y101.412 E5.43268
G1 X100.955 Y100.857 E5.45827
M204 S2000
G0 F7500 X101.244 Y101.134
M204 S500
G1 F1500 X101.932 Y100.5 E5.48939
G1 X102.635 Y99.95 E5.51908
G1 X103.406 Y99.421 E5.55018
G1 X104.08 Y99.033 E5.57604
G1 X104.942 Y98.609 E5.60799
G1 X105.679 Y98.315 E5.63438
G1 X106.589 Y98.012 E5.66629
G1 X107.415 Y97.81 E5.69457
G1 X108.331 Y97.648 E5.72551
G1 X109.221 Y97.564 E5.75524
G1 X110.123 Y97.536 E5.78525
G1 X111.057 Y97.585 E5.81636
G1 X111.986 Y97.696 E5.84748
G1 X112.828 Y97.866 E5.87605
G1 X113.733 Y98.107 E5.9072
G1 X114.527 Y98.391 E5.93525
G1 X115.668 Y98.906 E5.97688
G1 X115.96 Y99.059 E5.98785
G1 X116.74 Y99.514 E6.01788
G1 X117.401 Y99.975 E6.04469
G1 X117.619 Y100.14 E6.05378
G1 X118.315 Y100.716 E6.08383
G1 X118.864 Y101.244 E6.10916
G1 X119.501 Y101.932 E6.14035
G1 X120.061 Y102.651 E6.17066
G1 X120.601 Y103.443 E6.20254
G1 X120.955 Y104.06 E6.2262
G1 X121.371 Y104.897 E6.25729
G1 X121.678 Y105.66 E6.28464
G1 X121.976 Y106.548 E6.3158
G1 X122.193 Y107.432 E6.34607
G1 X122.351 Y108.321 E6.3761
G1 X122.436 Y109.217 E6.40604
G1 X122.464 Y110.152 E6.43715
G1 X122.424 Y110.966 E6.46426
G1 X122.315 Y111.92 E6.49619
G1 X122.143 Y112.793 E6.52579
G1 X121.913 Y113.667 E6.55585
G1 X121.614 Y114.515 E6.58575
G1 X121.099 Y115.657 E6.62742
G1 X120.948 Y115.945 E6.63824
G1 X120.476 Y116.754 E6.66939
G1 X120.042 Y117.377 E6.69464
G1 X119.877 Y117.596 E6.70376
G1 X119.283 Y118.317 E6.73483
G1 X118.756 Y118.866 E6.76014
G1 X118.068 Y119.5 E6.79126
G1 X117.368 Y120.048 E6.82083
G1 X116.574 Y120.59 E6.8528
G1 X115.89 Y120.981 E6.87901
G1 X115.08 Y121.38 E6.90904
G1 X114.304 Y121.691 E6.93684
G1 X113.416 Y121.987 E6.96798
G1 X112.585 Y122.19 E6.99643
G1 X111.669 Y122.352 E7.02737
G1 X110.768 Y122.437 E7.05747
G1 X109.865 Y122.464 E7.08752
G1 X108.933 Y122.415 E7.11856
G1 X108.005 Y122.302 E7.14965
G1 X107.172 Y122.134 E7.17791
G1 X106.267 Y121.893 E7.20906
G1 X105.46 Y121.604 E7.23757
G1 X104.35 Y121.103 E7.27808
G1 X104.039 Y120.94 E7.28976
G1 X103.259 Y120.485 E7.31979
G1 X102.599 Y120.025 E7.34655
G1 X102.381 Y119.86 E7.35564
G1 X101.685 Y119.284 E7.38569
G1 X101.13 Y118.75 E7.41131
G1 X100.496 Y118.064 E7.44238
G1 X100.086 Y117.546 E7.46435
G1 X99.903 Y117.299 E7.47457
G1 X99.381 Y116.525 E7.50562
G1 X99.045 Y115.939 E7.52809
G1 X98.62 Y115.079 E7.56
G1 X98.312 Y114.311 E7.58752
G1 X98.015 Y113.422 E7.61869
G1 X97.81 Y112.585 E7.64735
G1 X97.644 Y111.638 E7.67933
G1 X97.564 Y110.787 E7.70776
G1 X97.536 Y109.852 E7.73887
G1 X97.576 Y109.037 E7.76601
G1 X97.684 Y108.086 E7.79785
G1 X97.804 Y107.455 E7.81921
G1 X97.895 Y107.046 E7.83315
G1 X98.14 Y106.14 E7.86436
G1 X98.451 Y105.292 E7.8944
G1 X98.851 Y104.438 E7.92577
G1 X99.054 Y104.051 E7.9403
G1 X99.508 Y103.271 E7.97032
G1 X99.954 Y102.628 E7.99635
G1 X100.118 Y102.41 E8.00542
G1 X100.711 Y101.689 E8.03647
G1 X101.244 Y101.134 E8.06206
M204 S2000
G0 F7500 X101.516 Y101.428
M204 S500
G1 F1500 X102.179 Y100.815 E8.0921
G1 X102.862 Y100.28 E8.12095
G1 X103.606 Y99.768 E8.15099
G1 X104.28 Y99.38 E8.17686
G1 X105.09 Y98.981 E8.20689
G1 X105.827 Y98.687 E8.23328
G1 X106.684 Y98.401 E8.26333
G1 X107.51 Y98.199 E8.29161
G1 X108.4 Y98.042 E8.32167
G1 X109.233 Y97.964 E8.3495
G1 X110.135 Y97.936 E8.37951
G1 X111.01 Y97.982 E8.40866
G1 X111.907 Y98.088 E8.4387
G1 X112.726 Y98.253 E8.46649
G1 X113.599 Y98.484 E8.49652
G1 X114.363 Y98.756 E8.52349
G1 X115.482 Y99.26 E8.56431
G1 X115.758 Y99.405 E8.57468
G1 X116.538 Y99.86 E8.60472
G1 X117.16 Y100.294 E8.62994
G1 X117.364 Y100.448 E8.63844
G1 X118.06 Y101.024 E8.66849
G1 X118.571 Y101.516 E8.69209
G1 X119.185 Y102.178 E8.72212
G1 X119.745 Y102.897 E8.75243
G1 X120.254 Y103.643 E8.78247
G1 X120.597 Y104.239 E8.80534
G1 X121 Y105.047 E8.83537
G1 X121.299 Y105.788 E8.86195
G1 X121.588 Y106.644 E8.89199
G1 X121.799 Y107.502 E8.92138
G1 X121.957 Y108.391 E8.95141
G1 X122.036 Y109.229 E8.97941
G1 X122.064 Y110.132 E9.00946
G1 X122.024 Y110.946 E9.03656
G1 X121.923 Y111.843 E9.06659
G1 X121.756 Y112.691 E9.09533
G1 X121.526 Y113.565 E9.12539
G1 X121.249 Y114.351 E9.15311
G1 X120.745 Y115.471 E9.19396
G1 X120.602 Y115.744 E9.20421
G1 X120.148 Y116.525 E9.23426
G1 X119.722 Y117.137 E9.25906
G1 X119.568 Y117.342 E9.26759
G1 X118.994 Y118.04 E9.29764
G1 X118.484 Y118.572 E9.32215
G1 X117.821 Y119.185 E9.35219
G1 X117.121 Y119.733 E9.38175
G1 X116.375 Y120.243 E9.41181
G1 X115.713 Y120.622 E9.43718
G1 X114.903 Y121.021 E9.46721
G1 X114.177 Y121.312 E9.49323
G1 X113.321 Y121.598 E9.52325
G1 X112.49 Y121.801 E9.5517
G1 X111.6 Y121.958 E9.58176
G1 X110.756 Y122.037 E9.60995
G1 X109.853 Y122.064 E9.64
G1 X108.981 Y122.018 E9.66904
G1 X108.084 Y121.91 E9.69909
G1 X107.274 Y121.747 E9.72657
G1 X106.401 Y121.516 E9.75661
G1 X105.625 Y121.239 E9.78401
G1 X104.515 Y120.738 E9.82452
G1 X104.241 Y120.594 E9.83481
G1 X103.461 Y120.139 E9.86485
G1 X102.84 Y119.706 E9.89003
G1 X102.636 Y119.552 E9.89853
G1 X101.94 Y118.976 E9.92858
G1 X101.423 Y118.478 E9.95245
G1 X100.809 Y117.815 E9.98251
G1 X100.407 Y117.308 E10.00403
G1 X100.234 Y117.075 E10.01368
G1 X99.728 Y116.326 E10.04374
G1 X99.392 Y115.74 E10.06621
G1 X98.991 Y114.93 E10.09627
G1 X98.691 Y114.184 E10.12301
G1 X98.404 Y113.327 E10.15307
G1 X98.199 Y112.49 E10.18174
G1 X98.042 Y111.6 E10.21179
G1 X97.964 Y110.775 E10.23936
G1 X97.936 Y109.872 E10.26941
G1 X97.976 Y109.057 E10.29654
G1 X98.077 Y108.16 E10.32657
G1 X98.194 Y107.542 E10.34749
G1 X98.281 Y107.15 E10.36084
G1 X98.516 Y106.278 E10.39088
G1 X98.827 Y105.43 E10.42092
G1 X99.205 Y104.624 E10.45053
G1 X99.4 Y104.252 E10.4645
G1 X99.854 Y103.472 E10.49452
G1 X100.274 Y102.868 E10.51899
G1 X100.427 Y102.664 E10.52747
G1 X101 Y101.966 E10.5575
G1 X101.516 Y101.428 E10.5823
M204 S2000
G1 F2400 E9.7823
;MESH:cylinder (3.75).stl
G0 F7500 X108.138 Y108.276
G0 X110.188 Y111.26
M204 S500
;TYPE:WALL-INNER
G1 F2400 E10.5823
G1 F1500 X110.526 Y111.158 E10.59404
G1 X110.832 Y110.964 E10.60609
G1 X111.128 Y110.621 E10.62116
G1 X111.258 Y110.189 E10.63617
G1 X111.26 Y109.812 E10.6487
G1 X111.158 Y109.475 E10.66042
G1 X110.916 Y109.092 E10.67548
G1 X110.539 Y108.846 E10.69046
G1 X110.19 Y108.742 E10.70257
G1 X109.812 Y108.74 E10.71514
G1 X109.474 Y108.842 E10.72688
G1 X109.096 Y109.081 E10.74176
G1 X108.846 Y109.462 E10.75691
G1 X108.743 Y109.806 E10.76886
G1 X108.74 Y110.188 E10.78156
G1 X108.842 Y110.526 E10.79331
G1 X109.036 Y110.832 E10.80536
G1 X109.382 Y111.13 E10.82055
G1 X109.81 Y111.258 E10.8354
G1 X110.188 Y111.26 E10.84798
M204 S2000
G0 F7500 X110.153 Y111.684
M204 S500
;TYPE:WALL-OUTER
G1 F1500 X110.692 Y111.524 E10.86668
G1 X111.094 Y111.268 E10.88253
G1 X111.471 Y110.832 E10.9017
G1 X111.647 Y110.356 E10.91858
G1 X111.684 Y109.847 E10.93555
G1 X111.523 Y109.307 E10.95429
G1 X111.267 Y108.905 E10.97015
G1 X111.102 Y108.74 E10.97791
G1 X110.707 Y108.482 E10.9936
G1 X110.357 Y108.353 E11.00601
G1 X109.847 Y108.316 E11.02301
G1 X109.308 Y108.476 E11.04171
G1 X108.908 Y108.731 E11.05749
G1 X108.742 Y108.896 E11.06527
G1 X108.482 Y109.294 E11.08109
G1 X108.354 Y109.639 E11.09333
G1 X108.327 Y109.993 E11.10513
G1 X108.343 Y110.245 E11.11353
G1 X108.476 Y110.692 E11.12904
G1 X108.732 Y111.094 E11.1449
G1 X108.897 Y111.259 E11.15266
G1 X109.293 Y111.518 E11.16839
G1 X109.643 Y111.647 E11.1808
G1 X110.153 Y111.684 E11.19781
M204 S2000
G0 F7500 X110.137 Y110.9
M204 S500
;TYPE:SKIN
G1 F1500 X109.863 Y110.899 E11.20692
G1 X109.616 Y110.825 E11.2155
G1 X109.345 Y110.648 E11.22626
G1 X109.17 Y110.374 E11.23708
G1 X109.1 Y110.138 E11.24526
G1 X109.101 Y109.86 E11.25451
G1 X109.175 Y109.617 E11.26296
G1 X109.355 Y109.343 E11.27386
G1 X109.623 Y109.172 E11.28444
G1 X109.864 Y109.1 E11.2928
G1 X110.137 Y109.1 E11.30188
G1 X110.44 Y109.192 E11.31241
G1 X110.689 Y109.407 E11.32336
G1 X110.828 Y109.625 E11.33196
G1 X110.9 Y109.864 E11.34026
G1 X110.898 Y110.138 E11.34937
G1 X110.825 Y110.384 E11.35791
G1 X110.648 Y110.657 E11.36873
G1 X110.377 Y110.829 E11.3794
G1 X110.137 Y110.9 E11.38773
M204 S2000
G0 F7500 X110.124 Y111.16
G0 X109.529 Y111.007
G0 X109.199 Y110.791
G0 X108.988 Y110.459
G0 X108.869 Y109.729
G0 X109.305 Y109.871
M204 S500
G1 F1500 X110.126 Y110.692 E11.42634
M204 S2000
G0 F7500 X110.507 Y110.507
M204 S500
G1 F1500 X109.494 Y109.494 E11.47399
M204 S2000
G0 F7500 X109.871 Y109.305
M204 S500
G1 F1500 X110.692 Y110.126 E11.51261
M104 S200
M204 S2000
G1 F2400 E10.71261
;MESH:NONMESH
G0 F300 X110.692 Y110.126 Z0.4
G0 F7500 X111.131 Y110.268
G0 X111.1 Y109.835
G0 X111.011 Y109.543
G0 X110.841 Y109.272
G0 X110.54 Y109.013
G0 X110.236 Y108.922
G0 X108.993 Y108.957
G0 X108.228 Y108.187
G0 X101.516 Y101.428
;TIME_ELAPSED:19.861884
;LAYER:1
M106 S85
M204 S500
;TYPE:SKIRT
G1 F2400 E11.51261
G1 F636.8 X102.179 Y100.815 E11.54264
G1 X102.862 Y100.28 E11.5715
G1 X103.606 Y99.768 E11.60154
G1 X104.28 Y99.38 E11.6274
G1 X105.09 Y98.981 E11.65744
G1 X105.827 Y98.687 E11.68383
G1 X106.684 Y98.401 E11.71388
G1 X107.51 Y98.199 E11.74216
G1 X108.4 Y98.042 E11.77222
G1 X109.233 Y97.964 E11.80004
G1 X110.135 Y97.936 E11.83006
G1 X111.01 Y97.982 E11.8592
G1 X111.907 Y98.088 E11.88924
G1 X112.726 Y98.253 E11.91703
G1 X113.599 Y98.484 E11.94707
G1 X114.363 Y98.756 E11.97404
G1 X115.482 Y99.26 E12.01486
G1 X115.758 Y99.405 E12.02523
G1 X116.538 Y99.86 E12.05526
G1 X117.16 Y100.294 E12.08049
G1 X117.364 Y100.448 E12.08899
G1 X118.06 Y101.024 E12.11904
G1 X118.571 Y101.516 E12.14263
G1 X119.185 Y102.178 E12.17266
G1 X119.745 Y102.897 E12.20297
G1 X120.254 Y103.643 E12.23301
G1 X120.597 Y104.239 E12.25588
