;FLAVOR:Marlin
;TIME:7701
;Filament used: 5.98892m
;Layer height: 0.2
;MINX:76.5
;MINY:63.5
;MINZ:0.2
;MAXX:143.5
;MAXY:156.5
;MAXZ:18
;TARGET_MACHINE.NAME:Creality Ender-3 S1
;Generated with Cura_SteamEngine 5.6.0
M82 ;absolute extrusion mode
; Ender 3 S1 Start G-code
; M413 S0 ; Disable power loss recovery
G92 E0 ; Reset Extruder

; Prep surfaces before auto home for better accuracy
M140 S60
M104 S200

G28 ; Home all axes
G1 Z10.0 F3000 ; Move Z Axis up little to prevent scratching of Heat Bed
G1 X0 Y0

M190 S60
M109 S200

G1 X0.1 Y20 Z0.3 F5000.0 ; Move to start position
G1 X0.1 Y200.0 Z0.3 F1500.0 E15 ; Draw the first line
G1 X0.4 Y200.0 Z0.3 F5000.0 ; Move to side a little
G1 X0.4 Y20 Z0.3 F1500.0 E30 ; Draw the second line
G92 E0 ; Reset Extruder
G1 Z2.0 F3000 ; Move Z Axis up little to prevent scratching of Heat Bed
G1 X5 Y20 Z0.3 F5000.0 ; Move over to prevent blob squish

G92 E0
G92 E0
G1 F2400 E-0.8
;LAYER_COUNT:90
;LAYER:0
M107
M204 S2000
G0 F7500 X79.231 Y67.265 Z0.2
M204 S500
;TYPE:SKIRT
G1 F2400 E0
G1 F1500 X79.956 Y66.513 E0.03474
G1 X80.692 Y65.876 E0.06712
G1 X81.424 Y65.346 E0.09718
G1 X82.321 Y64.811 E0.13191
G1 X83.199 Y64.39 E0.1643
G1 X84.112 Y64.048 E0.19673
G1 X85.049 Y63.789 E0.22906
G1 X86.016 Y63.611 E0.26176
G1 X87.155 Y63.515 E0.29978
G1 X87.812 Y63.5 E0.32164
G1 X131.804 Y63.5 E1.78482
G1 X132.684 Y63.513 E1.81409
G1 X133.656 Y63.572 E1.84648
G1 X134.619 Y63.718 E1.87887
G1 X135.566 Y63.949 E1.91129
G1 X136.454 Y64.249 E1.94247
G1 X137.346 Y64.639 E1.97485
G1 X138.229 Y65.126 E2.00839
G1 X138.98 Y65.628 E2.03843
G1 X139.795 Y66.286 E2.07327
G1 X140.493 Y66.964 E2.10564
G1 X141.129 Y67.701 E2.13802
G1 X141.699 Y68.491 E2.17042
G1 X142.161 Y69.267 E2.20045
G1 X142.615 Y70.209 E2.23523
G1 X142.944 Y71.087 E2.26642
G1 X143.213 Y72.059 E2.29996
G1 X143.39 Y73.025 E2.33263
G1 X143.485 Y74.155 E2.37034
G1 X143.5 Y74.83 E2.3928
G1 X143.499 Y144.9 E4.72334
G1 X143.488 Y145.663 E4.74872
G1 X143.431 Y146.636 E4.78114
G1 X143.286 Y147.599 E4.81353
G1 X143.057 Y148.545 E4.8459
G1 X142.746 Y149.469 E4.87833
G1 X142.354 Y150.36 E4.9107
G1 X141.886 Y151.212 E4.94303
G1 X141.364 Y151.993 E4.97428
G1 X140.731 Y152.778 E5.00782
G1 X140.106 Y153.429 E5.03783
G1 X139.317 Y154.117 E5.07265
G1 X138.557 Y154.667 E5.10385
G1 X137.69 Y155.184 E5.13743
G1 X136.812 Y155.606 E5.16983
G1 X135.901 Y155.948 E5.20219
G1 X134.962 Y156.209 E5.23461
G1 X133.996 Y156.387 E5.26728
G1 X132.845 Y156.485 E5.3057
G1 X132.17 Y156.5 E5.32816
G1 X88.064 Y156.499 E6.79513
G1 X87.331 Y156.488 E6.81951
G1 X86.359 Y156.431 E6.85189
G1 X85.396 Y156.285 E6.88429
G1 X84.45 Y156.056 E6.91666
G1 X83.526 Y155.744 E6.9491
G1 X82.636 Y155.352 E6.98144
G1 X81.813 Y154.901 E7.01266
G1 X80.974 Y154.34 E7.04623
G1 X80.27 Y153.774 E7.07627
G1 X79.517 Y153.049 E7.11104
G1 X78.88 Y152.313 E7.14341
G1 X78.35 Y151.582 E7.17344
G1 X77.814 Y150.685 E7.2082
G1 X77.392 Y149.807 E7.2406
G1 X77.05 Y148.895 E7.27299
G1 X76.79 Y147.957 E7.30537
G1 X76.612 Y146.988 E7.33814
G1 X76.514 Y145.809 E7.37749
G1 X76.5 Y145.158 E7.39914
G1 X76.501 Y75.025 E9.73178
G1 X76.512 Y74.325 E9.75506
G1 X76.57 Y73.352 E9.78748
G1 X76.716 Y72.389 E9.81988
G1 X76.946 Y71.443 E9.85226
G1 X77.259 Y70.52 E9.88467
G1 X77.651 Y69.63 E9.91702
G1 X78.121 Y68.777 E9.94941
G1 X78.664 Y67.969 E9.98179
G1 X79.231 Y67.265 E10.01186
M204 S2000
G0 F7500 X79.543 Y67.516
M204 S500
G1 F1500 X80.218 Y66.815 E10.04422
G1 X80.927 Y66.2 E10.07544
G1 X81.659 Y65.67 E10.1055
G1 X82.495 Y65.171 E10.13788
G1 X83.34 Y64.764 E10.16908
G1 X84.219 Y64.433 E10.20032
G1 X85.122 Y64.182 E10.23149
G1 X86.05 Y64.01 E10.26288
G1 X87.189 Y63.914 E10.3009
G1 X87.821 Y63.9 E10.32192
G1 X131.798 Y63.9 E11.7846
G1 X132.66 Y63.912 E11.81328
G1 X133.597 Y63.968 E11.8445
G1 X134.525 Y64.107 E11.87571
G1 X135.438 Y64.328 E11.90695
G1 X136.294 Y64.616 E11.93699
G1 X137.186 Y65.006 E11.96937
G1 X138.007 Y65.459 E12.00056
G1 X138.758 Y65.961 E12.0306
G1 X139.517 Y66.573 E12.06303
G1 X140.191 Y67.226 E12.09424
G1 X140.805 Y67.935 E12.12544
G1 X141.355 Y68.696 E12.15667
G1 X141.817 Y69.472 E12.1867
G1 X142.24 Y70.349 E12.21909
G1 X142.569 Y71.227 E12.25027
G1 X142.82 Y72.132 E12.28151
G1 X142.991 Y73.059 E12.31286
G1 X143.086 Y74.189 E12.35058
G1 X143.1 Y74.83 E12.3719
G1 X143.099 Y144.895 E14.70228
G1 X143.089 Y145.64 E14.72706
G1 X143.035 Y146.577 E14.75827
G1 X142.897 Y147.506 E14.78951
G1 X142.678 Y148.418 E14.82071
G1 X142.38 Y149.308 E14.85192
G1 X142.003 Y150.168 E14.88316
G1 X141.553 Y150.99 E14.91432
G1 X141.031 Y151.771 E14.94557
G1 X140.442 Y152.501 E14.97677
G1 X139.817 Y153.152 E15.00678
G1 X139.082 Y153.793 E15.03922
G1 X138.322 Y154.343 E15.07042
G1 X137.516 Y154.824 E15.10164
G1 X136.671 Y155.232 E15.13285
G1 X135.793 Y155.563 E15.16406
G1 X134.889 Y155.816 E15.19528
G1 X133.962 Y155.988 E15.22664
G1 X132.811 Y156.086 E15.26506
G1 X132.17 Y156.1 E15.28638
G1 X88.07 Y156.099 E16.75316
G1 X87.354 Y156.089 E16.77697
G1 X86.418 Y156.035 E16.80816
G1 X85.489 Y155.896 E16.8394
G1 X84.577 Y155.677 E16.87059
G1 X83.687 Y155.378 E16.90182
G1 X82.828 Y155.001 E16.93302
G1 X82.005 Y154.55 E16.96424
G1 X81.225 Y154.028 E16.99545
G1 X80.521 Y153.462 E17.0255
G1 X79.819 Y152.787 E17.05789
G1 X79.204 Y152.078 E17.0891
G1 X78.674 Y151.347 E17.11914
G1 X78.174 Y150.511 E17.15153
G1 X77.766 Y149.666 E17.18274
G1 X77.435 Y148.788 E17.21395
G1 X77.183 Y147.884 E17.24517
G1 X77.011 Y146.955 E17.27659
G1 X76.913 Y145.776 E17.31594
G1 X76.9 Y145.158 E17.3365
G1 X76.901 Y75.031 E19.66893
G1 X76.911 Y74.348 E19.69165
G1 X76.966 Y73.411 E19.72287
G1 X77.105 Y72.483 E19.75408
G1 X77.325 Y71.571 E19.78528
G1 X77.625 Y70.681 E19.81652
G1 X78.002 Y69.822 E19.84772
G1 X78.453 Y69 E19.87891
G1 X78.976 Y68.22 E19.91014
G1 X79.543 Y67.516 E19.94021
M204 S2000
G0 F7500 X79.855 Y67.767
M204 S500
G1 F1500 X80.481 Y67.117 E19.97022
G1 X81.162 Y66.524 E20.00025
G1 X81.894 Y65.994 E20.03031
G1 X82.669 Y65.531 E20.06034
G1 X83.482 Y65.138 E20.09037
G1 X84.327 Y64.818 E20.12043
G1 X85.196 Y64.575 E20.15044
G1 X86.084 Y64.409 E20.18048
G1 X87.223 Y64.313 E20.2185
G1 X87.83 Y64.3 E20.2387
G1 X131.793 Y64.3 E21.70091
G1 X132.637 Y64.311 E21.72898
G1 X133.539 Y64.364 E21.75904
G1 X134.432 Y64.496 E21.78906
G1 X135.31 Y64.707 E21.81909
G1 X136.166 Y64.995 E21.84913
G1 X136.993 Y65.357 E21.87916
G1 X137.785 Y65.792 E21.90921
G1 X138.536 Y66.294 E21.93926
G1 X139.239 Y66.861 E21.9693
G1 X139.889 Y67.488 E21.99934
G1 X140.481 Y68.17 E22.02937
G1 X141.011 Y68.901 E22.0594
G1 X141.473 Y69.677 E22.08944
G1 X141.866 Y70.49 E22.11948
G1 X142.184 Y71.335 E22.1495
G1 X142.427 Y72.205 E22.17955
G1 X142.592 Y73.093 E22.20959
G1 X142.687 Y74.223 E22.24731
G1 X142.7 Y74.83 E22.2675
G1 X142.699 Y144.89 E24.5977
G1 X142.69 Y145.617 E24.62189
G1 X142.639 Y146.519 E24.65193
G1 X142.508 Y147.413 E24.68199
G1 X142.299 Y148.291 E24.71201
G1 X142.013 Y149.148 E24.74205
G1 X141.652 Y149.976 E24.7721
G1 X141.22 Y150.768 E24.8021
G1 X140.719 Y151.52 E24.83216
G1 X140.153 Y152.224 E24.8622
G1 X139.528 Y152.875 E24.89222
G1 X138.847 Y153.469 E24.92227
G1 X138.116 Y154 E24.95232
G1 X137.342 Y154.464 E24.98234
G1 X136.529 Y154.858 E25.01239
G1 X135.685 Y155.178 E25.04241
G1 X134.815 Y155.423 E25.07247
G1 X133.928 Y155.589 E25.10248
G1 X132.777 Y155.687 E25.14091
G1 X132.17 Y155.7 E25.1611
G1 X88.075 Y155.699 E26.6277
G1 X87.377 Y155.69 E26.65092
G1 X86.476 Y155.639 E26.68094
G1 X85.582 Y155.507 E26.71099
G1 X84.704 Y155.298 E26.74101
G1 X83.847 Y155.011 E26.77107
G1 X83.02 Y154.65 E26.80109
G1 X82.227 Y154.217 E26.83114
G1 X81.476 Y153.716 E26.86116
G1 X80.772 Y153.15 E26.89121
G1 X80.121 Y152.524 E26.92125
G1 X79.528 Y151.843 E26.95128
G1 X78.998 Y151.112 E26.98131
G1 X78.534 Y150.337 E27.01135
G1 X78.14 Y149.524 E27.0414
G1 X77.82 Y148.68 E27.07142
G1 X77.576 Y147.81 E27.10148
G1 X77.41 Y146.922 E27.13152
G1 X77.313 Y145.767 E27.17007
G1 X77.3 Y145.158 E27.19033
G1 X77.301 Y75.036 E29.5226
G1 X77.31 Y74.371 E29.54472
G1 X77.362 Y73.469 E29.57477
G1 X77.494 Y72.576 E29.6048
G1 X77.704 Y71.698 E29.63482
G1 X77.991 Y70.841 E29.66488
G1 X78.353 Y70.014 E29.69491
G1 X78.786 Y69.222 E29.72493
G1 X79.288 Y68.471 E29.75497
G1 X79.855 Y67.767 E29.78504
M204 S2000
G1 F2400 E28.98504
;MESH:New_Thigh_third v1.stl
G0 F7500 X101.719 Y77.501
G0 X102.201 Y83.021
M204 S500
;TYPE:WALL-INNER
G1 F2400 E29.78504
G1 F1500 X101.977 Y82.796 E29.7956
G1 X101.9 Y82.573 E29.80345
G1 X101.9 Y77.376 E29.9763
G1 X102.02 Y77.14 E29.98511
G1 X102.217 Y76.97 E29.99376
G1 X102.419 Y76.9 E30.00087
G1 X117.5 Y76.9 E30.50247
G1 X117.783 Y76.97 E30.51216
G1 X117.98 Y77.14 E30.52082
G1 X118.1 Y77.376 E30.52962
G1 X118.098 Y82.558 E30.70198
G1 X118.012 Y82.814 E30.71096
G1 X117.883 Y82.963 E30.71751
G1 X117.578 Y83.1 E30.72863
G1 X102.467 Y83.1 E31.23123
G1 X102.201 Y83.021 E31.24046
M204 S2000
G1 F2400 E30.44046
G0 F7500 X117.928 Y82.928
G0 X118.28 Y81.201
G0 X126.596 Y80.529
G0 X128.355 Y81.102
M204 S500
G1 F2400 E31.24046
G1 F1500 X127.748 Y80.99 E31.26099
G1 X127.204 Y80.758 E31.28066
G1 X126.719 Y80.396 E31.30079
G1 X126.324 Y79.932 E31.32105
G1 X126.054 Y79.394 E31.34108
G1 X125.923 Y78.841 E31.35998
G1 X125.913 Y78.201 E31.38127
G1 X126.054 Y77.606 E31.4016
G1 X126.324 Y77.069 E31.4216
G1 X126.712 Y76.605 E31.44171
G1 X127.201 Y76.243 E31.46195
G1 X127.747 Y76.006 E31.48175
G1 X128.339 Y75.899 E31.50175
G1 X128.949 Y75.933 E31.52207
G1 X129.529 Y76.109 E31.54223
G1 X130.057 Y76.412 E31.56248
G1 X130.494 Y76.823 E31.58243
G1 X130.828 Y77.335 E31.60277
G1 X131.034 Y77.897 E31.62268
G1 X131.105 Y78.494 E31.64267
G1 X131.033 Y79.104 E31.6631
G1 X130.827 Y79.667 E31.68304
G1 X130.499 Y80.17 E31.70301
G1 X130.058 Y80.587 E31.7232
G1 X129.54 Y80.886 E31.74309
G1 X128.956 Y81.064 E31.7634
G1 X128.355 Y81.102 E31.78343
M204 S2000
G1 F2400 E30.98343
G0 F7500 X128.34 Y81.201
G0 X131.7 Y81.284
G0 X131.9 Y144.9
M204 S500
G1 F2400 E31.78343
G1 F1500 X131.9 Y75.1 E34.10499
G1 X88.1 Y75.1 E35.56178
G1 X88.1 Y144.9 E37.88334
G1 X131.9 Y144.9 E39.34013
M204 S2000
G1 F2400 E38.54013
G0 F7500 X92.556 Y144.7
G0 X92.393 Y144.139
G0 X91.953 Y144.061
M204 S500
G1 F2400 E39.34013
G1 F1500 X91.348 Y144.101 E39.3603
G1 X90.753 Y143.996 E39.38039
G1 X90.205 Y143.76 E39.40024
G1 X89.716 Y143.399 E39.42045
G1 X89.324 Y142.932 E39.44073
G1 X89.052 Y142.389 E39.46093
G1 X88.915 Y141.807 E39.48082
G1 X88.914 Y141.193 E39.50124
G1 X89.052 Y140.61 E39.52117
G1 X89.324 Y140.068 E39.54134
G1 X89.713 Y139.605 E39.56145
G1 X90.201 Y139.243 E39.58166
G1 X90.75 Y139.005 E39.60156
G1 X91.352 Y138.898 E39.6219
G1 X91.955 Y138.939 E39.642
G1 X92.537 Y139.116 E39.66223
G1 X93.057 Y139.414 E39.68217
G1 X93.49 Y139.819 E39.70189
G1 X93.83 Y140.34 E39.72258
G1 X94.029 Y140.893 E39.74213
G1 X94.105 Y141.496 E39.76234
G1 X94.035 Y142.1 E39.78256
G1 X93.827 Y142.667 E39.80265
G1 X93.499 Y143.17 E39.82262
G1 X93.057 Y143.587 E39.84283
G1 X92.534 Y143.889 E39.86292
G1 X91.953 Y144.061 E39.88307
M204 S2000
G0 F7500 X91.884 Y143.667
M204 S500
;TYPE:WALL-OUTER
G1 F1500 X91.356 Y143.696 E39.90066
G1 X90.891 Y143.614 E39.91637
G1 X90.424 Y143.418 E39.93321
G1 X90.007 Y143.116 E39.95034
G1 X89.677 Y142.731 E39.9672
G1 X89.426 Y142.231 E39.98581
G1 X89.317 Y141.772 E40.0015
G1 X89.319 Y141.221 E40.01983
G1 X89.426 Y140.769 E40.03528
G1 X89.675 Y140.273 E40.05374
G1 X89.974 Y139.916 E40.06922
G1 X90.381 Y139.607 E40.08622
G1 X90.845 Y139.4 E40.10312
G1 X91.398 Y139.302 E40.1218
G1 X91.881 Y139.332 E40.13789
G1 X92.374 Y139.482 E40.15503
G1 X92.808 Y139.731 E40.17168
G1 X93.178 Y140.075 E40.18848
G1 X93.461 Y140.505 E40.2056
G1 X93.641 Y140.989 E40.22277
G1 X93.699 Y141.519 E40.24051
G1 X93.645 Y141.985 E40.25611
G1 X93.454 Y142.507 E40.2746
G1 X93.173 Y142.928 E40.29143
G1 X92.798 Y143.275 E40.30843
G1 X92.355 Y143.525 E40.32535
G1 X91.884 Y143.667 E40.34171
M204 S2000
G1 F2400 E39.54171
G0 F7500 X92.556 Y143.988
G0 X93.639 Y143.287
G0 X93.639 Y144.7
G0 X132.3 Y145.3
M204 S500
G1 F2400 E40.34171
G1 F1500 X132.3 Y74.7 E42.68987
G1 X87.7 Y74.7 E44.17327
G1 X87.7 Y145.3 E46.52144
G1 X132.3 Y145.3 E48.00484
M204 S2000
G1 F2400 E47.20484
G0 F7500 X132.03 Y145.03
G0 X131.7 Y81.197
G0 X130.169 Y80.731
G0 X128.404 Y80.698
M204 S500
G1 F2400 E48.00484
G1 F1500 X127.866 Y80.608 E48.02298
G1 X127.413 Y80.413 E48.03939
G1 X126.991 Y80.102 E48.05682
G1 X126.671 Y79.724 E48.0733
G1 X126.426 Y79.231 E48.09161
G1 X126.317 Y78.772 E48.1073
G1 X126.319 Y78.221 E48.12562
G1 X126.426 Y77.769 E48.14107
G1 X126.675 Y77.273 E48.15953
G1 X126.974 Y76.916 E48.17502
G1 X127.381 Y76.607 E48.19202
G1 X127.845 Y76.4 E48.20892
G1 X128.35 Y76.304 E48.22601
G1 X128.903 Y76.337 E48.24444
G1 X129.392 Y76.491 E48.26149
G1 X129.833 Y76.751 E48.27852
G1 X130.199 Y77.102 E48.29538
G1 X130.474 Y77.533 E48.31239
G1 X130.645 Y78.014 E48.32937
G1 X130.7 Y78.495 E48.34547
G1 X130.644 Y78.996 E48.36224
G1 X130.454 Y79.507 E48.38037
G1 X130.173 Y79.928 E48.3972
G1 X129.798 Y80.275 E48.4142
G1 X129.355 Y80.525 E48.43112
G1 X128.908 Y80.661 E48.44666
G1 X128.404 Y80.698 E48.46346
M204 S2000
G1 F2400 E47.66346
G0 F7500 X128.435 Y81.197
G0 X126.596 Y80.529
G0 X118.28 Y80.529
G0 X102.465 Y82.698
M204 S500
G1 F2400 E48.46346
G1 F1500 X102.302 Y82.583 E48.4701
G1 X102.3 Y77.456 E48.64062
G1 X102.34 Y77.38 E48.64348
G1 X102.465 Y77.302 E48.64838
G1 X117.577 Y77.3 E49.15101
G1 X117.7 Y77.456 E49.15762
G1 X117.7 Y82.52 E49.32605
G1 X117.671 Y82.605 E49.32903
G1 X117.535 Y82.698 E49.33451
G1 X102.465 Y82.698 E49.83574
M204 S2000
G1 F2400 E49.03574
G0 F7500 X102.465 Y83
G0 X102.268 Y83.246
G0 X90.108 Y139.087
G0 X88.51 Y141.12
M204 S500
;TYPE:SKIN
G1 F2400 E49.83574
G1 F1200 X88.511 Y141.882 E49.86742
M204 S2000
G0 F7500 X88.814 Y141.818
G0 X89.463 Y142.847
G0 X89.825 Y143.277
G0 X90.085 Y143.469
G0 X91.342 Y144.202
G0 X91.295 Y144.499
M204 S500
G1 F1363.6 X90.655 Y144.54 E49.89089
G1 F1500 X88.46 Y144.54 E49.96389
G1 X88.461 Y142.512 E50.03134
G1 F1333.3 X88.511 Y141.882 E50.05499
G1 X88.719 Y142.528 E50.08038
G1 F1500 X89.039 Y143.154 E50.10377
G1 X89.452 Y143.646 E50.12513
G1 X90.042 Y144.082 E50.14953
G1 X90.627 Y144.334 E50.17072
G1 F1363.6 X91.295 Y144.499 E50.19589
G1 F1185.8 X92.056 Y144.473 E50.22793
G1 F1287.6 X92.694 Y144.213 E50.25463
G1 F1500 X93.257 Y143.887 E50.27626
G1 X93.764 Y143.415 E50.2993
G1 X94.135 Y142.855 E50.32165
G1 X94.38 Y142.208 E50.34466
G1 X94.464 Y141.51 E50.36804
G1 X94.383 Y140.831 E50.39078
G1 X94.135 Y140.144 E50.41508
G1 X93.778 Y139.606 E50.43655
G1 X93.269 Y139.12 E50.45996
G1 X92.654 Y138.768 E50.48353
G1 X91.999 Y138.582 E50.50617
G1 X91.359 Y138.537 E50.52751
G1 X90.625 Y138.667 E50.5523
G1 X90.034 Y138.924 E50.57374
G1 X89.452 Y139.354 E50.59781
G1 X89.005 Y139.897 E50.6212
G1 X88.72 Y140.471 E50.64252
G1 F1333.3 X88.51 Y141.12 E50.66804
G1 X88.46 Y140.486 E50.69184
G1 F1500 X88.46 Y75.46 E52.85461
G1 X127.65 Y75.461 E54.15807
G1 F1366.7 X128.3 Y75.5 E54.18184
G1 X127.623 Y75.667 E54.2073
G1 F1500 X127.039 Y75.92 E54.22846
G1 X126.485 Y76.324 E54.25127
G1 X126.035 Y76.853 E54.27437
G1 X125.707 Y77.505 E54.29864
G1 X125.559 Y78.13 E54.32001
G1 X125.558 Y78.864 E54.34442
G1 X125.707 Y79.494 E54.36595
G1 X126.045 Y80.156 E54.39067
G1 X126.458 Y80.644 E54.41194
G1 X127.023 Y81.07 E54.43547
G1 X127.647 Y81.336 E54.45803
G1 X128.357 Y81.463 E54.48202
G1 X129.044 Y81.414 E54.50493
G1 X129.7 Y81.209 E54.52779
G1 X130.293 Y80.86 E54.55068
G1 X130.766 Y80.413 E54.57232
G1 X131.138 Y79.847 E54.59485
G1 F1260.5 X131.464 Y79.19 E54.62388
G1 X131.54 Y79.876 E54.6512
G1 F1500 X131.54 Y144.54 E56.80193
G1 X92.692 Y144.54 E58.09402
G1 F1287.6 X92.056 Y144.473 E58.1188
M204 S2000
G1 F2400 E57.3188
G0 F7500 X92.556 Y143.988
G0 X93.374 Y143.065
G0 X93.682 Y142.596
G0 X93.876 Y142.063
G0 X93.979 Y140.233
G0 X128.99 Y81.243
G0 X131.464 Y79.19
M204 S500
G1 F2400 E58.1188
G1 F1169.6 X131.503 Y78.493 E58.14858
G1 X131.464 Y77.821 E58.17729
G1 F1260.5 X131.136 Y77.146 E58.20699
G1 F1500 X130.781 Y76.605 E58.22851
G1 X130.297 Y76.142 E58.25079
G1 X129.693 Y75.787 E58.27409
G1 F1298.7 X129.055 Y75.523 E58.30062
G1 X129.696 Y75.46 E58.32536
G1 F1500 X131.54 Y75.46 E58.38669
